;FLAVOR:Marlin
;TIME:6867
;Filament used: 6.30014m
;Layer height: 0.16
;MINX:113.797
;MINY:100.573
;MINZ:0.2
;MAXX:186.15
;MAXY:196.879
;MAXZ:15.4
;Generated with Cura_SteamEngine 5.4.0
M140 S65
M105
M190 S65
M104 S210
M105
M109 S210
M82 ;absolute extrusion mode
G28 ; home all axes
M420 S1 Z10
 M117 Purge extruder
 G92 E0 ; reset extruder
 G1 Z1.0 F3000 ; move z up little to prevent scratching of surface
 G1 X2 Y20 Z0.3 F5000.0 ; move to start-line position
 G1 X2 Y200.0 Z0.3 F1500.0 E15 ; draw 1st line
 G1 X2 Y200.0 Z0.4 F5000.0 ; move to side a little
 G1 X2 Y20 Z0.4 F1500.0 E30 ; draw 2nd line
 G92 E0 ; reset extruder
 G1 Z1.0 F3000 ; move z up little to prevent scratching of surface
G92 E0
G92 E0
G1 F1500 E-3
;LAYER_COUNT:86
;LAYER:0
M107
G1 F300 Z0.4
G0 F6000 X125.824 Y118.799 Z0.4
;TYPE:SKIRT
G1 F300 Z0.2
G1 F1500 E0
G1 F1200 X127.671 Y117.485 E0.08293
G1 X128.636 Y117.213 E0.11961
G1 X129.407 Y116.409 E0.16037
G1 X130.403 Y115.703 E0.20503
G1 X130.641 Y115.252 E0.22369
G1 X132.326 Y113.489 E0.31291
G1 X133.306 Y112.792 E0.35691
G1 X133.539 Y112.351 E0.37516
G1 X135.23 Y110.588 E0.46453
G1 X136.01 Y110.036 E0.49949
G1 X136.012 Y109.73 E0.51069
G1 X136.85 Y106.786 E0.62268
G1 X137.791 Y104.952 E0.69809
G1 X139.758 Y102.874 E0.80278
G1 X141.649 Y101.553 E0.88717
G1 X144.626 Y100.728 E1.00019
G1 X146.974 Y100.573 E1.08629
G1 X150.395 Y101.547 E1.21642
G1 X150.568 Y101.632 E1.22347
G1 X152.786 Y101.001 E1.30784
G1 X155.12 Y100.846 E1.39342
G1 X158.1 Y101.687 E1.50671
G1 X160.146 Y102.741 E1.59091
G1 X162.254 Y104.967 E1.70307
G1 X163.345 Y106.687 E1.77759
G1 X164.128 Y109.382 E1.88027
G1 X164.17 Y109.989 E1.90253
G1 X164.763 Y110.617 E1.93413
G1 X164.893 Y110.805 E1.9425
G1 X165.178 Y110.925 E1.95381
G1 X166.958 Y112.181 E2.03351
G1 X168.388 Y113.701 E2.10987
G1 X169.066 Y114.771 E2.15621
G1 X170.466 Y116.223 E2.23
G1 X170.806 Y116.767 E2.25347
G1 X171.467 Y117.109 E2.2807
G1 X173.321 Y119.053 E2.37899
G1 X173.519 Y119.367 E2.39257
G1 X174.338 Y119.786 E2.42623
G1 X176.201 Y121.75 E2.52527
G1 X177.299 Y123.487 E2.60045
G1 X178.001 Y125.887 E2.69193
G1 X178.176 Y128.265 E2.77917
G1 X178.023 Y128.787 E2.79907
G1 X178.107 Y129.827 E2.83725
G1 X177.916 Y130.52 E2.86355
G1 X178.297 Y131.836 E2.91367
G1 X178.477 Y134.221 E3.00118
G1 X177.911 Y136.164 E3.07522
G1 X178.397 Y137.824 E3.1385
G1 X178.577 Y140.182 E3.22502
G1 X178.027 Y142.139 E3.29939
G1 X178.563 Y143.982 E3.36962
G1 X178.605 Y144.535 E3.38991
G1 X179.155 Y144.822 E3.4126
G1 X179.576 Y145.263 E3.43491
G1 X180.386 Y145.477 E3.46556
G1 X182.102 Y146.419 E3.53718
G1 X182.955 Y147.044 E3.57587
G1 X184.489 Y148.812 E3.66151
G1 X185.521 Y150.627 E3.73789
G1 X186.11 Y153.088 E3.83048
G1 X186.15 Y155.292 E3.91113
G1 X185.388 Y157.957 E4.01253
G1 X184.818 Y159.031 E4.05702
G1 X184.78 Y159.285 E4.06642
G1 X184.154 Y161.533 E4.15179
G1 X183.121 Y163.489 E4.23272
G1 X181.273 Y165.337 E4.32834
G1 X180.511 Y165.828 E4.3615
G1 X180.207 Y166.403 E4.3853
G1 X178.61 Y168 E4.46793
G1 X178.736 Y169.632 E4.52781
G1 X178.29 Y171.228 E4.58844
G1 X178.816 Y173.034 E4.65726
G1 X178.992 Y175.401 E4.7441
G1 X178.24 Y178.084 E4.84604
G1 X178.008 Y178.52 E4.86411
G1 X178.292 Y179.48 E4.90074
G1 X178.473 Y181.852 E4.98778
G1 X177.72 Y184.551 E5.09029
G1 X176.687 Y186.507 E5.17122
G1 X175.554 Y187.64 E5.22984
G1 X175.472 Y187.877 E5.23902
G1 X174.483 Y189.758 E5.31677
G1 X172.637 Y191.604 E5.41228
G1 X170.809 Y192.793 E5.49207
G1 X169.046 Y193.277 E5.55895
G1 X168.099 Y194.224 E5.60795
G1 X166.271 Y195.413 E5.68773
G1 X163.75 Y196.105 E5.78338
G1 X161.375 Y196.259 E5.87045
G1 X160.585 Y196.026 E5.90059
G1 X159.458 Y196.337 E5.94336
G1 X158.576 Y196.394 E5.9757
G1 X157.401 Y196.725 E6.02036
G1 X154.987 Y196.879 E6.10886
G1 X154.237 Y196.659 E6.13745
G1 X153.952 Y196.728 E6.14818
G1 X151.592 Y196.879 E6.2347
G1 X151.152 Y196.748 E6.2515
G1 X149.175 Y196.879 E6.32399
G1 X147.927 Y196.514 E6.37156
G1 X147.801 Y196.534 E6.37623
G1 X145.611 Y196.676 E6.45652
G1 X142.944 Y195.894 E6.5582
G1 X142.64 Y195.73 E6.57084
G1 X142.363 Y195.65 E6.58139
G1 X140.489 Y196.166 E6.6525
G1 X138.123 Y196.32 E6.73925
G1 X135.454 Y195.536 E6.84102
G1 X134.418 Y194.979 E6.88406
G1 X133.619 Y195.031 E6.91335
G1 X130.962 Y194.247 E7.0147
G1 X129.068 Y193.24 E7.09318
G1 X127.229 Y191.401 E7.18834
G1 X126.735 Y190.64 E7.22153
G1 X126.162 Y190.334 E7.24529
G1 X124.304 Y188.476 E7.34143
G1 X123.157 Y186.718 E7.41823
G1 X122.43 Y184.267 E7.51176
G1 X122.267 Y181.973 E7.5959
G1 X122.295 Y181.751 E7.60409
G1 X122.115 Y181.475 E7.61614
G1 X121.387 Y179.03 E7.70948
G1 X121.217 Y176.583 E7.79922
G1 X121.797 Y174.586 E7.8753
G1 X121.387 Y173.215 E7.92766
G1 X121.216 Y170.759 E8.01773
G1 X121.797 Y168.761 E8.09386
G1 X121.457 Y167.619 E8.13745
G1 X121.429 Y167.472 E8.14292
G1 X121.173 Y167.078 E8.16011
G1 X120.606 Y166.776 E8.18362
G1 X118.755 Y164.925 E8.27939
G1 X118.269 Y164.176 E8.31206
G1 X117.7 Y163.872 E8.33566
G1 X115.842 Y162.014 E8.43179
G1 X114.695 Y160.256 E8.50859
G1 X113.968 Y157.805 E8.60212
G1 X113.797 Y155.356 E8.69194
G1 X114.327 Y153.531 E8.76147
G1 X114.194 Y151.757 E8.82656
G1 X114.228 Y151.443 E8.83811
G1 X114.954 Y148.961 E8.93272
G1 X115.927 Y147.112 E9.00917
G1 X117.621 Y145.343 E9.09878
G1 X119.474 Y144.025 E9.18197
G1 X121.346 Y143.497 E9.25313
G1 X121.217 Y141.657 E9.32062
G1 X121.797 Y139.66 E9.3967
G1 X121.387 Y138.289 E9.44905
G1 X121.216 Y135.833 E9.53912
G1 X121.797 Y133.836 E9.61522
G1 X121.389 Y132.466 E9.66751
G1 X121.215 Y130.009 E9.75763
G1 X121.977 Y127.386 E9.85757
G1 X122.487 Y126.424 E9.8974
G1 X122.385 Y125.055 E9.94763
G1 X123.157 Y122.417 E10.04819
G1 X124.13 Y120.568 E10.12463
G1 X125.824 Y118.799 E10.21424
G0 F6000 X126.111 Y119.135
G1 F1200 X127.866 Y117.887 E10.29303
G1 X128.872 Y117.603 E10.33127
G1 X129.699 Y116.741 E10.37498
G1 X130.743 Y116.001 E10.4218
G1 X131.001 Y115.512 E10.44202
G1 X132.614 Y113.825 E10.52742
G1 X133.646 Y113.091 E10.57375
G1 X133.9 Y112.611 E10.59362
G1 X135.519 Y110.922 E10.67922
G1 X136.469 Y110.25 E10.72179
G1 X136.435 Y109.851 E10.73644
G1 X137.262 Y106.947 E10.84691
G1 X138.153 Y105.21 E10.91833
G1 X140.046 Y103.21 E11.01909
G1 X141.84 Y101.957 E11.09915
G1 X144.701 Y101.164 E11.20776
G1 X146.928 Y101.017 E11.28942
G1 X150.275 Y101.97 E11.41674
G1 X150.508 Y102.106 E11.42661
G1 X152.86 Y101.437 E11.51607
G1 X155.075 Y101.29 E11.59729
G1 X157.935 Y102.097 E11.70601
G1 X159.876 Y103.097 E11.7859
G1 X161.905 Y105.24 E11.89387
G1 X162.939 Y106.87 E11.96449
G1 X163.692 Y109.462 E12.06324
G1 X163.742 Y110.176 E12.08943
G1 X164.443 Y110.919 E12.1268
G1 X164.601 Y111.168 E12.13759
G1 X164.924 Y111.285 E12.15016
G1 X166.67 Y112.517 E12.22834
G1 X168.039 Y113.972 E12.30143
G1 X168.718 Y115.044 E12.34786
G1 X170.116 Y116.494 E12.42155
G1 X170.497 Y117.102 E12.4478
G1 X171.2 Y117.466 E12.47676
G1 X172.972 Y119.325 E12.57073
G1 X173.211 Y119.704 E12.58712
G1 X174.071 Y120.144 E12.62246
G1 X175.852 Y122.021 E12.71713
G1 X176.894 Y123.67 E12.78849
G1 X177.565 Y125.964 E12.87594
G1 X177.731 Y128.219 E12.95866
G1 X177.577 Y128.743 E12.97865
G1 X177.662 Y129.787 E13.01697
G1 X177.458 Y130.524 E13.04495
G1 X177.862 Y131.916 E13.09798
G1 X178.032 Y134.176 E13.18089
G1 X177.453 Y136.165 E13.25668
G1 X177.961 Y137.901 E13.32286
G1 X178.132 Y140.138 E13.40494
G1 X177.569 Y142.14 E13.48103
G1 X178.127 Y144.058 E13.55411
G1 X178.184 Y144.812 E13.58178
G1 X178.886 Y145.178 E13.61074
G1 X179.344 Y145.656 E13.63496
G1 X180.219 Y145.888 E13.66808
G1 X181.89 Y146.805 E13.73782
G1 X182.656 Y147.37 E13.77264
G1 X184.129 Y149.068 E13.85488
G1 X185.107 Y150.788 E13.92727
G1 X185.671 Y153.143 E14.01587
G1 X185.709 Y155.235 E14.09242
G1 X184.978 Y157.791 E14.18968
G1 X184.393 Y158.894 E14.23536
G1 X184.356 Y159.167 E14.24544
G1 X183.742 Y161.371 E14.32915
G1 X182.763 Y163.225 E14.40585
G1 X180.996 Y164.992 E14.49728
G1 X180.175 Y165.521 E14.53301
G1 X179.848 Y166.14 E14.55862
G1 X178.156 Y167.832 E14.64617
G1 X178.291 Y169.589 E14.71064
G1 X177.833 Y171.229 E14.77294
G1 X178.38 Y173.109 E14.84457
G1 X178.547 Y175.356 E14.92701
G1 X177.829 Y177.918 E15.02435
G1 X177.535 Y178.471 E15.04727
G1 X177.856 Y179.559 E15.08877
G1 X178.028 Y181.809 E15.17133
G1 X177.308 Y184.389 E15.26933
G1 X176.329 Y186.243 E15.34603
G1 X175.168 Y187.404 E15.4061
G1 X175.083 Y187.672 E15.41639
G1 X174.125 Y189.494 E15.4917
G1 X172.36 Y191.259 E15.58303
G1 X170.625 Y192.388 E15.65876
G1 X168.817 Y192.884 E15.72735
G1 X167.822 Y193.879 E15.77883
G1 X166.087 Y195.008 E15.85457
G1 X163.678 Y195.669 E15.94596
G1 X161.424 Y195.815 E16.0286
G1 X160.589 Y195.569 E16.06044
G1 X159.385 Y195.901 E16.10614
G1 X158.499 Y195.958 E16.13862
G1 X157.324 Y196.289 E16.18328
G1 X155.036 Y196.435 E16.26716
G1 X154.24 Y196.201 E16.29752
G1 X153.924 Y196.289 E16.30952
G1 X151.643 Y196.435 E16.39314
G1 X151.202 Y196.304 E16.40997
G1 X149.223 Y196.435 E16.48254
G1 X147.951 Y196.063 E16.53102
G1 X147.773 Y196.095 E16.53764
G1 X145.66 Y196.232 E16.61511
G1 X143.114 Y195.485 E16.71218
G1 X142.807 Y195.32 E16.72493
G1 X142.367 Y195.193 E16.74169
G1 X140.416 Y195.73 E16.81572
G1 X138.172 Y195.876 E16.898
G1 X135.624 Y195.127 E16.99516
G1 X134.516 Y194.532 E17.04117
G1 X133.668 Y194.587 E17.07227
G1 X131.129 Y193.838 E17.16911
G1 X129.333 Y192.883 E17.24354
G1 X127.574 Y191.124 E17.33455
G1 X127.043 Y190.306 E17.37023
G1 X126.427 Y189.977 E17.39578
G1 X124.649 Y188.199 E17.48777
G1 X123.561 Y186.531 E17.56063
G1 X122.866 Y184.188 E17.65005
G1 X122.706 Y181.942 E17.73243
G1 X122.76 Y181.659 E17.74297
G1 X122.518 Y181.288 E17.75917
G1 X121.823 Y178.951 E17.84838
G1 X121.661 Y176.629 E17.93354
G1 X122.256 Y174.583 E18.01149
G1 X121.823 Y173.134 E18.06682
G1 X121.661 Y170.808 E18.15213
G1 X122.256 Y168.761 E18.23012
G1 X121.879 Y167.494 E18.27848
G1 X121.846 Y167.306 E18.28546
G1 X121.481 Y166.744 E18.30998
G1 X120.871 Y166.419 E18.33527
G1 X119.1 Y164.648 E18.4269
G1 X118.577 Y163.842 E18.46205
G1 X117.965 Y163.515 E18.48744
G1 X116.187 Y161.737 E18.57944
G1 X115.099 Y160.069 E18.6523
G1 X114.404 Y157.726 E18.74171
G1 X114.241 Y155.402 E18.82694
G1 X114.772 Y153.576 E18.89652
G1 X114.633 Y151.724 E18.96447
G1 X114.65 Y151.567 E18.97024
G1 X115.364 Y149.126 E19.06329
G1 X116.287 Y147.372 E19.13581
G1 X117.908 Y145.679 E19.22156
G1 X119.667 Y144.428 E19.30053
G1 X121.81 Y143.824 E19.38199
G1 X121.661 Y141.703 E19.45978
G1 X122.256 Y139.657 E19.53774
G1 X121.823 Y138.208 E19.59307
G1 X121.661 Y135.882 E19.67837
G1 X122.256 Y133.835 E19.75637
G1 X121.824 Y132.385 E19.81172
G1 X121.659 Y130.055 E19.89718
G1 X122.386 Y127.555 E19.99243
G1 X122.935 Y126.518 E20.03536
G1 X122.83 Y125.101 E20.08735
G1 X123.567 Y122.582 E20.18337
G1 X124.49 Y120.828 E20.25589
G1 X126.111 Y119.135 E20.34164
G0 F6000 X126.398 Y119.471
G1 F1200 X128.061 Y118.289 E20.41629
G1 X129.107 Y117.993 E20.45606
G1 X129.988 Y117.075 E20.50261
G1 X131.083 Y116.299 E20.55171
G1 X131.361 Y115.772 E20.57351
G1 X132.902 Y114.161 E20.65507
G1 X133.986 Y113.39 E20.70374
G1 X134.261 Y112.871 E20.72523
G1 X135.808 Y111.256 E20.80705
G1 X136.928 Y110.464 E20.85724
G1 X136.88 Y109.894 E20.87816
G1 X137.673 Y107.109 E20.98411
G1 X138.515 Y105.468 E21.05159
G1 X140.334 Y103.546 E21.1484
G1 X142.031 Y102.36 E21.22415
G1 X144.774 Y101.6 E21.32829
G1 X146.881 Y101.461 E21.40554
G1 X150.154 Y102.393 E21.53005
G1 X150.463 Y102.613 E21.54393
G1 X150.692 Y102.505 E21.55319
G1 X152.933 Y101.873 E21.63838
G1 X155.03 Y101.734 E21.71527
G1 X157.77 Y102.507 E21.81943
G1 X159.608 Y103.454 E21.89507
G1 X161.554 Y105.509 E21.99862
G1 X162.533 Y107.053 E22.0655
G1 X163.256 Y109.542 E22.16033
G1 X163.314 Y110.364 E22.19048
G1 X164.094 Y111.19 E22.23205
G1 X164.32 Y111.547 E22.2475
G1 X164.67 Y111.645 E22.2608
G1 X166.385 Y112.855 E22.33759
G1 X167.686 Y114.238 E22.40706
G1 X168.377 Y115.328 E22.45428
G1 X168.467 Y115.409 E22.45871
G1 X169.766 Y116.765 E22.52741
G1 X170.188 Y117.438 E22.55647
G1 X170.931 Y117.822 E22.58707
G1 X172.625 Y119.6 E22.67692
G1 X172.903 Y120.041 E22.69599
G1 X173.804 Y120.502 E22.73302
G1 X175.503 Y122.292 E22.82331
G1 X176.489 Y123.853 E22.89086
G1 X177.129 Y126.041 E22.97427
G1 X177.286 Y128.173 E23.05248
G1 X177.132 Y128.699 E23.07253
G1 X177.217 Y129.747 E23.111
G1 X177.001 Y130.527 E23.14061
G1 X177.426 Y131.995 E23.19652
G1 X177.587 Y134.131 E23.27489
G1 X176.995 Y136.166 E23.35243
G1 X177.525 Y137.978 E23.42151
G1 X177.687 Y140.094 E23.49915
G1 X177.111 Y142.141 E23.57695
G1 X177.691 Y144.133 E23.65285
G1 X177.764 Y145.089 E23.68793
G1 X178.618 Y145.534 E23.72316
G1 X179.111 Y146.049 E23.74925
G1 X180.052 Y146.299 E23.78487
G1 X181.678 Y147.191 E23.85272
G1 X182.356 Y147.695 E23.88363
G1 X183.766 Y149.32 E23.96234
G1 X184.693 Y150.951 E24.03098
G1 X185.232 Y153.2 E24.11559
G1 X185.268 Y155.178 E24.18797
G1 X184.568 Y157.625 E24.28109
G1 X183.966 Y158.76 E24.32809
G1 X183.932 Y159.049 E24.33874
G1 X183.331 Y161.207 E24.4207
G1 X182.404 Y162.962 E24.49331
G1 X180.719 Y164.647 E24.5805
G1 X179.84 Y165.213 E24.61875
G1 X179.49 Y165.876 E24.64618
G1 X177.842 Y167.524 E24.73144
G1 X177.699 Y167.629 E24.73793
G1 X177.846 Y169.546 E24.80828
G1 X177.376 Y171.231 E24.87228
G1 X177.944 Y173.184 E24.94669
G1 X178.102 Y175.311 E25.02472
G1 X177.417 Y177.756 E25.11762
G1 X177.062 Y178.423 E25.14527
G1 X177.42 Y179.637 E25.19157
G1 X177.583 Y181.766 E25.26969
G1 X176.897 Y184.225 E25.36309
G1 X175.97 Y185.98 E25.43571
G1 X174.775 Y187.175 E25.49754
G1 X174.694 Y187.467 E25.50862
G1 X173.767 Y189.23 E25.5815
G1 X172.083 Y190.914 E25.66863
G1 X170.441 Y191.982 E25.74029
G1 X168.588 Y192.491 E25.8106
G1 X167.545 Y193.534 E25.86456
G1 X165.903 Y194.602 E25.93623
G1 X163.605 Y195.233 E26.02342
G1 X161.473 Y195.371 E26.10158
G1 X160.593 Y195.112 E26.13514
G1 X159.312 Y195.465 E26.18376
G1 X158.422 Y195.522 E26.21638
G1 X157.247 Y195.853 E26.26105
G1 X155.085 Y195.991 E26.34031
G1 X154.244 Y195.744 E26.37237
G1 X153.85 Y195.853 E26.38733
G1 X151.694 Y195.991 E26.46637
G1 X151.252 Y195.86 E26.48324
G1 X149.271 Y195.991 E26.55587
G1 X147.969 Y195.61 E26.60551
G1 X147.745 Y195.656 E26.61387
G1 X145.709 Y195.788 E26.68852
G1 X143.282 Y195.076 E26.78106
G1 X142.972 Y194.909 E26.79394
G1 X142.37 Y194.736 E26.81685
G1 X140.343 Y195.294 E26.89377
G1 X138.221 Y195.432 E26.97157
G1 X135.794 Y194.718 E27.06413
G1 X134.614 Y194.085 E27.11312
G1 X133.717 Y194.143 E27.14601
G1 X131.296 Y193.429 E27.23836
G1 X129.598 Y192.526 E27.30872
G1 X127.919 Y190.847 E27.39559
G1 X127.351 Y189.972 E27.43376
G1 X126.692 Y189.62 E27.46109
G1 X124.994 Y187.922 E27.54895
G1 X123.965 Y186.344 E27.61787
G1 X123.302 Y184.109 E27.70316
G1 X123.145 Y181.911 E27.78378
G1 X123.24 Y181.589 E27.79606
G1 X122.922 Y181.102 E27.81734
G1 X122.259 Y178.872 E27.90246
G1 X122.106 Y176.678 E27.98293
G1 X122.715 Y174.582 E28.06278
G1 X122.259 Y173.053 E28.12116
G1 X122.106 Y170.857 E28.20169
G1 X122.715 Y168.761 E28.28155
G1 X122.301 Y167.369 E28.33468
G1 X122.267 Y167.145 E28.34297
G1 X121.788 Y166.409 E28.3751
G1 X121.136 Y166.062 E28.40212
G1 X119.445 Y164.371 E28.48962
G1 X118.885 Y163.508 E28.52725
G1 X118.23 Y163.158 E28.55442
G1 X116.532 Y161.46 E28.64228
G1 X115.503 Y159.882 E28.7112
G1 X114.84 Y157.647 E28.7965
G1 X114.686 Y155.451 E28.87704
G1 X115.217 Y153.623 E28.94668
G1 X115.072 Y151.691 E29.01756
G1 X115.774 Y149.291 E29.10905
G1 X116.647 Y147.632 E29.17764
G1 X118.195 Y146.015 E29.25954
G1 X119.86 Y144.831 E29.33428
G1 X122.317 Y144.139 E29.42767
G1 X122.257 Y143.9 E29.43669
G1 X122.106 Y141.752 E29.51547
G1 X122.715 Y139.656 E29.59532
G1 X122.259 Y138.127 E29.6537
G1 X122.106 Y135.931 E29.73424
G1 X122.715 Y133.835 E29.81409
G1 X122.26 Y132.306 E29.87246
G1 X122.104 Y130.104 E29.95322
G1 X122.797 Y127.72 E30.04405
G1 X123.383 Y126.612 E30.08991
G1 X123.275 Y125.147 E30.14366
G1 X123.977 Y122.747 E30.23514
G1 X124.85 Y121.088 E30.30373
G1 X126.398 Y119.471 E30.38563
G0 F6000 X126.685 Y119.807
G1 F1200 X128.256 Y118.69 E30.45615
G1 X129.344 Y118.383 E30.49751
G1 X130.28 Y117.407 E30.54699
G1 X131.423 Y116.597 E30.59824
G1 X131.721 Y116.032 E30.62161
G1 X133.19 Y114.497 E30.69934
