;FLAVOR:Marlin
;TIME:5629
;Filament used: 6.13878m
;Layer height: 0.16
;MINX:122.249
;MINY:103.063
;MINZ:0.2
;MAXX:177.748
;MAXY:187.248
;MAXZ:15.4
;Generated with Cura_SteamEngine 5.4.0
M140 S65
M105
M190 S65
M104 S210
M105
M109 S210
M82 ;absolute extrusion mode
G28 ; home all axes
M420 S1 Z10
 M117 Purge extruder
 G92 E0 ; reset extruder
 G1 Z1.0 F3000 ; move z up little to prevent scratching of surface
 G1 X2 Y20 Z0.3 F5000.0 ; move to start-line position
 G1 X2 Y200.0 Z0.3 F1500.0 E15 ; draw 1st line
 G1 X2 Y200.0 Z0.4 F5000.0 ; move to side a little
 G1 X2 Y20 Z0.4 F1500.0 E30 ; draw 2nd line
 G92 E0 ; reset extruder
 G1 Z1.0 F3000 ; move z up little to prevent scratching of surface
G92 E0
G92 E0
G1 F1500 E-3
;LAYER_COUNT:86
;LAYER:0
M107
G1 F300 Z0.4
G0 F6000 X139.439 Y106.864 Z0.4
;TYPE:SKIRT
G1 F300 Z0.2
G1 F1500 E0
G1 F1200 X141.083 Y105.115 E0.08782
G1 X142.987 Y103.863 E0.17119
G1 X145.434 Y103.162 E0.26432
G1 X147.759 Y103.063 E0.34946
G1 X149.975 Y103.683 E0.43365
G1 X150.107 Y103.738 E0.43888
G1 X152.314 Y103.109 E0.52284
G1 X154.613 Y103.206 E0.60703
G1 X156.704 Y103.795 E0.6865
G1 X158.73 Y104.904 E0.77101
G1 X160.394 Y106.655 E0.85938
G1 X161.447 Y108.37 E0.93301
G1 X162.103 Y110.617 E1.01865
G1 X162.238 Y113.002 E1.10605
G1 X162.061 Y113.64 E1.13027
G1 X162.019 Y114.061 E1.14575
G1 X161.789 Y115.235 E1.18952
G1 X161.723 Y115.437 E1.1973
G1 X161.748 Y115.655 E1.20532
G1 X161.793 Y117.501 E1.27288
G1 X161.324 Y119.681 E1.35446
G1 X160.71 Y121.493 E1.42446
G1 X159.593 Y123.276 E1.50144
G1 X158.263 Y124.923 E1.57889
G1 X156.692 Y126.137 E1.65153
G1 X154.755 Y127.282 E1.73385
G1 X152.552 Y128.007 E1.8187
G1 X149.854 Y128.233 E1.91776
G1 X148.366 Y128.17 E1.97225
G1 X146.198 Y127.595 E2.05431
G1 X144.555 Y126.951 E2.11887
G1 X142.651 Y125.706 E2.2021
G1 X141.154 Y124.284 E2.27764
G1 X139.813 Y122.466 E2.36029
G1 X139.083 Y120.857 E2.42493
G1 X138.319 Y117.989 E2.53352
G1 X138.173 Y116.532 E2.5871
G1 X138.354 Y114.843 E2.64924
G1 X137.976 Y113.562 E2.69811
G1 X137.798 Y111.3 E2.78112
G1 X137.832 Y110.985 E2.79271
G1 X138.526 Y108.603 E2.88349
G1 X139.439 Y106.864 E2.95534
G0 F6000 X139.801 Y107.121
G1 F1200 X141.367 Y105.455 E3.039
G1 X143.174 Y104.267 E3.11812
G1 X145.503 Y103.6 E3.20675
G1 X147.708 Y103.506 E3.2875
G1 X149.856 Y104.107 E3.3691
G1 X150.072 Y104.206 E3.3778
G1 X152.365 Y103.552 E3.46503
G1 X154.543 Y103.644 E3.54479
G1 X156.538 Y104.206 E3.62062
G1 X158.458 Y105.257 E3.7007
G1 X160.043 Y106.925 E3.78488
G1 X161.042 Y108.551 E3.8547
G1 X161.667 Y110.691 E3.93627
G1 X161.795 Y112.953 E4.01916
G1 X161.627 Y113.559 E4.04217
G1 X161.587 Y113.976 E4.05749
G1 X161.357 Y115.15 E4.10126
G1 X161.274 Y115.391 E4.11059
G1 X161.308 Y115.666 E4.12072
G1 X161.352 Y117.461 E4.18642
G1 X160.907 Y119.54 E4.2642
G1 X160.31 Y121.302 E4.33227
G1 X159.22 Y123.042 E4.40739
G1 X157.954 Y124.605 E4.48098
G1 X156.468 Y125.758 E4.54979
G1 X154.572 Y126.879 E4.63037
G1 X152.461 Y127.574 E4.71168
G1 X149.873 Y127.793 E4.80671
G1 X148.428 Y127.732 E4.85962
G1 X146.359 Y127.185 E4.93792
G1 X144.755 Y126.556 E5.00095
G1 X142.925 Y125.36 E5.08094
G1 X141.484 Y123.991 E5.15366
G1 X140.196 Y122.244 E5.23307
G1 X139.484 Y120.675 E5.2961
G1 X138.757 Y117.945 E5.39947
G1 X138.615 Y116.53 E5.45149
G1 X138.801 Y114.801 E5.51512
G1 X138.411 Y113.482 E5.56544
G1 X138.237 Y111.266 E5.64676
G1 X138.254 Y111.108 E5.65258
G1 X138.935 Y108.771 E5.74164
G1 X139.801 Y107.121 E5.80981
G0 F6000 X140.164 Y107.377
G1 F1200 X141.651 Y105.795 E5.88925
G1 X143.361 Y104.671 E5.96411
G1 X145.572 Y104.038 E6.04826
G1 X147.657 Y103.949 E6.12461
G1 X149.737 Y104.531 E6.20363
G1 X150.029 Y104.676 E6.21556
G1 X152.416 Y103.995 E6.30637
G1 X154.473 Y104.082 E6.3817
G1 X156.372 Y104.617 E6.45388
G1 X158.186 Y105.61 E6.52954
G1 X159.692 Y107.195 E6.60953
G1 X160.637 Y108.732 E6.67554
G1 X161.231 Y110.765 E6.75303
G1 X161.352 Y112.905 E6.83145
G1 X161.193 Y113.479 E6.85324
G1 X161.155 Y113.891 E6.86838
G1 X160.925 Y115.065 E6.91215
G1 X160.824 Y115.34 E6.92287
G1 X160.871 Y115.72 E6.93688
G1 X160.911 Y117.421 E6.99913
G1 X160.49 Y119.399 E7.07311
G1 X159.909 Y121.114 E7.13936
G1 X158.878 Y122.765 E7.21058
G1 X157.645 Y124.287 E7.28224
G1 X156.198 Y125.41 E7.34925
G1 X154.391 Y126.475 E7.42599
G1 X152.37 Y127.14 E7.50383
G1 X149.892 Y127.353 E7.59483
G1 X148.495 Y127.294 E7.64598
G1 X146.52 Y126.775 E7.72069
G1 X144.955 Y126.161 E7.7822
G1 X143.199 Y125.014 E7.85894
G1 X141.815 Y123.698 E7.92881
G1 X140.579 Y122.022 E8.005
G1 X139.885 Y120.493 E8.06643
G1 X139.195 Y117.901 E8.16457
G1 X139.057 Y116.528 E8.21505
G1 X139.248 Y114.759 E8.28015
G1 X138.847 Y113.403 E8.33188
G1 X138.676 Y111.231 E8.41159
G1 X139.343 Y108.941 E8.49886
G1 X140.164 Y107.377 E8.56348
G0 F6000 X140.527 Y107.633
G1 F1200 X141.935 Y106.135 E8.6387
G1 X143.548 Y105.075 E8.70931
G1 X145.641 Y104.476 E8.78896
G1 X147.606 Y104.392 E8.86092
G1 X149.618 Y104.955 E8.93736
G1 X150.016 Y105.167 E8.95386
G1 X150.186 Y105.085 E8.96076
G1 X152.466 Y104.438 E9.04747
G1 X154.403 Y104.52 E9.1184
G1 X156.206 Y105.028 E9.18694
G1 X157.914 Y105.963 E9.25818
G1 X159.34 Y107.463 E9.3339
G1 X160.233 Y108.915 E9.39626
G1 X160.795 Y110.839 E9.4696
G1 X160.909 Y112.857 E9.54355
G1 X160.759 Y113.4 E9.56416
G1 X160.723 Y113.806 E9.57907
G1 X160.493 Y114.98 E9.62284
G1 X160.373 Y115.285 E9.63483
G1 X160.431 Y115.73 E9.65125
G1 X160.47 Y117.382 E9.7117
G1 X160.073 Y119.258 E9.78186
G1 X159.508 Y120.925 E9.84626
G1 X158.536 Y122.488 E9.9136
G1 X157.334 Y123.972 E9.98347
G1 X155.975 Y125.031 E10.0465
G1 X154.209 Y126.072 E10.1215
G1 X152.28 Y126.706 E10.19579
G1 X149.911 Y126.913 E10.28279
G1 X148.56 Y126.856 E10.33226
G1 X146.681 Y126.365 E10.40332
G1 X145.155 Y125.766 E10.4633
G1 X143.473 Y124.668 E10.53678
G1 X142.146 Y123.405 E10.60381
G1 X140.962 Y121.8 E10.67678
G1 X140.286 Y120.311 E10.73661
G1 X139.633 Y117.857 E10.82951
G1 X139.499 Y116.526 E10.87846
G1 X139.695 Y114.717 E10.94503
G1 X139.282 Y113.323 E10.99822
G1 X139.121 Y111.275 E11.07338
G1 X139.751 Y109.111 E11.15584
G1 X140.527 Y107.633 E11.21691
G0 F6000 X140.889 Y107.89
G1 F1200 X142.219 Y106.475 E11.28796
G1 X143.735 Y105.479 E11.35433
G1 X145.71 Y104.914 E11.42948
G1 X147.555 Y104.835 E11.49705
G1 X149.456 Y105.367 E11.56927
G1 X150.025 Y105.67 E11.59285
G1 X150.306 Y105.508 E11.60472
G1 X152.516 Y104.881 E11.68877
G1 X154.333 Y104.958 E11.7553
G1 X156.04 Y105.439 E11.82019
G1 X157.642 Y106.316 E11.88701
G1 X158.988 Y107.731 E11.95846
G1 X159.829 Y109.098 E12.01718
G1 X160.359 Y110.913 E12.08635
G1 X160.466 Y112.809 E12.15583
G1 X160.323 Y113.326 E12.17546
G1 X160.291 Y113.721 E12.18996
G1 X160.061 Y114.895 E12.23372
G1 X159.921 Y115.224 E12.24681
G1 X159.991 Y115.74 E12.26586
G1 X160.029 Y117.34 E12.32441
G1 X159.656 Y119.117 E12.39084
G1 X159.107 Y120.736 E12.45339
G1 X158.194 Y122.211 E12.51685
G1 X157.022 Y123.658 E12.58498
G1 X155.752 Y124.652 E12.64398
G1 X154.028 Y125.668 E12.7172
G1 X152.189 Y126.273 E12.78803
G1 X149.93 Y126.473 E12.871
G1 X148.625 Y126.418 E12.91879
G1 X146.792 Y125.939 E12.9881
G1 X145.359 Y125.374 E13.04446
G1 X143.748 Y124.322 E13.11485
G1 X142.477 Y123.112 E13.17905
G1 X141.345 Y121.578 E13.2488
G1 X140.687 Y120.129 E13.30703
G1 X140.071 Y117.813 E13.39471
G1 X139.941 Y116.525 E13.44207
G1 X140.142 Y114.675 E13.51015
G1 X139.717 Y113.243 E13.5648
G1 X139.566 Y111.319 E13.63541
G1 X140.16 Y109.279 E13.71314
G1 X140.889 Y107.89 E13.77054
G0 F6000 X141.252 Y108.146
G1 F1200 X142.503 Y106.815 E13.83737
G1 X143.922 Y105.883 E13.89948
G1 X145.779 Y105.352 E13.97014
G1 X147.504 Y105.278 E14.03331
G1 X149.294 Y105.779 E14.10132
G1 X150.05 Y106.181 E14.13264
G1 X150.426 Y105.931 E14.14916
G1 X152.566 Y105.324 E14.23055
G1 X154.263 Y105.396 E14.29269
G1 X155.874 Y105.85 E14.35392
G1 X157.37 Y106.669 E14.41632
G1 X158.636 Y107.999 E14.4835
G1 X159.425 Y109.281 E14.53858
G1 X159.923 Y110.987 E14.6036
G1 X160.023 Y112.761 E14.6686
G1 X159.887 Y113.252 E14.68724
G1 X159.859 Y113.636 E14.70133
G1 X159.629 Y114.81 E14.7451
G1 X159.466 Y115.156 E14.75909
G1 X159.551 Y115.751 E14.78108
G1 X159.588 Y117.299 E14.83773
G1 X159.239 Y118.976 E14.9004
G1 X158.707 Y120.546 E14.96105
G1 X157.852 Y121.934 E15.0207
G1 X156.712 Y123.342 E15.08698
G1 X155.481 Y124.305 E15.14416
G1 X153.846 Y125.265 E15.21353
G1 X152.099 Y125.839 E15.2808
G1 X149.949 Y126.033 E15.35978
G1 X148.69 Y125.98 E15.40589
G1 X146.903 Y125.513 E15.47346
G1 X145.562 Y124.981 E15.52624
G1 X144.023 Y123.976 E15.59349
G1 X142.808 Y122.819 E15.65487
G1 X141.728 Y121.356 E15.7214
G1 X141.088 Y119.947 E15.77802
G1 X140.509 Y117.769 E15.86047
G1 X140.383 Y116.524 E15.90626
G1 X140.589 Y114.633 E15.97585
G1 X140.152 Y113.163 E16.03196
G1 X140.011 Y111.363 E16.09802
G1 X140.568 Y109.449 E16.17095
G1 X141.252 Y108.146 E16.22479
G0 F6000 X141.615 Y108.402
G1 F1200 X142.788 Y107.154 E16.28745
G1 X144.107 Y106.288 E16.34518
G1 X145.848 Y105.79 E16.41143
G1 X147.453 Y105.721 E16.4702
G1 X149.132 Y106.191 E16.53399
G1 X150.076 Y106.693 E16.57311
G1 X150.613 Y106.335 E16.59672
G1 X152.616 Y105.767 E16.67289
G1 X154.193 Y105.834 E16.73064
G1 X155.708 Y106.261 E16.78823
G1 X157.098 Y107.022 E16.84621
G1 X158.284 Y108.267 E16.90912
G1 X159.021 Y109.464 E16.96055
G1 X159.487 Y111.061 E17.02141
G1 X159.58 Y112.712 E17.08191
G1 X159.451 Y113.177 E17.09957
G1 X159.427 Y113.551 E17.11328
G1 X159.207 Y114.674 E17.15514
G1 X159.012 Y115.089 E17.17192
G1 X159.115 Y115.813 E17.19867
G1 X159.147 Y117.259 E17.25159
G1 X158.822 Y118.835 E17.31046
G1 X158.306 Y120.359 E17.36933
G1 X157.51 Y121.657 E17.42504
G1 X156.402 Y123.026 E17.48947
G1 X155.21 Y123.958 E17.54483
G1 X153.664 Y124.861 E17.61034
G1 X152.008 Y125.406 E17.67412
G1 X149.967 Y125.593 E17.7491
G1 X148.754 Y125.542 E17.79352
G1 X147.065 Y125.104 E17.85736
G1 X145.765 Y124.588 E17.90853
G1 X144.298 Y123.63 E17.97264
G1 X143.139 Y122.526 E18.0312
G1 X142.109 Y121.132 E18.09461
G1 X141.513 Y119.833 E18.1469
G1 X140.947 Y117.725 E18.22675
G1 X140.825 Y116.522 E18.27099
G1 X141.009 Y114.821 E18.33359
G1 X141.05 Y114.635 E18.34056
G1 X140.587 Y113.082 E18.39985
G1 X140.456 Y111.407 E18.46132
G1 X140.976 Y109.619 E18.52944
G1 X141.615 Y108.402 E18.57973
G0 F6000 X141.977 Y108.659
G1 F1200 X143.073 Y107.493 E18.63828
G1 X144.292 Y106.693 E18.69162
G1 X145.917 Y106.228 E18.75346
G1 X147.402 Y106.164 E18.80784
G1 X148.97 Y106.603 E18.86742
G1 X150.101 Y107.205 E18.91429
G1 X150.8 Y106.739 E18.94503
G1 X152.666 Y106.21 E19.01599
G1 X154.127 Y106.272 E19.06949
G1 X155.539 Y106.67 E19.12316
G1 X156.827 Y107.375 E19.17688
G1 X157.932 Y108.535 E19.23549
G1 X158.617 Y109.647 E19.28328
G1 X159.051 Y111.135 E19.33999
G1 X159.137 Y112.664 E19.39602
G1 X159.015 Y113.105 E19.41276
G1 X158.995 Y113.466 E19.42598
G1 X158.785 Y114.538 E19.46595
G1 X158.558 Y115.022 E19.48551
G1 X158.679 Y115.875 E19.51703
G1 X158.706 Y117.22 E19.56625
G1 X158.405 Y118.694 E19.62129
G1 X157.905 Y120.171 E19.67834
G1 X157.168 Y121.38 E19.73014
G1 X156.092 Y122.71 E19.79273
G1 X154.939 Y123.611 E19.84627
G1 X153.485 Y124.457 E19.90781
G1 X151.917 Y124.973 E19.96821
G1 X149.985 Y125.153 E20.0392
G1 X148.817 Y125.104 E20.08197
G1 X147.227 Y124.695 E20.14203
G1 X145.968 Y124.195 E20.19159
G1 X144.576 Y123.286 E20.25242
G1 X143.47 Y122.232 E20.30831
G1 X142.49 Y120.906 E20.36864
G1 X141.913 Y119.649 E20.41924
G1 X141.385 Y117.68 E20.49383
G1 X141.267 Y116.52 E20.53648
G1 X141.446 Y114.868 E20.59728
G1 X141.506 Y114.622 E20.60654
G1 X141.022 Y113.001 E20.66844
G1 X140.901 Y111.451 E20.72532
G1 X141.385 Y109.787 E20.78872
G1 X141.977 Y108.659 E20.83533
G0 F6000 X142.339 Y108.916
G1 F1200 X143.357 Y107.834 E20.88968
G1 X144.479 Y107.097 E20.93879
G1 X145.986 Y106.666 E20.99614
G1 X147.351 Y106.607 E21.04613
G1 X148.808 Y107.015 E21.10148
G1 X149.944 Y107.62 E21.14857
G1 X150.09 Y107.741 E21.15551
G1 X150.987 Y107.143 E21.19495
G1 X152.716 Y106.653 E21.2607
G1 X154.061 Y106.71 E21.30995
G1 X155.37 Y107.079 E21.35971
G1 X156.554 Y107.727 E21.40909
G1 X157.582 Y108.806 E21.46362
G1 X158.213 Y109.83 E21.50762
G1 X158.615 Y111.209 E21.56017
G1 X158.694 Y112.616 E21.61173
G1 X158.577 Y113.039 E21.62779
G1 X158.563 Y113.381 E21.64031
G1 X158.363 Y114.402 E21.67838
G1 X158.104 Y114.954 E21.70068
G1 X158.239 Y115.884 E21.73507
G1 X158.265 Y117.182 E21.78256
G1 X157.988 Y118.553 E21.83374
G1 X157.504 Y119.983 E21.88897
G1 X156.792 Y121.151 E21.93902
G1 X155.782 Y122.393 E21.99759
G1 X154.668 Y123.264 E22.04932
G1 X153.305 Y124.053 E22.10694
G1 X151.826 Y124.54 E22.16391
G1 X150.003 Y124.713 E22.23091
G1 X148.879 Y124.666 E22.27206
G1 X147.39 Y124.286 E22.32829
G1 X146.17 Y123.801 E22.37632
G1 X144.854 Y122.942 E22.43382
G1 X143.774 Y121.913 E22.48839
G1 X142.872 Y120.682 E22.54423
G1 X142.313 Y119.465 E22.59322
G1 X141.823 Y117.636 E22.6625
G1 X141.71 Y116.522 E22.70347
G1 X141.874 Y114.972 E22.76049
G1 X141.968 Y114.584 E22.7751
G1 X141.91 Y114.448 E22.78051
G1 X141.457 Y112.921 E22.83878
G1 X141.346 Y111.495 E22.89111
G1 X141.794 Y109.955 E22.94979
G1 X142.339 Y108.916 E22.99271
G0 F6000 X142.702 Y109.171
G1 F1200 X143.638 Y108.176 E23.04269
G1 X144.666 Y107.501 E23.08769
G1 X146.055 Y107.104 E23.14054
G1 X147.3 Y107.05 E23.18613
G1 X148.646 Y107.427 E23.23727
G1 X149.737 Y108.008 E23.2825
G1 X150.05 Y108.334 E23.29903
G1 X150.187 Y108.205 E23.30591
G1 X151.174 Y107.547 E23.34931
G1 X152.766 Y107.096 E23.40985
G1 X153.995 Y107.148 E23.45486
G1 X155.201 Y107.488 E23.5007
G1 X156.281 Y108.079 E23.54574
G1 X157.232 Y109.077 E23.59618
G1 X157.809 Y110.013 E23.63641
G1 X158.179 Y111.283 E23.6848
G1 X158.251 Y112.568 E23.73189
G1 X158.138 Y112.976 E23.74738
G1 X158.131 Y113.296 E23.75909
G1 X157.941 Y114.266 E23.79525
G1 X157.649 Y114.888 E23.82039
G1 X157.799 Y115.893 E23.85757
G1 X157.824 Y117.141 E23.90324
G1 X157.571 Y118.412 E23.95065
G1 X157.103 Y119.795 E24.00407
G1 X156.416 Y120.922 E24.05236
G1 X155.473 Y122.076 E24.10688
G1 X154.397 Y122.917 E24.15684
G1 X153.127 Y123.648 E24.21046
G1 X151.734 Y124.107 E24.26412
G1 X150.021 Y124.273 E24.32708
G1 X148.944 Y124.228 E24.36652
G1 X147.553 Y123.877 E24.41901
G1 X146.369 Y123.406 E24.46562
G1 X145.131 Y122.598 E24.51971
G1 X144.106 Y121.622 E24.57149
G1 X143.254 Y120.459 E24.62424
G1 X142.713 Y119.281 E24.67167
G1 X142.261 Y117.592 E24.73563
G1 X142.153 Y116.523 E24.77494
G1 X142.302 Y115.075 E24.8282
G1 X142.432 Y114.537 E24.84845
G1 X142.332 Y114.323 E24.85709
G1 X141.892 Y112.841 E24.91365
G1 X141.791 Y111.539 E24.96143
G1 X142.203 Y110.123 E25.01539
G1 X142.702 Y109.171 E25.05471
G0 F6000 X143.064 Y109.428
G1 F1200 X143.922 Y108.517 E25.10049
G1 X144.853 Y107.905 E25.14126
G1 X146.124 Y107.542 E25.18962
G1 X147.249 Y107.493 E25.23082
G1 X148.484 Y107.839 E25.27774
G1 X149.468 Y108.363 E25.31853
G1 X150.052 Y108.971 E25.34937
G1 X150.431 Y108.571 E25.36953
G1 X151.361 Y107.951 E25.41042
G1 X152.816 Y107.539 E25.46575
G1 X153.929 Y107.586 E25.50651
G1 X155.032 Y107.897 E25.54843
G1 X156.008 Y108.431 E25.58914
G1 X156.882 Y109.348 E25.63548
G1 X157.405 Y110.196 E25.67194
G1 X157.743 Y111.357 E25.71618
G1 X157.808 Y112.52 E25.75879
G1 X157.698 Y112.917 E25.77386
G1 X157.699 Y113.211 E25.78462
G1 X157.519 Y114.13 E25.81888
G1 X157.194 Y114.823 E25.84689
G1 X157.359 Y115.902 E25.88682
G1 X157.383 Y117.1 E25.93066
G1 X157.139 Y118.326 E25.97639
G1 X156.703 Y119.605 E26.02583
G1 X156.04 Y120.693 E26.07245
G1 X155.165 Y121.758 E26.12287
G1 X154.126 Y122.57 E26.17112
G1 X152.948 Y123.243 E26.22076
G1 X151.642 Y123.674 E26.27107
G1 X150.039 Y123.833 E26.33001
G1 X149.008 Y123.79 E26.36776
G1 X147.661 Y123.45 E26.41859
G1 X146.575 Y123.015 E26.46139
G1 X145.404 Y122.251 E26.51254
G1 X144.438 Y121.331 E26.56135
G1 X143.636 Y120.236 E26.61101
G1 X143.113 Y119.097 E26.65686
G1 X142.699 Y117.548 E26.71552
G1 X142.596 Y116.524 E26.75318
G1 X142.74 Y115.12 E26.80481
G1 X142.899 Y114.487 E26.82869
G1 X142.754 Y114.198 E26.84052
G1 X142.327 Y112.761 E26.89537
G1 X142.236 Y111.583 E26.93859
G1 X142.612 Y110.291 E26.98782
G1 X143.064 Y109.428 E27.02347
G0 F6000 X143.426 Y109.685
G1 F1200 X144.206 Y108.858 E27.06506
