;FLAVOR:Marlin
;TIME:5095
;Filament used: 5.95178m
;Layer height: 0.16
;MINX:122.25
;MINY:105.112
;MINZ:0.2
;MAXX:177.749
;MAXY:186.749
;MAXZ:15.4
;Generated with Cura_SteamEngine 5.4.0
M140 S65
M105
M190 S65
M104 S210
M105
M109 S210
M82 ;absolute extrusion mode
G28 ; home all axes
M420 S1 Z10
 M117 Purge extruder
 G92 E0 ; reset extruder
 G1 Z1.0 F3000 ; move z up little to prevent scratching of surface
 G1 X2 Y20 Z0.3 F5000.0 ; move to start-line position
 G1 X2 Y200.0 Z0.3 F1500.0 E15 ; draw 1st line
 G1 X2 Y200.0 Z0.4 F5000.0 ; move to side a little
 G1 X2 Y20 Z0.4 F1500.0 E30 ; draw 2nd line
 G92 E0 ; reset extruder
 G1 Z1.0 F3000 ; move z up little to prevent scratching of surface
G92 E0
G92 E0
G1 F1500 E-3
;LAYER_COUNT:86
;LAYER:0
M107
G1 F300 Z0.4
G0 F6000 X141.036 Y109.315 Z0.4
;TYPE:SKIRT
G1 F300 Z0.2
G1 F1500 E0
G1 F1200 X142.404 Y107.861 E0.07304
G1 X144.548 Y106.513 E0.1657
G1 X145.954 Y105.89 E0.22196
G1 X147.741 Y105.34 E0.29037
G1 X150.128 Y105.112 E0.37809
G1 X152.455 Y105.432 E0.46403
G1 X153.98 Y105.816 E0.52157
G1 X156.026 Y106.78 E0.60432
G1 X157.863 Y108.123 E0.68757
G1 X159.219 Y109.625 E0.7616
G1 X160.271 Y111.199 E0.83087
G1 X161.146 Y113.001 E0.90416
G1 X161.571 Y114.769 E0.97068
G1 X161.84 Y116.998 E1.05283
G1 X161.62 Y118.853 E1.12117
G1 X160.977 Y121.212 E1.21063
G1 X160.203 Y122.967 E1.2808
G1 X158.564 Y125.017 E1.37683
G1 X157.119 Y126.317 E1.44794
G1 X155.457 Y127.383 E1.52018
G1 X154.044 Y128.011 E1.57675
G1 X152.258 Y128.56 E1.64511
G1 X149.872 Y128.788 E1.7328
G1 X147.545 Y128.468 E1.81874
G1 X146.02 Y128.084 E1.87628
G1 X143.912 Y127.094 E1.96148
G1 X142.268 Y125.827 E2.03742
G1 X140.792 Y124.371 E2.11327
G1 X139.587 Y122.452 E2.19618
G1 X138.832 Y120.869 E2.26034
G1 X138.379 Y118.809 E2.33751
G1 X138.23 Y116.393 E2.42607
G1 X138.34 Y114.974 E2.47814
G1 X138.939 Y112.74 E2.56276
G1 X140.078 Y110.615 E2.65097
G1 X141.036 Y109.315 E2.71005
G0 F6000 X141.357 Y109.616
G1 F1200 X142.685 Y108.204 E2.78097
G1 X144.782 Y106.886 E2.87159
G1 X146.083 Y106.311 E2.92363
G1 X147.829 Y105.774 E2.99046
G1 X150.119 Y105.555 E3.07462
G1 X152.347 Y105.859 E3.15689
G1 X153.835 Y106.234 E3.21304
G1 X155.799 Y107.159 E3.29246
G1 X157.565 Y108.45 E3.3725
G1 X158.892 Y109.92 E3.44495
G1 X159.875 Y111.391 E3.50968
G1 X160.729 Y113.15 E3.58122
G1 X161.143 Y114.872 E3.64601
G1 X161.397 Y116.998 E3.72435
G1 X161.183 Y118.801 E3.79078
G1 X160.574 Y121.034 E3.87546
G1 X159.823 Y122.737 E3.94355
G1 X158.22 Y124.742 E4.03747
G1 X156.88 Y125.947 E4.1034
G1 X155.277 Y126.981 E4.17319
G1 X153.915 Y127.59 E4.22778
G1 X152.17 Y128.126 E4.29457
G1 X149.881 Y128.345 E4.37869
G1 X147.653 Y128.041 E4.46096
G1 X146.165 Y127.666 E4.5171
G1 X144.144 Y126.717 E4.59879
G1 X142.577 Y125.514 E4.67107
G1 X141.139 Y124.095 E4.74498
G1 X139.96 Y122.218 E4.82608
G1 X139.251 Y120.727 E4.88648
G1 X138.809 Y118.715 E4.96185
G1 X138.669 Y116.427 E5.04571
G1 X138.776 Y115.047 E5.09635
G1 X139.351 Y112.902 E5.1776
G1 X140.433 Y110.875 E5.26167
G1 X141.357 Y109.616 E5.3188
G0 F6000 X141.678 Y109.917
G1 F1200 X142.967 Y108.546 E5.38765
G1 X144.961 Y107.288 E5.47391
G1 X146.212 Y106.732 E5.52399
G1 X147.917 Y106.208 E5.58925
G1 X150.11 Y105.998 E5.66985
G1 X152.239 Y106.286 E5.74845
G1 X153.69 Y106.652 E5.8032
G1 X155.572 Y107.538 E5.87931
G1 X157.267 Y108.777 E5.95612
G1 X158.565 Y110.215 E6.027
G1 X159.479 Y111.583 E6.08719
G1 X160.312 Y113.299 E6.15698
G1 X160.715 Y114.975 E6.22004
G1 X160.954 Y116.998 E6.29457
G1 X160.746 Y118.749 E6.35908
G1 X160.171 Y120.857 E6.43903
G1 X159.444 Y122.506 E6.50496
G1 X157.876 Y124.467 E6.59682
G1 X156.641 Y125.577 E6.65757
G1 X155.038 Y126.611 E6.72736
G1 X153.786 Y127.169 E6.77751
G1 X152.082 Y127.692 E6.84272
G1 X149.89 Y127.902 E6.92329
G1 X147.761 Y127.614 E7.00189
G1 X146.31 Y127.248 E7.05664
G1 X144.373 Y126.339 E7.13492
G1 X142.886 Y125.201 E7.20343
G1 X141.486 Y123.819 E7.2754
G1 X140.333 Y121.984 E7.35469
G1 X139.67 Y120.583 E7.4114
G1 X139.239 Y118.621 E7.48489
G1 X139.108 Y116.461 E7.56406
G1 X139.212 Y115.12 E7.61327
G1 X139.763 Y113.065 E7.69111
G1 X140.788 Y111.135 E7.77106
G1 X141.678 Y109.917 E7.82625
G0 F6000 X141.999 Y110.218
G1 F1200 X143.248 Y108.89 E7.89295
G1 X145.141 Y107.69 E7.97495
G1 X146.341 Y107.153 E8.02305
G1 X148.005 Y106.642 E8.08674
G1 X150.102 Y106.441 E8.16381
G1 X152.18 Y106.722 E8.24053
G1 X153.54 Y107.067 E8.29186
G1 X155.345 Y107.917 E8.36486
G1 X156.969 Y109.104 E8.43845
G1 X158.238 Y110.51 E8.50774
G1 X159.083 Y111.775 E8.5634
G1 X159.895 Y113.448 E8.63144
G1 X160.287 Y115.078 E8.69277
G1 X160.511 Y116.997 E8.76346
G1 X160.309 Y118.697 E8.82609
G1 X159.768 Y120.679 E8.90126
G1 X159.063 Y122.278 E8.9652
G1 X157.581 Y124.141 E9.05229
G1 X156.402 Y125.207 E9.11044
G1 X154.799 Y126.241 E9.18023
G1 X153.657 Y126.748 E9.22595
G1 X151.994 Y127.258 E9.28959
G1 X149.898 Y127.459 E9.36662
G1 X147.82 Y127.178 E9.44334
G1 X146.46 Y126.833 E9.49467
G1 X144.605 Y125.962 E9.56965
G1 X143.195 Y124.888 E9.6345
G1 X141.833 Y123.543 E9.70453
G1 X140.706 Y121.75 E9.78201
G1 X140.09 Y120.442 E9.83491
G1 X139.669 Y118.527 E9.90664
G1 X139.547 Y116.495 E9.98112
G1 X139.648 Y115.193 E10.0289
G1 X140.175 Y113.228 E10.10333
G1 X141.144 Y111.394 E10.17922
G1 X141.999 Y110.218 E10.23241
G0 F6000 X142.32 Y110.519
G1 F1200 X143.531 Y109.231 E10.2971
G1 X145.321 Y108.092 E10.37472
G1 X146.521 Y107.555 E10.42282
G1 X148.092 Y107.076 E10.48291
G1 X150.094 Y106.884 E10.55649
G1 X152.121 Y107.158 E10.63132
G1 X153.391 Y107.483 E10.67928
G1 X155.118 Y108.296 E10.74912
G1 X156.671 Y109.431 E10.8195
G1 X157.911 Y110.805 E10.88721
G1 X158.687 Y111.967 E10.93833
G1 X159.478 Y113.597 E11.00462
G1 X159.859 Y115.181 E11.06422
G1 X160.068 Y116.996 E11.13106
G1 X159.872 Y118.645 E11.19182
G1 X159.365 Y120.501 E11.26221
G1 X158.682 Y122.05 E11.32415
G1 X157.285 Y123.816 E11.40653
G1 X156.163 Y124.838 E11.46206
G1 X154.619 Y125.839 E11.52938
G1 X153.528 Y126.327 E11.57311
G1 X151.906 Y126.824 E11.63517
G1 X149.906 Y127.016 E11.70868
G1 X147.879 Y126.742 E11.78351
G1 X146.609 Y126.417 E11.83148
G1 X144.836 Y125.585 E11.90313
G1 X143.462 Y124.538 E11.96633
G1 X142.179 Y123.266 E12.03243
G1 X141.104 Y121.562 E12.10614
G1 X140.509 Y120.299 E12.15722
G1 X140.099 Y118.433 E12.22712
G1 X139.986 Y116.529 E12.2969
G1 X140.084 Y115.266 E12.34325
G1 X140.587 Y113.392 E12.41424
G1 X141.501 Y111.652 E12.48615
G1 X142.32 Y110.519 E12.5373
G0 F6000 X142.677 Y110.777
G1 F1200 X143.813 Y109.573 E12.59786
G1 X145.502 Y108.493 E12.67121
G1 X146.649 Y107.976 E12.71724
G1 X148.178 Y107.51 E12.77572
G1 X150.086 Y107.327 E12.84584
G1 X152.062 Y107.594 E12.91879
G1 X153.243 Y107.899 E12.96342
G1 X154.891 Y108.675 E13.03006
G1 X156.373 Y109.758 E13.09722
G1 X157.584 Y111.1 E13.16335
G1 X158.291 Y112.159 E13.20994
G1 X159.061 Y113.746 E13.27447
G1 X159.431 Y115.284 E13.33235
G1 X159.625 Y116.994 E13.39531
G1 X159.435 Y118.593 E13.45423
G1 X158.962 Y120.323 E13.51984
G1 X158.301 Y121.822 E13.57978
G1 X156.987 Y123.492 E13.65752
G1 X155.923 Y124.469 E13.71037
G1 X154.439 Y125.437 E13.7752
G1 X153.348 Y125.925 E13.81892
G1 X151.82 Y126.39 E13.87736
G1 X149.914 Y126.573 E13.94741
G1 X147.938 Y126.306 E14.02036
G1 X146.757 Y126.001 E14.06499
G1 X145.068 Y125.208 E14.13326
G1 X143.772 Y124.225 E14.19277
G1 X142.523 Y122.987 E14.25711
G1 X141.502 Y121.374 E14.32695
G1 X140.928 Y120.156 E14.37621
G1 X140.529 Y118.339 E14.44427
G1 X140.425 Y116.563 E14.50936
G1 X140.52 Y115.339 E14.55428
G1 X140.999 Y113.554 E14.62189
G1 X141.858 Y111.91 E14.68976
G1 X142.677 Y110.777 E14.74091
G0 F6000 X143.034 Y111.035
G1 F1200 X144.096 Y109.914 E14.7974
G1 X145.684 Y108.894 E14.86645
G1 X146.777 Y108.397 E14.91038
G1 X148.264 Y107.944 E14.96725
G1 X150.078 Y107.77 E15.03393
G1 X151.952 Y108.02 E15.1031
G1 X153.094 Y108.315 E15.14625
G1 X154.664 Y109.054 E15.20973
G1 X156.076 Y110.086 E15.27372
G1 X157.219 Y111.346 E15.33596
G1 X157.895 Y112.351 E15.38027
G1 X158.644 Y113.895 E15.44306
G1 X159.003 Y115.387 E15.4992
G1 X159.182 Y116.991 E15.55825
G1 X158.998 Y118.541 E15.61536
G1 X158.559 Y120.146 E15.67624
G1 X157.92 Y121.596 E15.73421
G1 X156.688 Y123.169 E15.80731
G1 X155.681 Y124.101 E15.85751
G1 X154.259 Y125.035 E15.91975
G1 X153.168 Y125.523 E15.96348
G1 X151.735 Y125.956 E16.01825
G1 X149.922 Y126.13 E16.08488
G1 X148.048 Y125.88 E16.15405
G1 X146.906 Y125.585 E16.19721
G1 X145.3 Y124.831 E16.26212
G1 X144.038 Y123.874 E16.32006
G1 X142.868 Y122.709 E16.38047
G1 X141.9 Y121.186 E16.44649
G1 X141.346 Y120.011 E16.49402
G1 X140.968 Y118.312 E16.5577
G1 X140.864 Y116.597 E16.62056
G1 X140.956 Y115.412 E16.66405
G1 X141.412 Y113.713 E16.72841
G1 X142.215 Y112.168 E16.79211
G1 X143.034 Y111.035 E16.84326
G0 F6000 X143.391 Y111.293
G1 F1200 X144.377 Y110.257 E16.89558
G1 X145.866 Y109.295 E16.96044
G1 X146.959 Y108.798 E17.00437
G1 X148.349 Y108.378 E17.0575
G1 X150.071 Y108.213 E17.12079
G1 X151.842 Y108.446 E17.18614
G1 X152.945 Y108.731 E17.22782
G1 X154.437 Y109.433 E17.28815
G1 X155.779 Y110.414 E17.34896
G1 X156.855 Y111.593 E17.40736
G1 X157.499 Y112.543 E17.44935
G1 X158.227 Y114.044 E17.51039
G1 X158.575 Y115.49 E17.5648
G1 X158.739 Y116.987 E17.6199
G1 X158.561 Y118.489 E17.67523
G1 X158.156 Y119.969 E17.73137
G1 X157.539 Y121.37 E17.78738
G1 X156.389 Y122.846 E17.85584
G1 X155.382 Y123.778 E17.90604
G1 X154.078 Y124.634 E17.96311
G1 X153.041 Y125.102 E18.00473
G1 X151.651 Y125.522 E18.05786
G1 X149.929 Y125.687 E18.12115
G1 X148.158 Y125.454 E18.1865
G1 X147.055 Y125.169 E18.22818
G1 X145.532 Y124.454 E18.28973
G1 X144.304 Y123.523 E18.34611
G1 X143.214 Y122.433 E18.40251
G1 X142.298 Y120.998 E18.4648
G1 X141.765 Y119.868 E18.51051
G1 X141.398 Y118.217 E18.57239
G1 X141.303 Y116.631 E18.63052
G1 X141.392 Y115.485 E18.67257
G1 X141.824 Y113.874 E18.73359
G1 X142.572 Y112.426 E18.79322
G1 X143.391 Y111.293 E18.84437
G0 F6000 X143.71 Y111.596
G1 F1200 X144.658 Y110.6 E18.89468
G1 X146.105 Y109.665 E18.95771
G1 X147.14 Y109.199 E18.99923
G1 X148.432 Y108.812 E19.04858
G1 X150.065 Y108.656 E19.10859
G1 X151.732 Y108.872 E19.17009
G1 X152.796 Y109.147 E19.2103
G1 X154.213 Y109.814 E19.2676
G1 X155.481 Y110.74 E19.32504
G1 X156.53 Y111.89 E19.38199
G1 X157.103 Y112.735 E19.41935
G1 X157.81 Y114.193 E19.47863
G1 X158.147 Y115.593 E19.53131
G1 X158.296 Y116.984 E19.5825
G1 X158.136 Y118.374 E19.63369
G1 X157.753 Y119.792 E19.68742
G1 X157.158 Y121.144 E19.74147
G1 X156.089 Y122.524 E19.80533
G1 X155.139 Y123.411 E19.85288
G1 X153.897 Y124.233 E19.90737
G1 X152.86 Y124.701 E19.949
G1 X151.568 Y125.088 E19.99834
G1 X149.935 Y125.244 E20.05836
G1 X148.268 Y125.028 E20.11986
G1 X147.204 Y124.753 E20.16007
G1 X145.764 Y124.077 E20.21827
G1 X144.57 Y123.172 E20.27308
G1 X143.558 Y122.155 E20.32557
G1 X142.696 Y120.81 E20.38402
G1 X142.185 Y119.726 E20.42786
G1 X141.828 Y118.121 E20.48802
G1 X141.742 Y116.665 E20.54138
G1 X141.828 Y115.558 E20.58201
G1 X142.237 Y114.034 E20.63974
G1 X142.963 Y112.628 E20.69763
G1 X143.71 Y111.596 E20.74424
G0 F6000 X144.029 Y111.899
G1 F1200 X144.939 Y110.943 E20.79253
G1 X146.344 Y110.035 E20.85373
G1 X147.266 Y109.621 E20.89071
G1 X148.519 Y109.246 E20.93856
G1 X150.059 Y109.099 E20.99516
G1 X151.622 Y109.298 E21.0528
G1 X152.647 Y109.563 E21.09154
G1 X153.986 Y110.193 E21.14568
G1 X155.185 Y111.069 E21.20001
G1 X156.205 Y112.187 E21.25537
G1 X156.707 Y112.927 E21.28809
G1 X157.393 Y114.341 E21.34559
G1 X157.709 Y115.64 E21.3945
G1 X157.853 Y116.986 E21.44403
G1 X157.711 Y118.259 E21.49089
G1 X157.328 Y119.677 E21.54463
G1 X156.777 Y120.917 E21.59427
G1 X155.789 Y122.202 E21.65358
G1 X154.839 Y123.089 E21.70113
G1 X153.656 Y123.865 E21.75289
G1 X152.734 Y124.279 E21.78987
G1 X151.481 Y124.654 E21.83772
G1 X149.941 Y124.801 E21.89432
G1 X148.378 Y124.602 E21.95196
G1 X147.353 Y124.337 E21.9907
G1 X145.996 Y123.7 E22.04554
G1 X144.836 Y122.821 E22.09879
G1 X143.903 Y121.878 E22.14732
G1 X143.094 Y120.622 E22.20198
G1 X142.604 Y119.583 E22.24401
G1 X142.258 Y118.026 E22.30236
G1 X142.181 Y116.699 E22.351
G1 X142.264 Y115.631 E22.39019
G1 X142.65 Y114.194 E22.44463
G1 X143.32 Y112.885 E22.49843
G1 X144.029 Y111.899 E22.54286
G0 F6000 X144.348 Y112.202
G1 F1200 X145.221 Y111.285 E22.58918
G1 X146.526 Y110.436 E22.64614
G1 X147.392 Y110.043 E22.68093
G1 X148.606 Y109.68 E22.72729
G1 X150.051 Y109.542 E22.7804
G1 X151.512 Y109.724 E22.83426
G1 X152.498 Y109.979 E22.87153
G1 X153.759 Y110.572 E22.92251
G1 X154.889 Y111.398 E22.97372
G1 X155.842 Y112.436 E23.02527
G1 X156.311 Y113.119 E23.05558
G1 X156.976 Y114.489 E23.1113
G1 X157.281 Y115.744 E23.15855
G1 X157.41 Y116.989 E23.20435
G1 X157.286 Y118.146 E23.24692
G1 X156.926 Y119.498 E23.29811
G1 X156.396 Y120.69 E23.34583
G1 X155.487 Y121.882 E23.40068
G1 X154.596 Y122.722 E23.44548
G1 X153.474 Y123.464 E23.49469
G1 X152.608 Y123.857 E23.52949
G1 X151.394 Y124.22 E23.57585
G1 X149.949 Y124.358 E23.62895
G1 X148.488 Y124.176 E23.68282
G1 X147.502 Y123.921 E23.72008
G1 X146.228 Y123.323 E23.77157
G1 X145.149 Y122.511 E23.82098
G1 X144.245 Y121.598 E23.86798
G1 X143.492 Y120.434 E23.9187
G1 X143.022 Y119.438 E23.959
G1 X142.697 Y117.999 E24.01297
G1 X142.62 Y116.733 E24.05937
G1 X142.7 Y115.704 E24.09713
G1 X143.062 Y114.355 E24.14823
G1 X143.712 Y113.086 E24.2004
G1 X144.348 Y112.202 E24.24024
G0 F6000 X144.704 Y112.461
G1 F1200 X145.504 Y111.626 E24.28255
G1 X146.71 Y110.836 E24.3353
G1 X147.518 Y110.465 E24.36782
G1 X148.693 Y110.114 E24.41269
G1 X150.044 Y109.985 E24.46234
G1 X151.402 Y110.15 E24.51239
G1 X152.349 Y110.395 E24.54818
G1 X153.532 Y110.951 E24.596
G1 X154.594 Y111.727 E24.64413
G1 X155.479 Y112.685 E24.69184
G1 X155.948 Y113.368 E24.72215
G1 X156.558 Y114.635 E24.7736
G1 X156.853 Y115.848 E24.81927
G1 X156.967 Y116.987 E24.86115
G1 X156.848 Y118.099 E24.90207
G1 X156.524 Y119.319 E24.94825
G1 X156.015 Y120.463 E24.99406
G1 X155.137 Y121.615 E25.04706
G1 X154.296 Y122.4 E25.08915
G1 X153.29 Y123.064 E25.13325
G1 X152.482 Y123.435 E25.16578
G1 X151.307 Y123.786 E25.21064
G1 X149.956 Y123.915 E25.26029
G1 X148.598 Y123.75 E25.31034
G1 X147.651 Y123.505 E25.34613
G1 X146.458 Y122.945 E25.39435
G1 X145.462 Y122.201 E25.43983
G1 X144.589 Y121.319 E25.48523
G1 X143.89 Y120.246 E25.53209
G1 X143.441 Y119.294 E25.5706
G1 X143.136 Y117.971 E25.62027
G1 X143.059 Y116.767 E25.66441
G1 X143.136 Y115.777 E25.70074
G1 X143.474 Y114.516 E25.7485
G1 X144.104 Y113.287 E25.79903
G1 X144.704 Y112.461 E25.83638
G0 F6000 X145.022 Y112.766
G1 F1200 X145.789 Y111.966 E25.87693
G1 X146.894 Y111.236 E25.92538
G1 X147.702 Y110.865 E25.95791
G1 X148.777 Y110.548 E25.99892
G1 X150.038 Y110.428 E26.04526
G1 X151.292 Y110.576 E26.09146
G1 X152.2 Y110.811 E26.12577
G1 X153.305 Y111.33 E26.17044
G1 X154.3 Y112.057 E26.21552
G1 X155.116 Y112.934 E26.25935
G1 X155.585 Y113.617 E26.28966
G1 X156.141 Y114.783 E26.33692
G1 X156.415 Y115.892 E26.37872
G1 X156.524 Y116.984 E26.41887
G1 X156.41 Y118.052 E26.45816
G1 X156.122 Y119.14 E26.49934
G1 X155.633 Y120.238 E26.54331
G1 X154.835 Y121.295 E26.59177
G1 X154.052 Y122.034 E26.63116
G1 X153.106 Y122.664 E26.67274
G1 X152.298 Y123.035 E26.70527
G1 X151.223 Y123.352 E26.74628
G1 X149.962 Y123.472 E26.79262
G1 X148.708 Y123.324 E26.83882
G1 X147.8 Y123.089 E26.87313
G1 X146.688 Y122.567 E26.91808
G1 X145.775 Y121.891 E26.95964
G1 X144.931 Y121.039 E27.00352
G1 X144.288 Y120.058 E27.04643
G1 X143.858 Y119.147 E27.08329
G1 X143.575 Y117.941 E27.12861
G1 X143.498 Y116.801 E27.17041
G1 X143.572 Y115.85 E27.20531
G1 X143.887 Y114.673 E27.24989
G1 X144.461 Y113.544 E27.29622
G1 X145.022 Y112.766 E27.33132
G0 F6000 X145.339 Y113.071
G1 F1200 X146.073 Y112.306 E27.3701
G1 X147.078 Y111.636 E27.4143
G1 X147.886 Y111.265 E27.44682
G1 X148.859 Y110.982 E27.4839
G1 X150.034 Y110.87 E27.52708
G1 X151.182 Y111.002 E27.56936
G1 X152.051 Y111.227 E27.6022
G1 X153.081 Y111.711 E27.64384
G1 X154.004 Y112.385 E27.68565
G1 X154.755 Y113.186 E27.72582
G1 X155.188 Y113.806 E27.75349
G1 X155.723 Y114.929 E27.799
G1 X155.977 Y115.936 E27.837
G1 X156.081 Y116.981 E27.87542
G1 X155.972 Y118.005 E27.91309
G1 X155.697 Y119.025 E27.95174
