;FLAVOR:Marlin
;TIME:5106
;Filament used: 5.36077m
;Layer height: 0.16
;MINX:122.299
;MINY:103.063
;MINZ:0.2
;MAXX:177.799
;MAXY:187.249
;MAXZ:15.2
;Generated with Cura_SteamEngine 5.4.0
M140 S65
M105
M190 S65
M104 S210
M105
M109 S210
M82 ;absolute extrusion mode
G28 ; home all axes
M420 S1 Z10
 M117 Purge extruder
 G92 E0 ; reset extruder
 G1 Z1.0 F3000 ; move z up little to prevent scratching of surface
 G1 X2 Y20 Z0.3 F5000.0 ; move to start-line position
 G1 X2 Y200.0 Z0.3 F1500.0 E15 ; draw 1st line
 G1 X2 Y200.0 Z0.4 F5000.0 ; move to side a little
 G1 X2 Y20 Z0.4 F1500.0 E30 ; draw 2nd line
 G92 E0 ; reset extruder
 G1 Z1.0 F3000 ; move z up little to prevent scratching of surface
G92 E0
G92 E0
G1 F1500 E-3
;LAYER_COUNT:85
;LAYER:0
M107
G1 F300 Z0.4
G0 F6000 X139.489 Y106.864 Z0.4
;TYPE:SKIRT
G1 F300 Z0.2
G1 F1500 E0
G1 F1200 X141.133 Y105.115 E0.08782
G1 X143.037 Y103.863 E0.17119
G1 X145.484 Y103.162 E0.26432
G1 X147.809 Y103.063 E0.34946
G1 X150.025 Y103.683 E0.43365
G1 X150.157 Y103.738 E0.43888
G1 X152.364 Y103.109 E0.52284
G1 X154.663 Y103.206 E0.60703
G1 X156.754 Y103.795 E0.6865
G1 X158.78 Y104.904 E0.77101
G1 X160.444 Y106.655 E0.85938
G1 X161.497 Y108.37 E0.93301
G1 X162.153 Y110.617 E1.01865
G1 X162.288 Y113.002 E1.10605
G1 X162.111 Y113.64 E1.13027
G1 X162.069 Y114.061 E1.14575
G1 X161.839 Y115.235 E1.18952
G1 X161.773 Y115.437 E1.1973
G1 X161.798 Y115.655 E1.20532
G1 X161.843 Y117.501 E1.27288
G1 X161.374 Y119.681 E1.35446
G1 X160.76 Y121.493 E1.42446
G1 X159.643 Y123.276 E1.50144
G1 X158.313 Y124.923 E1.57889
G1 X156.742 Y126.137 E1.65153
G1 X154.805 Y127.282 E1.73385
G1 X152.602 Y128.007 E1.8187
G1 X149.904 Y128.233 E1.91776
G1 X148.416 Y128.17 E1.97225
G1 X146.248 Y127.595 E2.05431
G1 X144.605 Y126.951 E2.11887
G1 X142.701 Y125.706 E2.2021
G1 X141.204 Y124.284 E2.27764
G1 X139.863 Y122.466 E2.36029
G1 X139.133 Y120.857 E2.42493
G1 X138.369 Y117.989 E2.53352
G1 X138.223 Y116.532 E2.5871
G1 X138.404 Y114.843 E2.64924
G1 X138.026 Y113.562 E2.69811
G1 X137.848 Y111.3 E2.78112
G1 X137.882 Y110.985 E2.79271
G1 X138.576 Y108.603 E2.88349
G1 X139.489 Y106.864 E2.95534
G0 F6000 X139.851 Y107.121
G1 F1200 X141.417 Y105.455 E3.039
G1 X143.224 Y104.267 E3.11812
G1 X145.553 Y103.6 E3.20675
G1 X147.758 Y103.506 E3.2875
G1 X149.906 Y104.107 E3.3691
G1 X150.122 Y104.206 E3.3778
G1 X152.415 Y103.552 E3.46503
G1 X154.593 Y103.644 E3.54479
G1 X156.588 Y104.206 E3.62062
G1 X158.508 Y105.257 E3.7007
G1 X160.093 Y106.925 E3.78488
G1 X161.092 Y108.551 E3.8547
G1 X161.717 Y110.691 E3.93627
G1 X161.845 Y112.953 E4.01916
G1 X161.677 Y113.559 E4.04217
G1 X161.637 Y113.976 E4.05749
G1 X161.407 Y115.15 E4.10126
G1 X161.324 Y115.391 E4.11059
G1 X161.358 Y115.666 E4.12072
G1 X161.402 Y117.461 E4.18642
G1 X160.957 Y119.54 E4.2642
G1 X160.36 Y121.302 E4.33227
G1 X159.27 Y123.042 E4.40739
G1 X158.004 Y124.605 E4.48098
G1 X156.518 Y125.758 E4.54979
G1 X154.622 Y126.879 E4.63037
G1 X152.511 Y127.574 E4.71168
G1 X149.923 Y127.793 E4.80671
G1 X148.478 Y127.732 E4.85962
G1 X146.409 Y127.185 E4.93792
G1 X144.805 Y126.556 E5.00095
G1 X142.975 Y125.36 E5.08094
G1 X141.534 Y123.991 E5.15366
G1 X140.246 Y122.244 E5.23307
G1 X139.534 Y120.675 E5.2961
G1 X138.807 Y117.945 E5.39947
G1 X138.665 Y116.53 E5.45149
G1 X138.851 Y114.801 E5.51512
G1 X138.461 Y113.482 E5.56544
G1 X138.287 Y111.266 E5.64676
G1 X138.304 Y111.108 E5.65258
G1 X138.985 Y108.771 E5.74164
G1 X139.851 Y107.121 E5.80981
G0 F6000 X140.214 Y107.377
G1 F1200 X141.701 Y105.795 E5.88925
G1 X143.411 Y104.671 E5.96411
G1 X145.622 Y104.038 E6.04826
G1 X147.707 Y103.949 E6.12461
G1 X149.787 Y104.531 E6.20363
G1 X150.079 Y104.676 E6.21556
G1 X152.466 Y103.995 E6.30637
G1 X154.523 Y104.082 E6.3817
G1 X156.422 Y104.617 E6.45388
G1 X158.236 Y105.61 E6.52954
G1 X159.742 Y107.195 E6.60953
G1 X160.687 Y108.732 E6.67554
G1 X161.281 Y110.765 E6.75303
G1 X161.402 Y112.905 E6.83145
G1 X161.243 Y113.479 E6.85324
G1 X161.205 Y113.891 E6.86838
G1 X160.975 Y115.065 E6.91215
G1 X160.874 Y115.34 E6.92287
G1 X160.921 Y115.72 E6.93688
G1 X160.961 Y117.421 E6.99913
G1 X160.54 Y119.399 E7.07311
G1 X159.959 Y121.114 E7.13936
G1 X158.928 Y122.765 E7.21058
G1 X157.695 Y124.287 E7.28224
G1 X156.248 Y125.41 E7.34925
G1 X154.441 Y126.475 E7.42599
G1 X152.42 Y127.14 E7.50383
G1 X149.942 Y127.353 E7.59483
G1 X148.545 Y127.294 E7.64598
G1 X146.57 Y126.775 E7.72069
G1 X145.005 Y126.161 E7.7822
G1 X143.249 Y125.014 E7.85894
G1 X141.865 Y123.698 E7.92881
G1 X140.629 Y122.022 E8.005
G1 X139.935 Y120.493 E8.06643
G1 X139.245 Y117.901 E8.16457
G1 X139.107 Y116.528 E8.21505
G1 X139.298 Y114.759 E8.28015
G1 X138.897 Y113.403 E8.33188
G1 X138.726 Y111.231 E8.41159
G1 X139.393 Y108.941 E8.49886
G1 X140.214 Y107.377 E8.56348
G0 F6000 X140.577 Y107.633
G1 F1200 X141.985 Y106.135 E8.6387
G1 X143.598 Y105.075 E8.70931
G1 X145.691 Y104.476 E8.78896
G1 X147.656 Y104.392 E8.86092
G1 X149.668 Y104.955 E8.93736
G1 X150.066 Y105.167 E8.95386
G1 X150.236 Y105.085 E8.96076
G1 X152.516 Y104.438 E9.04747
G1 X154.453 Y104.52 E9.1184
G1 X156.256 Y105.028 E9.18694
G1 X157.964 Y105.963 E9.25818
G1 X159.39 Y107.463 E9.3339
G1 X160.283 Y108.915 E9.39626
G1 X160.845 Y110.839 E9.4696
G1 X160.959 Y112.857 E9.54355
G1 X160.809 Y113.4 E9.56416
G1 X160.773 Y113.806 E9.57907
G1 X160.543 Y114.98 E9.62284
G1 X160.423 Y115.285 E9.63483
G1 X160.481 Y115.73 E9.65125
G1 X160.52 Y117.382 E9.7117
G1 X160.123 Y119.258 E9.78186
G1 X159.558 Y120.925 E9.84626
G1 X158.586 Y122.488 E9.9136
G1 X157.384 Y123.972 E9.98347
G1 X156.025 Y125.031 E10.0465
G1 X154.259 Y126.072 E10.1215
G1 X152.33 Y126.706 E10.19579
G1 X149.961 Y126.913 E10.28279
G1 X148.61 Y126.856 E10.33226
G1 X146.731 Y126.365 E10.40332
G1 X145.205 Y125.766 E10.4633
G1 X143.523 Y124.668 E10.53678
G1 X142.196 Y123.405 E10.60381
G1 X141.012 Y121.8 E10.67678
G1 X140.336 Y120.311 E10.73661
G1 X139.683 Y117.857 E10.82951
G1 X139.549 Y116.526 E10.87846
G1 X139.745 Y114.717 E10.94503
G1 X139.332 Y113.323 E10.99822
G1 X139.171 Y111.275 E11.07338
G1 X139.801 Y109.111 E11.15584
G1 X140.577 Y107.633 E11.21691
G0 F6000 X140.939 Y107.89
G1 F1200 X142.269 Y106.475 E11.28796
G1 X143.785 Y105.479 E11.35433
G1 X145.76 Y104.914 E11.42948
G1 X147.605 Y104.835 E11.49705
G1 X149.506 Y105.367 E11.56927
G1 X150.075 Y105.67 E11.59285
G1 X150.356 Y105.508 E11.60472
G1 X152.566 Y104.881 E11.68877
G1 X154.383 Y104.958 E11.7553
G1 X156.09 Y105.439 E11.82019
G1 X157.692 Y106.316 E11.88701
G1 X159.038 Y107.731 E11.95846
G1 X159.879 Y109.098 E12.01718
G1 X160.409 Y110.913 E12.08635
G1 X160.516 Y112.809 E12.15583
G1 X160.373 Y113.326 E12.17546
G1 X160.341 Y113.721 E12.18996
G1 X160.111 Y114.895 E12.23372
G1 X159.971 Y115.224 E12.24681
G1 X160.041 Y115.74 E12.26586
G1 X160.079 Y117.34 E12.32441
G1 X159.706 Y119.117 E12.39084
G1 X159.157 Y120.736 E12.45339
G1 X158.244 Y122.211 E12.51685
G1 X157.072 Y123.658 E12.58498
G1 X155.802 Y124.652 E12.64398
G1 X154.078 Y125.668 E12.7172
G1 X152.239 Y126.273 E12.78803
G1 X149.98 Y126.473 E12.871
G1 X148.675 Y126.418 E12.91879
G1 X146.842 Y125.939 E12.9881
G1 X145.409 Y125.374 E13.04446
G1 X143.798 Y124.322 E13.11485
G1 X142.527 Y123.112 E13.17905
G1 X141.395 Y121.578 E13.2488
G1 X140.737 Y120.129 E13.30703
G1 X140.121 Y117.813 E13.39471
G1 X139.991 Y116.525 E13.44207
G1 X140.192 Y114.675 E13.51015
G1 X139.767 Y113.243 E13.5648
G1 X139.616 Y111.319 E13.63541
G1 X140.21 Y109.279 E13.71314
G1 X140.939 Y107.89 E13.77054
G0 F6000 X141.302 Y108.146
G1 F1200 X142.553 Y106.815 E13.83737
G1 X143.972 Y105.883 E13.89948
G1 X145.829 Y105.352 E13.97014
G1 X147.554 Y105.278 E14.03331
G1 X149.344 Y105.779 E14.10132
G1 X150.1 Y106.181 E14.13264
G1 X150.476 Y105.931 E14.14916
G1 X152.616 Y105.324 E14.23055
G1 X154.313 Y105.396 E14.29269
G1 X155.924 Y105.85 E14.35392
G1 X157.42 Y106.669 E14.41632
G1 X158.686 Y107.999 E14.4835
G1 X159.475 Y109.281 E14.53858
G1 X159.973 Y110.987 E14.6036
G1 X160.073 Y112.761 E14.6686
G1 X159.937 Y113.252 E14.68724
G1 X159.909 Y113.636 E14.70133
G1 X159.679 Y114.81 E14.7451
G1 X159.516 Y115.156 E14.75909
G1 X159.601 Y115.751 E14.78108
G1 X159.638 Y117.299 E14.83773
G1 X159.289 Y118.976 E14.9004
G1 X158.757 Y120.546 E14.96105
G1 X157.902 Y121.934 E15.0207
G1 X156.762 Y123.342 E15.08698
G1 X155.531 Y124.305 E15.14416
G1 X153.896 Y125.265 E15.21353
G1 X152.149 Y125.839 E15.2808
G1 X149.999 Y126.033 E15.35978
G1 X148.74 Y125.98 E15.40589
G1 X146.953 Y125.513 E15.47346
G1 X145.612 Y124.981 E15.52624
G1 X144.073 Y123.976 E15.59349
G1 X142.858 Y122.819 E15.65487
G1 X141.778 Y121.356 E15.7214
G1 X141.138 Y119.947 E15.77802
G1 X140.559 Y117.769 E15.86047
G1 X140.433 Y116.524 E15.90626
G1 X140.639 Y114.633 E15.97585
G1 X140.202 Y113.163 E16.03196
G1 X140.061 Y111.363 E16.09802
G1 X140.618 Y109.449 E16.17095
G1 X141.302 Y108.146 E16.22479
G0 F6000 X141.665 Y108.402
G1 F1200 X142.838 Y107.154 E16.28745
G1 X144.157 Y106.288 E16.34518
G1 X145.898 Y105.79 E16.41143
G1 X147.503 Y105.721 E16.4702
G1 X149.182 Y106.191 E16.53399
G1 X150.126 Y106.693 E16.57311
G1 X150.663 Y106.335 E16.59672
G1 X152.666 Y105.767 E16.67289
G1 X154.243 Y105.834 E16.73064
G1 X155.758 Y106.261 E16.78823
G1 X157.148 Y107.022 E16.84621
G1 X158.334 Y108.267 E16.90912
G1 X159.071 Y109.464 E16.96055
G1 X159.537 Y111.061 E17.02141
G1 X159.63 Y112.712 E17.08191
G1 X159.501 Y113.177 E17.09957
G1 X159.477 Y113.551 E17.11328
G1 X159.257 Y114.674 E17.15514
G1 X159.062 Y115.089 E17.17192
G1 X159.165 Y115.813 E17.19867
G1 X159.197 Y117.259 E17.25159
G1 X158.872 Y118.835 E17.31046
G1 X158.356 Y120.359 E17.36933
G1 X157.56 Y121.657 E17.42504
G1 X156.452 Y123.026 E17.48947
G1 X155.26 Y123.958 E17.54483
G1 X153.714 Y124.861 E17.61034
G1 X152.058 Y125.406 E17.67412
G1 X150.017 Y125.593 E17.7491
G1 X148.804 Y125.542 E17.79352
G1 X147.115 Y125.104 E17.85736
G1 X145.815 Y124.588 E17.90853
G1 X144.348 Y123.63 E17.97264
G1 X143.189 Y122.526 E18.0312
G1 X142.159 Y121.132 E18.09461
G1 X141.563 Y119.833 E18.1469
G1 X140.997 Y117.725 E18.22675
G1 X140.875 Y116.522 E18.27099
G1 X141.059 Y114.821 E18.33359
G1 X141.1 Y114.635 E18.34056
G1 X140.637 Y113.082 E18.39985
G1 X140.506 Y111.407 E18.46132
G1 X141.026 Y109.619 E18.52944
G1 X141.665 Y108.402 E18.57973
G0 F6000 X142.027 Y108.659
G1 F1200 X143.123 Y107.493 E18.63828
G1 X144.342 Y106.693 E18.69162
G1 X145.967 Y106.228 E18.75346
G1 X147.452 Y106.164 E18.80784
G1 X149.02 Y106.603 E18.86742
G1 X150.151 Y107.205 E18.91429
G1 X150.85 Y106.739 E18.94503
G1 X152.716 Y106.21 E19.01599
G1 X154.177 Y106.272 E19.06949
G1 X155.589 Y106.67 E19.12316
G1 X156.877 Y107.375 E19.17688
G1 X157.982 Y108.535 E19.23549
G1 X158.667 Y109.647 E19.28328
G1 X159.101 Y111.135 E19.33999
G1 X159.187 Y112.664 E19.39602
G1 X159.065 Y113.105 E19.41276
G1 X159.045 Y113.466 E19.42598
G1 X158.835 Y114.538 E19.46595
G1 X158.608 Y115.022 E19.48551
G1 X158.729 Y115.875 E19.51703
G1 X158.756 Y117.22 E19.56625
G1 X158.455 Y118.694 E19.62129
G1 X157.955 Y120.171 E19.67834
G1 X157.218 Y121.38 E19.73014
G1 X156.142 Y122.71 E19.79273
G1 X154.989 Y123.611 E19.84627
G1 X153.535 Y124.457 E19.90781
G1 X151.967 Y124.973 E19.96821
G1 X150.035 Y125.153 E20.0392
G1 X148.867 Y125.104 E20.08197
G1 X147.277 Y124.695 E20.14203
G1 X146.018 Y124.195 E20.19159
G1 X144.626 Y123.286 E20.25242
G1 X143.52 Y122.232 E20.30831
G1 X142.54 Y120.906 E20.36864
G1 X141.963 Y119.649 E20.41924
G1 X141.435 Y117.68 E20.49383
G1 X141.317 Y116.52 E20.53648
G1 X141.496 Y114.868 E20.59728
G1 X141.556 Y114.622 E20.60654
G1 X141.072 Y113.001 E20.66844
G1 X140.951 Y111.451 E20.72532
G1 X141.435 Y109.787 E20.78872
G1 X142.027 Y108.659 E20.83533
G0 F6000 X142.389 Y108.916
G1 F1200 X143.407 Y107.834 E20.88968
G1 X144.529 Y107.097 E20.93879
G1 X146.036 Y106.666 E20.99614
G1 X147.401 Y106.607 E21.04613
G1 X148.858 Y107.015 E21.10148
G1 X149.994 Y107.62 E21.14857
G1 X150.14 Y107.741 E21.15551
G1 X151.037 Y107.143 E21.19495
G1 X152.766 Y106.653 E21.2607
G1 X154.111 Y106.71 E21.30995
G1 X155.42 Y107.079 E21.35971
G1 X156.604 Y107.727 E21.40909
G1 X157.632 Y108.806 E21.46362
G1 X158.263 Y109.83 E21.50762
G1 X158.665 Y111.209 E21.56017
G1 X158.744 Y112.616 E21.61173
G1 X158.627 Y113.039 E21.62779
G1 X158.613 Y113.381 E21.64031
G1 X158.413 Y114.402 E21.67838
G1 X158.154 Y114.954 E21.70068
G1 X158.289 Y115.884 E21.73507
G1 X158.315 Y117.182 E21.78256
G1 X158.038 Y118.553 E21.83374
G1 X157.554 Y119.983 E21.88897
G1 X156.842 Y121.151 E21.93902
G1 X155.832 Y122.393 E21.99759
G1 X154.718 Y123.264 E22.04932
G1 X153.355 Y124.053 E22.10694
G1 X151.876 Y124.54 E22.16391
G1 X150.053 Y124.713 E22.23091
G1 X148.929 Y124.666 E22.27206
G1 X147.44 Y124.286 E22.32829
G1 X146.22 Y123.801 E22.37632
G1 X144.904 Y122.942 E22.43382
G1 X143.824 Y121.913 E22.48839
G1 X142.922 Y120.682 E22.54423
G1 X142.363 Y119.465 E22.59322
G1 X141.873 Y117.636 E22.6625
G1 X141.76 Y116.522 E22.70347
G1 X141.924 Y114.972 E22.76049
G1 X142.018 Y114.584 E22.7751
G1 X141.96 Y114.448 E22.78051
G1 X141.507 Y112.921 E22.83878
G1 X141.396 Y111.495 E22.89111
G1 X141.844 Y109.955 E22.94979
G1 X142.389 Y108.916 E22.99271
G0 F6000 X142.752 Y109.171
G1 F1200 X143.688 Y108.176 E23.04269
G1 X144.716 Y107.501 E23.08769
G1 X146.105 Y107.104 E23.14054
G1 X147.35 Y107.05 E23.18613
G1 X148.696 Y107.427 E23.23727
G1 X149.787 Y108.008 E23.2825
G1 X150.1 Y108.334 E23.29903
G1 X150.237 Y108.205 E23.30591
G1 X151.224 Y107.547 E23.34931
G1 X152.816 Y107.096 E23.40985
G1 X154.045 Y107.148 E23.45486
G1 X155.251 Y107.488 E23.5007
G1 X156.331 Y108.079 E23.54574
G1 X157.282 Y109.077 E23.59618
G1 X157.859 Y110.013 E23.63641
G1 X158.229 Y111.283 E23.6848
G1 X158.301 Y112.568 E23.73189
G1 X158.188 Y112.976 E23.74738
G1 X158.181 Y113.296 E23.75909
G1 X157.991 Y114.266 E23.79525
G1 X157.699 Y114.888 E23.82039
G1 X157.849 Y115.893 E23.85757
G1 X157.874 Y117.141 E23.90324
G1 X157.621 Y118.412 E23.95065
G1 X157.153 Y119.795 E24.00407
G1 X156.466 Y120.922 E24.05236
G1 X155.523 Y122.076 E24.10688
G1 X154.447 Y122.917 E24.15684
G1 X153.177 Y123.648 E24.21046
G1 X151.784 Y124.107 E24.26412
G1 X150.071 Y124.273 E24.32708
G1 X148.994 Y124.228 E24.36652
G1 X147.603 Y123.877 E24.41901
G1 X146.419 Y123.406 E24.46562
G1 X145.181 Y122.598 E24.51971
G1 X144.156 Y121.622 E24.57149
G1 X143.304 Y120.459 E24.62424
G1 X142.763 Y119.281 E24.67167
G1 X142.311 Y117.592 E24.73563
G1 X142.203 Y116.523 E24.77494
G1 X142.352 Y115.075 E24.8282
G1 X142.482 Y114.537 E24.84845
G1 X142.382 Y114.323 E24.85709
G1 X141.942 Y112.841 E24.91365
G1 X141.841 Y111.539 E24.96143
G1 X142.253 Y110.123 E25.01539
G1 X142.752 Y109.171 E25.05471
G0 F6000 X143.114 Y109.428
G1 F1200 X143.972 Y108.517 E25.10049
G1 X144.903 Y107.905 E25.14126
G1 X146.174 Y107.542 E25.18962
G1 X147.299 Y107.493 E25.23082
G1 X148.534 Y107.839 E25.27774
G1 X149.518 Y108.363 E25.31853
G1 X150.102 Y108.971 E25.34937
G1 X150.481 Y108.571 E25.36953
G1 X151.411 Y107.951 E25.41042
G1 X152.866 Y107.539 E25.46575
G1 X153.979 Y107.586 E25.50651
G1 X155.082 Y107.897 E25.54843
G1 X156.058 Y108.431 E25.58914
G1 X156.932 Y109.348 E25.63548
G1 X157.455 Y110.196 E25.67194
G1 X157.793 Y111.357 E25.71618
G1 X157.858 Y112.52 E25.75879
G1 X157.748 Y112.917 E25.77386
G1 X157.749 Y113.211 E25.78462
G1 X157.569 Y114.13 E25.81888
G1 X157.244 Y114.823 E25.84689
G1 X157.409 Y115.902 E25.88682
G1 X157.433 Y117.1 E25.93066
G1 X157.189 Y118.326 E25.97639
G1 X156.753 Y119.605 E26.02583
G1 X156.09 Y120.693 E26.07245
G1 X155.215 Y121.758 E26.12287
G1 X154.176 Y122.57 E26.17112
G1 X152.998 Y123.243 E26.22076
G1 X151.692 Y123.674 E26.27107
G1 X150.089 Y123.833 E26.33001
G1 X149.058 Y123.79 E26.36776
G1 X147.711 Y123.45 E26.41859
G1 X146.625 Y123.015 E26.46139
G1 X145.454 Y122.251 E26.51254
G1 X144.488 Y121.331 E26.56135
G1 X143.686 Y120.236 E26.61101
G1 X143.163 Y119.097 E26.65686
G1 X142.749 Y117.548 E26.71552
G1 X142.646 Y116.524 E26.75318
G1 X142.79 Y115.12 E26.80481
G1 X142.949 Y114.487 E26.82869
G1 X142.804 Y114.198 E26.84052
G1 X142.377 Y112.761 E26.89537
G1 X142.286 Y111.583 E26.93859
G1 X142.662 Y110.291 E26.98782
G1 X143.114 Y109.428 E27.02347
G0 F6000 X143.476 Y109.685
G1 F1200 X144.256 Y108.858 E27.06506
