;FLAVOR:Marlin
;TIME:1597
;Filament used: 0.728277m
;Layer height: 0.16
;MINX:122.529
;MINY:146.477
;MINZ:0.2
;MAXX:177.471
;MAXY:153.48
;MAXZ:7.76
;Generated with Cura_SteamEngine 5.4.0
M140 S65
M105
M190 S65
M104 S210
M105
M109 S210
M82 ;absolute extrusion mode
G28 ; home all axes
M420 S1 Z10
 M117 Purge extruder
 G92 E0 ; reset extruder
 G1 Z1.0 F3000 ; move z up little to prevent scratching of surface
 G1 X2 Y20 Z0.3 F5000.0 ; move to start-line position
 G1 X2 Y200.0 Z0.3 F1500.0 E15 ; draw 1st line
 G1 X2 Y200.0 Z0.4 F5000.0 ; move to side a little
 G1 X2 Y20 Z0.4 F1500.0 E30 ; draw 2nd line
 G92 E0 ; reset extruder
 G1 Z1.0 F3000 ; move z up little to prevent scratching of surface
G92 E0
G92 E0
G1 F1500 E-3
;LAYER_COUNT:49
;LAYER:0
M107
G1 F300 Z0.4
;MESH:4. BLDC motor transmission 7x bar [V1].stl
G0 F6000 X129.559 Y147.471 Z0.4
;TYPE:WALL-INNER
G1 F300 Z0.2
G1 F1500 E0
G1 F1097.7 X129.796 Y147.833 E0.01731
G1 X129.988 Y148.231 E0.03498
G1 X130.415 Y147.471 E0.06984
G1 X129.559 Y147.471 E0.10408
G0 F6000 X128.509 Y147.011
G1 F1200 X128.748 Y147.219 E0.11567
G1 X129.126 Y147.65 E0.13665
G1 X129.398 Y148.064 E0.15477
G1 X129.662 Y148.63 E0.17762
G1 F1116.3 X129.883 Y149.367 E0.20788
G1 F1000 X129.995 Y149.636 E0.22067
G1 F1068.8 X130.18 Y149.198 E0.2402
G1 F1200 X130.271 Y148.826 E0.25421
G1 X130.48 Y148.296 E0.27506
G1 X130.765 Y147.802 E0.29592
G1 X131.127 Y147.348 E0.31717
G1 X131.48 Y147.01 E0.33505
G1 X128.509 Y147.011 E0.44375
G1 F1500 E-2.55625
G1 F300 Z0.4
G0 F6000 X130.003 Y149.655 Z0.4
G1 F300 Z0.2
G1 F1500 E0.44375
G1 F819.9 X129.995 Y150 E0.46223
G1 F825 X130.005 Y150.308 E0.47862
G0 F6000 X129.99 Y151.768
G1 F1095.4 X129.808 Y152.155 E0.49576
G1 X129.56 Y152.527 E0.51368
G1 X130.414 Y152.527 E0.54791
G1 X129.99 Y151.768 E0.58275
G0 F6000 X129.998 Y150.326
G1 F1023.3 X129.874 Y150.63 E0.59684
G1 F1140.4 X129.801 Y150.911 E0.60802
G1 F1200 X129.629 Y151.454 E0.62886
G1 X129.378 Y151.968 E0.64979
G1 X129.067 Y152.426 E0.67004
G1 X128.748 Y152.781 E0.6875
G1 X128.509 Y152.988 E0.69907
G1 X131.479 Y152.988 E0.80773
G1 X131.127 Y152.652 E0.82553
G1 X130.734 Y152.156 E0.84869
G1 X130.439 Y151.613 E0.87129
G1 X130.269 Y151.17 E0.88865
G1 X130.181 Y150.803 E0.90246
G1 F1073.2 X129.998 Y150.326 E0.92336
G1 F1500 E-2.07664
G1 F300 Z0.4
G0 F6000 X138.005 Y150.308 Z0.4
G1 F300 Z0.2
G1 F1500 E0.92336
G1 F825 X137.995 Y150 E0.93976
G1 F819.9 X138.003 Y149.655 E0.95824
G1 F1500 E-2.04176
G1 F300 Z0.4
G0 F6000 X137.99 Y151.767 Z0.4
G1 F300 Z0.2
G1 F1500 E0.95824
G1 F1095.4 X137.797 Y152.166 E0.97601
G1 X137.56 Y152.528 E0.99335
G1 X138.414 Y152.528 E1.02757
G1 X137.99 Y151.767 E1.06249
G0 F6000 X137.998 Y150.326
G1 F1023.3 X137.874 Y150.63 E1.07657
G1 F1140.4 X137.801 Y150.911 E1.08775
G1 F1200 X137.629 Y151.454 E1.10859
G1 X137.378 Y151.968 E1.12952
G1 X137.067 Y152.426 E1.14977
G1 X136.748 Y152.781 E1.16723
G1 X136.51 Y152.988 E1.17878
G1 X139.479 Y152.988 E1.2874
G1 X139.127 Y152.652 E1.3052
G1 X138.734 Y152.156 E1.32836
G1 X138.439 Y151.613 E1.35096
G1 X138.269 Y151.17 E1.36832
G1 X138.181 Y150.803 E1.38213
G1 F1073.2 X137.998 Y150.326 E1.40303
G1 F1500 E-1.59697
G1 F300 Z0.4
G0 F6000 X137.559 Y147.471 Z0.4
G1 F300 Z0.2
G1 F1500 E1.40303
G1 F1097.7 X137.796 Y147.833 E1.42034
G1 X137.988 Y148.231 E1.43801
G1 X138.415 Y147.471 E1.47288
G1 X137.559 Y147.471 E1.50711
G0 F6000 X136.509 Y147.011
G1 F1200 X136.748 Y147.219 E1.51871
G1 X137.126 Y147.65 E1.53968
G1 X137.398 Y148.064 E1.5578
G1 X137.662 Y148.63 E1.58065
G1 F1116.3 X137.883 Y149.367 E1.61091
G1 F1000 X137.995 Y149.636 E1.62371
G1 F1068.8 X138.18 Y149.198 E1.64324
G1 F1200 X138.271 Y148.826 E1.65725
G1 X138.48 Y148.296 E1.67809
G1 X138.765 Y147.802 E1.69896
G1 X139.127 Y147.348 E1.7202
G1 X139.48 Y147.01 E1.73808
G1 X136.509 Y147.011 E1.84678
G1 F1500 E-1.15322
G1 F300 Z0.4
G0 F6000 X146.331 Y150.365 Z0.4
G1 F300 Z0.2
G1 F1500 E1.84678
G1 F1200 X146.246 Y150.961 E1.86881
G1 X146.061 Y151.566 E1.89195
G1 X145.786 Y152.149 E1.91554
G1 X145.521 Y152.549 E1.93309
G1 X154.482 Y152.549 E2.26094
G1 X154.328 Y152.331 E2.2707
G1 X154.056 Y151.845 E2.29108
G1 X153.825 Y151.224 E2.31532
G1 X153.709 Y150.712 E2.33453
G1 X153.67 Y150.326 E2.34872
G1 X153.338 Y150.444 E2.36161
G1 X146.762 Y150.45 E2.6022
G1 X146.331 Y150.365 E2.61828
G0 F6000 X145.848 Y149.353
G1 F1200 X145.895 Y149.671 E2.63004
G1 X145.902 Y150.285 E2.6525
G1 X145.821 Y150.826 E2.67252
G1 X145.663 Y151.364 E2.69303
G1 X145.402 Y151.932 E2.7159
G1 X145.067 Y152.426 E2.73774
G1 X144.748 Y152.781 E2.7552
G1 X144.509 Y152.989 E2.76679
G1 X155.481 Y152.99 E3.16821
G1 X155.127 Y152.652 E3.18612
G1 X154.736 Y152.159 E3.20914
G1 X154.479 Y151.7 E3.22839
G1 X154.253 Y151.126 E3.25096
G1 X154.139 Y150.616 E3.27008
G1 X154.091 Y150.048 E3.29093
G1 X154.13 Y149.375 E3.3156
G1 X153.643 Y149.857 E3.34066
G1 X153.352 Y150.007 E3.35264
G1 X146.769 Y150.01 E3.59349
G1 X146.533 Y149.963 E3.60229
G1 X146.313 Y149.818 E3.61193
G1 X145.848 Y149.353 E3.63599
G1 F1500 E0.63599
G1 F300 Z0.4
G0 F6000 X161.559 Y147.471 Z0.4
G1 F300 Z0.2
G1 F1500 E3.63599
G1 F1097.7 X161.796 Y147.833 E3.6533
G1 X161.988 Y148.231 E3.67097
G1 X162.415 Y147.471 E3.70584
G1 X161.559 Y147.471 E3.74007
G0 F6000 X160.509 Y147.011
G1 F1200 X160.748 Y147.219 E3.75166
G1 X161.126 Y147.65 E3.77264
G1 X161.398 Y148.064 E3.79076
G1 X161.662 Y148.63 E3.81361
G1 F1116.3 X161.883 Y149.367 E3.84387
G1 F1000 X161.995 Y149.636 E3.85667
G1 F1068.8 X162.18 Y149.198 E3.8762
G1 F1200 X162.271 Y148.826 E3.89021
G1 X162.48 Y148.296 E3.91105
G1 X162.765 Y147.802 E3.93192
G1 X163.127 Y147.348 E3.95316
G1 X163.481 Y147.01 E3.97107
G1 X160.509 Y147.011 E4.0798
G1 F1500 E1.0798
G1 F300 Z0.4
G0 F6000 X162.003 Y149.655 Z0.4
G1 F300 Z0.2
G1 F1500 E4.0798
G1 F819.9 X161.995 Y150 E4.09828
G1 F825 X162.005 Y150.308 E4.11468
G0 F6000 X161.99 Y151.767
G1 F1095.4 X161.797 Y152.167 E4.13248
G1 X161.56 Y152.528 E4.14979
G1 X162.414 Y152.528 E4.18401
G1 X161.99 Y151.767 E4.21893
G0 F6000 X161.998 Y150.326
G1 F1023.3 X161.874 Y150.63 E4.23302
G1 F1140.4 X161.801 Y150.911 E4.24419
G1 F1200 X161.629 Y151.454 E4.26503
G1 X161.378 Y151.968 E4.28596
G1 X161.067 Y152.426 E4.30621
G1 X160.748 Y152.781 E4.32368
G1 X160.509 Y152.989 E4.33527
G1 X163.481 Y152.99 E4.444
G1 X163.127 Y152.652 E4.46191
G1 X162.734 Y152.156 E4.48506
G1 X162.439 Y151.613 E4.50767
G1 X162.269 Y151.17 E4.52503
G1 X162.181 Y150.803 E4.53884
G1 F1073.2 X161.998 Y150.326 E4.55974
G1 F1500 E1.55974
G1 F300 Z0.4
G0 F6000 X170.005 Y150.308 Z0.4
G1 F300 Z0.2
G1 F1500 E4.55974
G1 F825 X169.995 Y150 E4.57614
G1 F819.9 X170.003 Y149.655 E4.59462
G1 F1500 E1.59462
G1 F300 Z0.4
G0 F6000 X169.99 Y151.767 Z0.4
G1 F300 Z0.2
G1 F1500 E4.59462
G1 F1095.4 X169.797 Y152.167 E4.61242
G1 X169.56 Y152.528 E4.62972
G1 X170.414 Y152.528 E4.66395
G1 X169.99 Y151.767 E4.69887
G0 F6000 X169.998 Y150.326
G1 F1023.3 X169.874 Y150.63 E4.71295
G1 F1140.4 X169.801 Y150.911 E4.72413
G1 F1200 X169.629 Y151.454 E4.74497
G1 X169.378 Y151.968 E4.7659
G1 X169.067 Y152.426 E4.78615
G1 X168.748 Y152.781 E4.80361
G1 X168.509 Y152.989 E4.8152
G1 X171.481 Y152.99 E4.92394
G1 X171.127 Y152.652 E4.94185
G1 X170.767 Y152.198 E4.96304
G1 X170.48 Y151.7 E4.98407
G1 X170.269 Y151.17 E5.00494
G1 X170.181 Y150.803 E5.01875
G1 F1073.2 X169.998 Y150.326 E5.03965
G1 F1500 E2.03965
G1 F300 Z0.4
G0 F6000 X169.559 Y147.471 Z0.4
G1 F300 Z0.2
G1 F1500 E5.03965
G1 F1097.7 X169.796 Y147.833 E5.05696
G1 X169.988 Y148.231 E5.07463
G1 X170.415 Y147.471 E5.1095
G1 X169.559 Y147.471 E5.14373
G0 F6000 X168.509 Y147.011
G1 F1200 X168.748 Y147.219 E5.15532
G1 X169.126 Y147.65 E5.1763
G1 X169.398 Y148.064 E5.19442
G1 X169.662 Y148.63 E5.21727
G1 F1116.3 X169.883 Y149.367 E5.24753
G1 F1000 X169.995 Y149.636 E5.26033
G1 F1068.8 X170.18 Y149.198 E5.27986
G1 F1200 X170.271 Y148.826 E5.29387
G1 X170.48 Y148.296 E5.31471
G1 X170.736 Y147.838 E5.33391
G1 X171.127 Y147.348 E5.35684
G1 X171.478 Y147.012 E5.37462
G1 X168.509 Y147.011 E5.48324
G1 F1500 E2.48324
G1 F300 Z0.4
G0 F6000 X166.647 Y146.581 Z0.4
;TYPE:WALL-OUTER
G1 F300 Z0.2
G1 F1500 E5.48324
G1 F1227.9 X166.115 Y146.551 E5.5023
G1 F1284.7 X165.605 Y146.562 E5.51973
G0 F6000 X166.647 Y146.581
G1 F1175.9 X167.105 Y146.709 E5.53748
G1 F1200 X167.577 Y146.908 E5.55622
G1 X168.032 Y147.186 E5.57573
G1 X168.42 Y147.513 E5.5943
G1 X168.759 Y147.894 E5.61295
G1 X169.018 Y148.285 E5.63011
G1 X169.24 Y148.759 E5.64926
G1 X169.387 Y149.249 E5.66798
G1 X169.462 Y149.768 E5.68717
G1 X169.461 Y150.254 E5.70495
G1 X169.38 Y150.783 E5.72453
G1 X169.231 Y151.266 E5.74302
G1 X169.018 Y151.714 E5.76117
G1 X168.739 Y152.132 E5.77955
G1 X168.42 Y152.487 E5.79702
G1 X168.005 Y152.833 E5.81678
G1 X167.577 Y153.092 E5.83509
G1 X167.135 Y153.281 E5.85267
G1 F1173.3 X166.647 Y153.42 E5.87166
G1 X167.165 Y153.429 E5.89105
G1 F1205.5 X173.22 Y153.431 E6.11157
G1 F1230.8 X173.605 Y153.439 E6.1253
G1 F1227.9 X173.203 Y153.372 E6.13988
G1 F1202.7 X172.942 Y153.297 E6.14979
G1 F1200 X172.663 Y153.202 E6.16057
G1 X172.175 Y152.951 E6.18065
G1 X171.768 Y152.658 E6.199
G1 X171.433 Y152.335 E6.21602
G1 X171.097 Y151.901 E6.2361
G1 X170.85 Y151.456 E6.25472
G1 X170.672 Y150.983 E6.27321
G1 F1202.7 X170.565 Y150.488 E6.2917
G1 X170.53 Y150.016 E6.30898
G1 X170.57 Y149.479 E6.32863
G1 X170.683 Y148.982 E6.34724
G1 F1200 X170.864 Y148.511 E6.3657
G1 X171.113 Y148.072 E6.38416
G1 X171.412 Y147.688 E6.40197
G1 X171.793 Y147.321 E6.42132
G1 X172.175 Y147.049 E6.43848
G1 X172.663 Y146.798 E6.45856
G1 X172.952 Y146.7 E6.46972
G1 F1202.7 X173.203 Y146.628 E6.47925
G1 F1230.8 X173.605 Y146.562 E6.49379
G1 X173.195 Y146.57 E6.50841
G1 F1202.7 X167.122 Y146.572 E6.7301
G1 F1175.9 X166.647 Y146.581 E6.74783
G1 F1500 E3.74783
G1 F300 Z0.4
G0 F6000 X166.647 Y153.42 Z0.4
G1 F300 Z0.2
G1 F1500 E6.74783
G1 F1225.1 X166.115 Y153.449 E6.76693
G1 F1281.6 X165.605 Y153.439 E6.7844
G1 F1500 E3.7844
G1 F300 Z0.4
G0 F6000 X158.647 Y153.42 Z0.4
G1 F300 Z0.2
G1 F1500 E6.7844
G1 F1225.1 X158.115 Y153.449 E6.8035
G1 F1281.6 X157.605 Y153.439 E6.82097
G1 F1500 E3.82097
G1 F300 Z0.4
G0 F6000 X155.028 Y148.006 Z0.4
G1 F300 Z0.2
G1 F1500 E6.82097
G1 F844.8 X155.38 Y147.61 E6.84851
G1 F880 X155.745 Y147.254 E6.87394
G1 F843.5 X155.934 Y147.095 E6.8868
G0 F6000 X156.147 Y146.689
G1 F1037.3 X155.934 Y147.095 E6.9062
G1 X156.364 Y146.987 E6.92497
G1 F1378.6 X156.644 Y146.831 E6.93518
G1 F1340.1 X156.958 Y146.722 E6.94607
G1 X157.209 Y146.649 E6.95463
G1 F1294.1 X157.605 Y146.561 E6.96839
G1 X157.195 Y146.547 E6.98231
G1 F1340.1 X156.303 Y146.547 E7.01153
G1 F1378.6 X156.147 Y146.689 E7.01825
G0 F6000 X157.605 Y146.561
G1 F1281.6 X158.115 Y146.551 E7.03573
G1 F1233.6 X158.614 Y146.577 E7.05351
G1 F1181.2 X159.135 Y146.719 E7.07358
G1 F1200 X159.577 Y146.908 E7.09117
G1 X160.032 Y147.186 E7.11067
G1 X160.42 Y147.513 E7.12924
G1 X160.759 Y147.894 E7.1479
G1 X161.018 Y148.285 E7.16506
G1 X161.24 Y148.759 E7.18421
G1 X161.387 Y149.249 E7.20292
G1 X161.462 Y149.768 E7.22211
G1 X161.461 Y150.254 E7.23989
G1 X161.38 Y150.783 E7.25947
G1 X161.231 Y151.266 E7.27796
G1 X161.018 Y151.714 E7.29611
G1 X160.739 Y152.132 E7.3145
G1 X160.42 Y152.487 E7.33196
G1 X160.005 Y152.833 E7.35173
G1 X159.577 Y153.092 E7.37003
G1 X159.104 Y153.291 E7.3888
G1 F1173.3 X158.647 Y153.42 E7.40657
G1 X159.165 Y153.428 E7.42596
G1 F1205.5 X165.22 Y153.431 E7.64648
G1 F1230.8 X165.605 Y153.439 E7.66021
G1 F1227.9 X165.203 Y153.372 E7.67479
G1 F1202.7 X164.942 Y153.297 E7.6847
G1 F1200 X164.663 Y153.202 E7.69548
G1 X164.175 Y152.951 E7.71556
G1 X163.768 Y152.658 E7.73391
G1 X163.433 Y152.335 E7.75093
G1 X163.096 Y151.901 E7.77104
G1 X162.85 Y151.456 E7.78964
G1 X162.672 Y150.983 E7.80813
G1 F1202.7 X162.565 Y150.488 E7.82662
G1 X162.53 Y150.016 E7.84389
G1 X162.57 Y149.479 E7.86355
G1 X162.683 Y148.982 E7.88215
G1 F1200 X162.864 Y148.511 E7.90061
G1 X163.113 Y148.072 E7.91908
G1 X163.412 Y147.688 E7.93688
G1 X163.793 Y147.321 E7.95624
G1 X164.175 Y147.049 E7.9734
G1 X164.663 Y146.798 E7.99347
G1 X164.952 Y146.7 E8.00464
G1 F1202.7 X165.203 Y146.628 E8.01417
G1 F1230.8 X165.605 Y146.562 E8.0287
G1 X165.195 Y146.57 E8.04333
G1 F1183.9 X158.614 Y146.577 E8.28739
G1 F1500 E5.28739
G1 F300 Z0.4
G0 F6000 X144.834 Y147.844 Z0.4
G1 F300 Z0.2
G1 F1500 E8.28739
G1 F871.3 X144.465 Y147.451 E8.31455
G1 F857.1 X144.057 Y147.081 E8.34276
G0 F6000 X144.834 Y147.844
G1 F996.2 X145.011 Y148.274 E8.36325
G1 F1200 X145.229 Y148.73 E8.38175
G1 X145.387 Y149.249 E8.4016
G1 X145.459 Y149.735 E8.41957
G1 X145.459 Y150.265 E8.43896
G1 X145.387 Y150.754 E8.45704
G1 X145.242 Y151.236 E8.47546
G1 X145.011 Y151.725 E8.49525
G1 X144.739 Y152.132 E8.51316
G1 X144.42 Y152.487 E8.53062
G1 X144.005 Y152.833 E8.55039
G1 X143.577 Y153.092 E8.56869
G1 X143.105 Y153.291 E8.58743
G1 F1175.9 X142.647 Y153.419 E8.60518
G1 X143.165 Y153.428 E8.62453
G1 F1205.5 X157.22 Y153.431 E9.13641
G1 F1230.8 X157.605 Y153.439 E9.15014
G1 F1227.9 X157.203 Y153.372 E9.16471
G1 F1202.7 X156.942 Y153.297 E9.17463
G1 F1200 X156.663 Y153.202 E9.18541
G1 X156.175 Y152.951 E9.20549
G1 X155.768 Y152.658 E9.22384
G1 X155.433 Y152.335 E9.24086
G1 X155.096 Y151.901 E9.26096
G1 X154.863 Y151.485 E9.27841
G1 X154.674 Y150.992 E9.29773
G1 X154.564 Y150.488 E9.3166
G1 X154.53 Y149.984 E9.33508
G1 X154.569 Y149.479 E9.35361
G1 X154.683 Y148.982 E9.37227
G1 X154.864 Y148.511 E9.39073
G1 F963.5 X155.028 Y148.006 E9.41492
G1 X154.584 Y148.298 E9.43914
G1 F1200 X153.361 Y149.519 E9.50236
G1 X153.276 Y149.563 E9.50586
G1 X146.688 Y149.57 E9.74689
G1 X145.22 Y148.103 E9.82282
G1 F996.2 X144.834 Y147.844 E9.84331
G1 F1500 E6.84331
G1 F300 Z0.4
G0 F6000 X142.614 Y146.577 Z0.4
G1 F300 Z0.2
G1 F1500 E9.84331
G1 F1233.6 X142.115 Y146.551 E9.86109
G1 F1281.6 X141.605 Y146.561 E9.87857
G0 F6000 X142.614 Y146.577
G1 F1251.2 X143.125 Y146.743 E9.89742
G1 F1350.4 X143.592 Y146.944 E9.91395
G1 F1025.2 X144.057 Y147.081 E9.93471
G1 X143.814 Y146.662 E9.95545
G1 F1350.4 X143.698 Y146.545 E9.96081
G1 X143.122 Y146.545 E9.97953
G1 F1251.2 X142.614 Y146.577 E9.99739
G1 F1500 E6.99739
G1 F300 Z0.4
G0 F6000 X142.647 Y153.419 Z0.4
G1 F300 Z0.2
G1 F1500 E9.99739
G1 F1227.9 X142.115 Y153.449 E10.01645
G1 F1284.7 X141.605 Y153.438 E10.03388
G1 F1500 E7.03388
G1 F300 Z0.4
G0 F6000 X134.647 Y153.419 Z0.4
G1 F300 Z0.2
G1 F1500 E10.03388
G1 F1227.9 X134.115 Y153.449 E10.05293
G1 F1284.7 X133.605 Y153.438 E10.07036
G1 F1500 E7.07036
G1 F300 Z0.4
G0 F6000 X133.605 Y146.561 Z0.4
G1 F300 Z0.2
G1 F1500 E10.07036
G1 F1281.6 X134.115 Y146.551 E10.08784
G1 F1233.6 X134.614 Y146.577 E10.10562
G1 F1181.2 X135.135 Y146.719 E10.12569
G1 F1200 X135.577 Y146.908 E10.14328
G1 X136.032 Y147.186 E10.16279
G1 X136.42 Y147.513 E10.18135
G1 X136.759 Y147.894 E10.20001
G1 X137.018 Y148.285 E10.21717
G1 X137.24 Y148.759 E10.23632
G1 X137.387 Y149.249 E10.25504
G1 X137.462 Y149.768 E10.27422
G1 X137.461 Y150.254 E10.292
G1 X137.38 Y150.783 E10.31158
G1 X137.231 Y151.266 E10.33007
G1 X137.018 Y151.714 E10.34822
G1 X136.739 Y152.132 E10.36661
G1 X136.42 Y152.487 E10.38407
G1 X136.032 Y152.815 E10.40266
G1 X135.577 Y153.092 E10.42215
G1 X135.105 Y153.291 E10.44089
G1 F1175.9 X134.647 Y153.419 E10.45864
G1 X135.165 Y153.428 E10.47799
G1 F1205.5 X141.22 Y153.431 E10.69851
G1 F1233.6 X141.605 Y153.438 E10.71221
G1 F1230.8 X141.203 Y153.372 E10.72674
G1 F1202.7 X140.942 Y153.297 E10.73666
G1 F1200 X140.663 Y153.202 E10.74744
G1 X140.175 Y152.951 E10.76752
G1 X139.768 Y152.658 E10.78586
G1 X139.433 Y152.335 E10.80289
G1 X139.096 Y151.901 E10.82299
G1 X138.85 Y151.456 E10.8416
G1 X138.672 Y150.983 E10.86009
G1 F1202.7 X138.565 Y150.488 E10.87857
G1 X138.53 Y150.016 E10.89585
G1 X138.57 Y149.479 E10.91551
G1 X138.683 Y148.982 E10.93411
G1 F1200 X138.864 Y148.511 E10.95257
G1 X139.113 Y148.072 E10.97104
G1 X139.412 Y147.688 E10.98884
G1 X139.793 Y147.321 E11.0082
G1 X140.175 Y147.049 E11.02535
G1 X140.663 Y146.798 E11.04543
G1 X140.952 Y146.7 E11.0566
G1 F1202.7 X141.203 Y146.628 E11.06613
G1 F1227.9 X141.605 Y146.561 E11.0807
G1 X141.195 Y146.569 E11.09536
G1 F1202.7 X135.122 Y146.57 E11.31704
G1 F1181.2 X134.614 Y146.577 E11.33593
G1 F1500 E8.33593
