;FLAVOR:Marlin
;TIME:1274
;Filament used: 0.959363m
;Layer height: 0.16
;MINX:138.219
;MINY:121.964
;MINZ:0.2
;MAXX:161.728
;MAXY:177.952
;MAXZ:7.8
;Generated with Cura_SteamEngine 5.4.0
M140 S65
M105
M190 S65
M104 S210
M105
M109 S210
M82 ;absolute extrusion mode
G28 ; home all axes
M420 S1 Z10
 M117 Purge extruder
 G92 E0 ; reset extruder
 G1 Z1.0 F3000 ; move z up little to prevent scratching of surface
 G1 X2 Y20 Z0.3 F5000.0 ; move to start-line position
 G1 X2 Y200.0 Z0.3 F1500.0 E15 ; draw 1st line
 G1 X2 Y200.0 Z0.4 F5000.0 ; move to side a little
 G1 X2 Y20 Z0.4 F1500.0 E30 ; draw 2nd line
 G92 E0 ; reset extruder
 G1 Z1.0 F3000 ; move z up little to prevent scratching of surface
G92 E0
G92 E0
G1 F1500 E-3
;LAYER_COUNT:38
;LAYER:0
M107
G1 F300 Z0.4
;MESH:1. Stepper motor holder (L) [V3].stl
G0 F6000 X145.226 Y122.916 Z0.4
;TYPE:WALL-INNER
G1 F300 Z0.2
G1 F1500 E0
G1 F1095.4 X145.426 Y123.196 E0.01379
G1 X145.671 Y123.696 E0.03611
G1 X145.795 Y123.423 E0.04812
G1 X146.098 Y122.916 E0.0718
G1 X145.226 Y122.916 E0.10674
G0 F6000 X144.209 Y122.455
G1 F1200 X144.654 Y122.918 E0.13024
G1 X145.026 Y123.431 E0.15342
G1 X145.298 Y123.981 E0.17587
G1 F1123.4 X145.544 Y124.778 E0.20847
G1 F1005.7 X145.663 Y125.06 E0.22183
G1 F1066.7 X145.855 Y124.616 E0.24174
G1 F1200 X145.958 Y124.218 E0.25678
G1 X146.192 Y123.659 E0.27895
G1 X146.471 Y123.19 E0.29892
G1 X146.817 Y122.77 E0.31883
G1 X147.16 Y122.455 E0.33587
G1 X144.209 Y122.455 E0.44383
G1 F1500 E-2.55617
G1 F300 Z0.4
G0 F6000 X145.672 Y125.081 Z0.4
G1 F300 Z0.2
G1 F1500 E0.44383
G1 F818.6 X145.664 Y125.444 E0.4633
G1 F825 X145.675 Y125.76 E0.48013
G0 F6000 X145.672 Y127.193
G1 F1093.2 X145.421 Y127.699 E0.50282
G1 X145.226 Y127.971 E0.51626
G1 X146.106 Y127.971 E0.5516
G1 X145.795 Y127.465 E0.57545
G1 X145.672 Y127.193 E0.58744
G0 F6000 X145.667 Y125.779
G1 F1035.3 X145.531 Y126.107 E0.6025
G1 F1155.4 X145.464 Y126.383 E0.61329
G1 F1200 X145.278 Y126.95 E0.63512
G1 X145.026 Y127.458 E0.65587
G1 X144.654 Y127.97 E0.67902
G1 X144.21 Y128.432 E0.70247
G1 X147.161 Y128.433 E0.81043
G1 X146.851 Y128.159 E0.82557
G1 X146.469 Y127.695 E0.84756
G1 X146.163 Y127.18 E0.86948
G1 X145.927 Y126.573 E0.8933
G1 X145.857 Y126.272 E0.90461
G1 F1071 X145.667 Y125.779 E0.92627
G1 F1500 E-2.07373
G1 F300 Z0.4
G0 F6000 X153.675 Y125.76 Z0.4
G1 F300 Z0.2
G1 F1500 E0.92627
G1 F825 X153.664 Y125.444 E0.94309
G1 F818.6 X153.672 Y125.081 E0.96257
G1 F1500 E-2.03743
G1 F300 Z0.4
G0 F6000 X153.672 Y127.193 Z0.4
G1 F300 Z0.2
G1 F1500 E0.96257
G1 F1093.2 X153.421 Y127.698 E0.98522
G1 X153.226 Y127.972 E0.99872
G1 X154.098 Y127.973 E1.03374
G1 X153.795 Y127.465 E1.0575
G1 X153.672 Y127.193 E1.06949
G0 F6000 X153.667 Y125.779
G1 F1035.3 X153.531 Y126.107 E1.08455
G1 F1155.4 X153.464 Y126.383 E1.09534
G1 F1200 X153.278 Y126.95 E1.11717
G1 X153.026 Y127.458 E1.13792
G1 X152.654 Y127.97 E1.16107
G1 X152.209 Y128.433 E1.18457
G1 X155.161 Y128.433 E1.29257
G1 X154.851 Y128.159 E1.30771
G1 X154.471 Y127.698 E1.32956
G1 X154.163 Y127.18 E1.35161
G1 X153.927 Y126.573 E1.37544
G1 X153.857 Y126.272 E1.38675
G1 F1071 X153.667 Y125.779 E1.4084
G1 F1500 E-1.5916
G1 F300 Z0.4
G0 F6000 X153.226 Y122.917 Z0.4
G1 F300 Z0.2
G1 F1500 E1.4084
G1 F1095.4 X153.425 Y123.195 E1.42211
G1 X153.671 Y123.696 E1.44448
G1 X153.795 Y123.423 E1.45649
G1 X154.098 Y122.917 E1.48013
G1 X153.226 Y122.917 E1.51508
G0 F6000 X152.209 Y122.455
G1 F1200 X152.654 Y122.918 E1.53857
G1 X153.026 Y123.431 E1.56176
G1 X153.298 Y123.981 E1.58421
G1 F1123.4 X153.544 Y124.778 E1.6168
G1 F1005.7 X153.663 Y125.06 E1.63017
G1 F1066.7 X153.855 Y124.616 E1.65008
G1 F1200 X153.958 Y124.218 E1.66512
G1 X154.192 Y123.659 E1.68729
G1 X154.469 Y123.194 E1.70709
G1 X154.817 Y122.77 E1.72716
G1 X155.16 Y122.455 E1.7442
G1 X152.209 Y122.455 E1.85216
G1 F1500 E-1.14784
G1 F300 Z0.4
G0 F6000 X156.42 Y129.603 Z0.4
G1 F300 Z0.2
G1 F1500 E1.85216
G1 F1200 X156.419 Y171.393 E3.3811
G1 X156.559 Y171.112 E3.39258
G1 X157.219 Y170.893 E3.41803
G1 X159.419 Y170.893 E3.49851
G1 X160.08 Y171.112 E3.52399
G1 X160.219 Y171.391 E3.5354
G1 X160.219 Y128.96 E5.08778
G1 X159.967 Y129.135 E5.09901
G1 X159.453 Y129.416 E5.12044
G1 X158.821 Y129.643 E5.14501
G1 X158.149 Y129.769 E5.17002
G1 X157.501 Y129.794 E5.19375
G1 X156.833 Y129.716 E5.21835
G1 X156.42 Y129.603 E5.23402
G0 F6000 X155.949 Y128.948
G1 F1200 X155.981 Y129.094 E5.23949
G1 X155.979 Y171.042 E6.7742
G1 F1111.6 X156.014 Y171.992 E6.81175
G1 F1035.3 X156.014 Y172.48 E6.83244
G1 X155.932 Y172.748 E6.84433
G1 X156.523 Y172.748 E6.86939
G1 X156.524 Y171.992 E6.90145
G1 F1111.6 X156.823 Y171.464 E6.92542
G1 F1200 X157.219 Y171.333 E6.94068
G1 X159.419 Y171.333 E7.02117
G1 X159.816 Y171.464 E7.03646
G1 F1111.6 X160.114 Y171.993 E7.06044
G1 F1035.3 X160.115 Y172.748 E7.09246
G1 X160.706 Y172.748 E7.11752
G1 X160.624 Y172.48 E7.12941
G1 X160.624 Y171.993 E7.15006
G1 F1111.6 X160.659 Y171.043 E7.18761
G1 F1200 X160.655 Y127.972 E8.76341
G1 X160.307 Y128.33 E8.78167
G1 X159.842 Y128.695 E8.8033
G1 X159.273 Y129.013 E8.82715
G1 X158.702 Y129.218 E8.84935
G1 X158.11 Y129.331 E8.8714
G1 X157.516 Y129.353 E8.89314
G1 X156.922 Y129.283 E8.91503
G1 X156.35 Y129.128 E8.93671
G1 X155.949 Y128.948 E8.95279
G1 F1500 E5.95279
G1 F300 Z0.4
G0 F6000 X155.891 Y176.299 Z0.4
G1 F300 Z0.2
G1 F1500 E8.95279
G1 F1230.8 X156.03 Y176.49 E8.96122
G1 X156.332 Y176.799 E8.97663
G1 X156.565 Y176.978 E8.98711
G1 X156.565 Y176.299 E9.01133
G1 X155.891 Y176.299 E9.03537
G1 F1500 E6.03537
G1 F300 Z0.4
G0 F6000 X160.074 Y176.299 Z0.4
G1 F300 Z0.2
G1 F1500 E9.03537
G1 F1233.6 X160.075 Y176.976 E9.05947
G1 X160.316 Y176.789 E9.07032
G1 X160.614 Y176.484 E9.0855
G1 X160.749 Y176.299 E9.09365
G1 X160.074 Y176.299 E9.11767
G1 F1500 E6.11767
G1 F300 Z0.4
G0 F6000 X157.087 Y171.816 Z0.4
;TYPE:WALL-OUTER
G1 F300 Z0.2
G1 F1500 E9.11767
G1 F1200 X157.219 Y171.773 E9.12275
G1 X159.419 Y171.773 E9.20324
G1 X159.552 Y171.816 E9.20835
G1 X159.639 Y171.993 E9.21557
G1 X159.639 Y173.223 E9.26057
G1 X160.869 Y173.224 E9.30557
G1 F1205.5 X161.02 Y173.285 E9.3115
G1 F1186.5 X161.097 Y173.444 E9.31804
G1 F1071 X161.135 Y174.017 E9.34158
G1 F972.4 X161.147 Y174.46 E9.36159
G1 F963.5 X161.141 Y174.917 E9.38241
G1 F1011.5 X161.12 Y175.364 E9.40184
G1 F1106.9 X161.096 Y175.644 E9.41298
G1 F1181.2 X161.047 Y175.78 E9.41836
G1 F1197.3 X160.909 Y175.861 E9.42422
G1 F1200 X159.64 Y175.864 E9.47065
G1 X159.639 Y177.104 E9.51602
G1 F1197.3 X159.546 Y177.275 E9.52316
G1 F1178.6 X159.419 Y177.321 E9.52819
G1 F1064.5 X158.778 Y177.363 E9.55468
G1 F967 X158.319 Y177.371 E9.57552
G1 X157.86 Y177.363 E9.59636
G1 F1066.7 X157.219 Y177.321 E9.6228
G1 F1175.9 X157.092 Y177.277 E9.62782
G1 F1194.6 X156.999 Y177.103 E9.63507
G1 F1200 X156.999 Y175.865 E9.68037
G1 X155.726 Y175.86 E9.72694
G1 F1191.9 X155.591 Y175.78 E9.73272
G1 F1175.9 X155.543 Y175.644 E9.73811
G1 F1106.9 X155.519 Y175.363 E9.74929
G1 F1011.5 X155.497 Y174.916 E9.76872
G1 F961.7 X155.492 Y174.46 E9.78953
G1 F970.6 X155.503 Y174.016 E9.80962
G1 F1071 X155.542 Y173.444 E9.83313
G1 F1183.9 X155.618 Y173.284 E9.8397
G1 F1202.7 X155.769 Y173.224 E9.84563
G1 F1200 X156.998 Y173.223 E9.89059
G1 X156.999 Y171.992 E9.93563
G1 X157.087 Y171.816 E9.94283
G1 F1500 E6.94283
G1 F300 Z0.4
G0 F6000 X150.086 Y128.883 Z0.4
G1 F300 Z0.2
G1 F1500 E9.94283
G1 F1272.3 X149.519 Y128.892 E9.9624
G1 F1222.2 X149.021 Y128.862 E9.98032
G1 F1500 E6.98032
G1 F300 Z0.4
G0 F6000 X149.021 Y122.025 Z0.4
G1 F300 Z0.2
G1 F1500 E9.98032
G1 F1225.1 X149.55 Y121.995 E9.99931
G1 F1281.6 X150.08 Y122.007 E10.01747
G1 F1225.1 X150.606 Y122.102 E10.03662
G1 F1200 X151.104 Y122.284 E10.05602
G1 X151.575 Y122.543 E10.07569
G1 X151.965 Y122.84 E10.09362
G1 X152.357 Y123.248 E10.11432
G1 X152.657 Y123.676 E10.13345
G1 X152.882 Y124.131 E10.15202
G1 X153.051 Y124.669 E10.17265
G1 X153.128 Y125.165 E10.19101
G1 X153.13 Y125.71 E10.21095
G1 X153.044 Y126.251 E10.23099
G1 X152.883 Y126.755 E10.25035
G1 X152.639 Y127.242 E10.27028
G1 X152.336 Y127.665 E10.28932
G1 X151.965 Y128.048 E10.30882
G1 X151.547 Y128.363 E10.32797
G1 X151.075 Y128.617 E10.34758
G1 X150.569 Y128.796 E10.36722
G1 X150.174 Y128.873 E10.38194
G1 X154.795 Y128.873 E10.55101
G1 F1068.8 X155.469 Y128.862 E10.5787
G1 F1015.4 X155.543 Y128.993 E10.5852
G1 F1079.8 X155.543 Y132.619 E10.73264
G1 F1088.7 X155.543 Y136.245 E10.87887
G1 F1100 X155.542 Y139.871 E11.02359
G1 F1109.2 X155.542 Y143.497 E11.1671
G1 F1118.6 X155.542 Y147.123 E11.30941
G1 F1130.6 X155.541 Y150.749 E11.45022
G1 F1140.4 X155.541 Y154.375 E11.58981
G1 F1152.8 X155.541 Y158.001 E11.7279
G1 F1163 X155.54 Y161.627 E11.86478
G1 F1173.3 X155.54 Y165.253 E12.00046
G1 F1186.5 X155.54 Y168.879 E12.13463
G1 F1197.3 X155.539 Y172.505 E12.26759
G1 F1205.5 X155.241 Y173.006 E12.28882
G1 F1181.2 X155.081 Y173.396 E12.30449
G1 F1066.7 X154.973 Y173.971 E12.32857
G1 F970.6 X154.935 Y174.453 E12.35044
G1 F961.7 X154.955 Y174.949 E12.3731
G1 F1011.5 X155.022 Y175.41 E12.39332
G1 F1121 X155.157 Y175.904 E12.41338
G1 F1197.3 X155.389 Y176.347 E12.43171
G1 F1200 X155.691 Y176.765 E12.45058
G1 X156.035 Y177.118 E12.46861
G1 X156.432 Y177.422 E12.48691
G1 F1165.6 X156.946 Y177.704 E12.50899
G1 F1109.2 X157.354 Y177.821 E12.52579
G1 F1031.2 X157.821 Y177.899 E12.54595
G1 F967 X158.319 Y177.927 E12.56859
G1 X158.817 Y177.899 E12.59124
G1 F1053.9 X159.378 Y177.804 E12.61494
G1 F1165.6 X159.77 Y177.665 E12.63061
G1 F1197.3 X160.203 Y177.424 E12.64878
G1 F1200 X160.606 Y177.115 E12.66736
G1 X160.947 Y176.764 E12.68526
G1 X161.246 Y176.353 E12.70386
G1 F1160.4 X161.496 Y175.874 E12.7243
G1 F1086.4 X161.617 Y175.412 E12.7436
G1 F1011.5 X161.684 Y174.949 E12.7639
G1 F963.5 X161.703 Y174.453 E12.78652
G1 F972.4 X161.665 Y173.971 E12.80835
G1 F1066.7 X161.56 Y173.402 E12.83217
G1 F1181.2 X161.398 Y173.006 E12.84807
G1 F1208.2 X161.099 Y172.502 E12.86936
G1 F1202.7 X161.099 Y126.754 E14.5393
G1 F1137.9 X161.075 Y126.227 E14.55966
G1 X160.883 Y126.755 E14.58133
G1 F1200 X160.639 Y127.242 E14.60126
G1 X160.336 Y127.665 E14.6203
G1 X159.965 Y128.047 E14.63978
G1 X159.547 Y128.363 E14.65895
G1 X159.075 Y128.617 E14.67856
G1 X158.601 Y128.787 E14.69699
G1 X158.07 Y128.893 E14.7168
G1 X157.517 Y128.91 E14.73704
G1 X156.989 Y128.846 E14.7565
G1 X156.481 Y128.704 E14.77579
G1 X156.281 Y128.615 E14.7838
G1 F1150.3 X155.853 Y128.473 E14.80101
G1 F1097.7 X155.57 Y128.233 E14.81586
G1 F1118.6 X155.548 Y128.202 E14.81735
G1 F1173.3 X155.157 Y127.838 E14.83734
G1 F1200 X154.822 Y127.428 E14.85671
G1 X154.555 Y126.974 E14.87598
G1 X154.355 Y126.472 E14.89575
G1 F1202.7 X154.238 Y125.959 E14.91495
G1 X154.198 Y125.426 E14.93446
G1 F1200 X154.242 Y124.895 E14.95396
G1 X154.355 Y124.415 E14.972
G1 X154.57 Y123.884 E14.99296
G1 X154.822 Y123.46 E15.011
G1 X155.18 Y123.026 E15.03159
G1 X155.553 Y122.693 E15.04988
G1 X156.03 Y122.385 E15.07066
G1 X156.47 Y122.186 E15.08832
G1 F1165.6 X156.986 Y122.029 E15.10864
G1 X156.482 Y122.015 E15.12763
G1 F1200 X150.58 Y122.016 E15.34356
G1 F1225.1 X150.08 Y122.007 E15.36148
G1 F1500 E12.36148
G1 F300 Z0.4
G0 F6000 X156.986 Y122.029 Z0.4
G1 F300 Z0.2
G1 F1500 E15.36148
G1 F1216.6 X157.519 Y121.996 E15.38076
G1 F1313.4 X158.111 Y122.022 E15.40056
G1 F1316.7 X158.637 Y122.135 E15.4185
G1 F1323.3 X159.101 Y122.306 E15.43491
G1 F1326.6 X159.536 Y122.544 E15.45132
G1 F1323.3 X159.925 Y122.835 E15.46743
G1 F1316.7 X160.277 Y123.188 E15.48406
G1 F1310.2 X160.598 Y123.618 E15.50204
G1 F1316.7 X160.84 Y124.082 E15.51949
G1 F1336.7 X161.007 Y124.566 E15.5363
G1 F1353.8 X161.103 Y125.088 E15.55351
G1 F1326.6 X161.115 Y125.689 E15.57341
G1 F1178.6 X161.075 Y126.227 E15.5935
G1 F1500 E12.5935
G1 F300 Z0.4
G0 F6000 X142.086 Y128.883 Z0.4
G1 F300 Z0.2
G1 F1500 E15.5935
G1 F1291 X141.55 Y128.887 E15.61173
G1 F1346.9 X141.08 Y128.844 E15.62712
G1 X140.591 Y128.724 E15.64353
G1 X140.107 Y128.521 E15.66064
G1 F1323.3 X139.804 Y128.339 E15.67236
G1 F1326.6 X139.505 Y128.132 E15.6844
G1 F1340.1 X139.125 Y127.776 E15.70146
G1 F1313.4 X138.81 Y127.374 E15.71853
G1 F1303.7 X138.556 Y126.931 E15.73573
G1 X138.358 Y126.407 E15.75459
G1 F1316.7 X138.259 Y125.957 E15.76995
G1 F1330 X138.219 Y125.444 E15.78694
G1 X138.259 Y124.93 E15.80396
G1 F1320 X138.358 Y124.481 E15.81925
G1 F1306.9 X138.554 Y123.962 E15.83789
G1 X138.81 Y123.512 E15.85528
G1 F1316.7 X139.129 Y123.109 E15.87242
G1 F1310.2 X139.492 Y122.764 E15.8892
G1 F1294.1 X139.804 Y122.548 E15.90207
G1 F1323.3 X140.114 Y122.363 E15.91405
G1 F1340.1 X140.581 Y122.168 E15.93063
G1 F1313.4 X141.094 Y122.042 E15.94828
G1 F1323.3 X141.549 Y122 E15.96344
G1 F1294.1 X142.08 Y122.006 E15.98146
G1 F1222.2 X142.606 Y122.102 E16.00067
G1 F1200 X143.104 Y122.284 E16.02007
G1 X143.575 Y122.543 E16.03973
G1 X143.965 Y122.84 E16.05767
G1 X144.357 Y123.248 E16.07837
G1 X144.657 Y123.676 E16.09749
G1 X144.882 Y124.131 E16.11606
G1 X145.051 Y124.669 E16.13669
G1 X145.128 Y125.165 E16.15506
G1 X145.13 Y125.71 E16.17499
G1 X145.044 Y126.251 E16.19504
G1 X144.883 Y126.755 E16.21439
G1 X144.639 Y127.242 E16.23432
G1 X144.336 Y127.665 E16.25336
G1 X143.965 Y128.048 E16.27287
G1 X143.547 Y128.363 E16.29202
G1 X143.075 Y128.617 E16.31163
G1 X142.569 Y128.796 E16.33126
G1 X142.174 Y128.873 E16.34599
G1 X148.493 Y128.873 E16.57718
G1 F1173.3 X149.021 Y128.862 E16.59694
G1 X148.481 Y128.704 E16.61799
G1 F1200 X147.996 Y128.483 E16.63749
G1 X147.554 Y128.195 E16.65679
G1 X147.157 Y127.838 E16.67632
G1 X146.822 Y127.428 E16.69569
G1 X146.555 Y126.974 E16.71496
G1 X146.355 Y126.472 E16.73473
G1 F1202.7 X146.238 Y125.959 E16.75394
G1 X146.198 Y125.426 E16.77345
G1 F1200 X146.242 Y124.895 E16.79295
G1 X146.355 Y124.415 E16.81099
G1 X146.57 Y123.884 E16.83195
G1 X146.842 Y123.432 E16.85125
G1 X147.18 Y123.026 E16.87057
G1 X147.553 Y122.693 E16.88887
G1 X148.03 Y122.385 E16.90964
G1 X148.503 Y122.174 E16.92859
G1 F1175.9 X149.008 Y122.025 E16.94825
G1 X148.434 Y122.015 E16.96968
G1 F1200 X142.58 Y122.015 E17.18386
G1 F1222.2 X142.08 Y122.006 E17.20182
G1 F1500 E14.20182
G1 F300 Z0.4
G0 F6000 X156.817 Y130.109 Z0.4
;TYPE:SKIN
G1 F300 Z0.2
G1 F1500 E17.20182
G1 F1200 X157.468 Y130.189 E17.22582
G1 X158.226 Y130.161 E17.25357
G1 X158.955 Y130.017 E17.28075
G1 X159.595 Y129.787 E17.30564
G1 X159.823 Y129.665 E17.3151
G1 X159.823 Y170.619 E18.81345
G1 X159.449 Y170.497 E18.82784
G1 X157.189 Y170.497 E18.91052
G1 X156.815 Y170.621 E18.92494
G1 X156.817 Y130.109 E20.40712
G1 F1500 E17.40712
G1 F300 Z0.4
G0 F6000 X159.352 Y130.106 Z0.4
G1 F300 Z0.2
G1 F1500 E20.40712
G1 F1200 X159.603 Y130.357 E20.4201
G0 F6000 X159.603 Y130.979
G1 F1200 X158.878 Y130.254 E20.45762
G0 F6000 X158.362 Y130.36
G1 F1200 X159.603 Y131.601 E20.52183
G0 F6000 X159.603 Y132.224
G1 F1200 X157.773 Y130.394 E20.61651
G0 F6000 X157.129 Y130.372
G1 F1200 X159.603 Y132.846 E20.74452
G0 F6000 X159.603 Y133.468
G1 F1200 X157.035 Y130.901 E20.87736
G0 F6000 X157.035 Y131.523
G1 F1200 X159.603 Y134.09 E21.01021
G0 F6000 X159.603 Y134.713
G1 F1200 X157.035 Y132.145 E21.14308
G0 F6000 X157.035 Y132.767
G1 F1200 X159.603 Y135.335 E21.27595
G0 F6000 X159.603 Y135.957
G1 F1200 X157.035 Y133.39 E21.40879
G0 F6000 X157.035 Y134.012
G1 F1200 X159.603 Y136.579 E21.54163
G0 F6000 X159.603 Y137.202
G1 F1200 X157.035 Y134.634 E21.6745
G0 F6000 X157.035 Y135.256
G1 F1200 X159.603 Y137.824 E21.80737
G0 F6000 X159.603 Y138.446
G1 F1200 X157.035 Y135.879 E21.94022
G0 F6000 X157.035 Y136.501
G1 F1200 X159.603 Y139.068 E22.07306
G0 F6000 X159.603 Y139.691
G1 F1200 X157.035 Y137.123 E22.20593
G0 F6000 X157.035 Y137.745
G1 F1200 X159.603 Y140.313 E22.3388
G0 F6000 X159.603 Y140.935
G1 F1200 X157.035 Y138.368 E22.47165
G0 F6000 X157.035 Y138.99
G1 F1200 X159.603 Y141.557 E22.60449
G0 F6000 X159.603 Y142.18
G1 F1200 X157.035 Y139.612 E22.73736
G0 F6000 X157.035 Y140.234
G1 F1200 X159.603 Y142.802 E22.87023
G0 F6000 X159.603 Y143.424
G1 F1200 X157.035 Y140.857 E23.00307
G0 F6000 X157.035 Y141.479
G1 F1200 X159.603 Y144.046 E23.13592
G0 F6000 X159.603 Y144.669
G1 F1200 X157.035 Y142.101 E23.26879
G0 F6000 X157.035 Y142.723
G1 F1200 X159.603 Y145.291 E23.40166
G0 F6000 X159.603 Y145.913
