;FLAVOR:Marlin
;TIME:1190
;Filament used: 0.909447m
;Layer height: 0.2
;MINX:138.222
;MINY:122.468
;MINZ:0.2
;MAXX:161.727
;MAXY:177.452
;MAXZ:7.8
;Generated with Cura_SteamEngine 5.4.0
M140 S65
M105
M190 S65
M104 S210
M105
M109 S210
M82 ;absolute extrusion mode
G28 ; home all axes
M420 S1 Z10
 M117 Purge extruder
 G92 E0 ; reset extruder
 G1 Z1.0 F3000 ; move z up little to prevent scratching of surface
 G1 X2 Y20 Z0.3 F5000.0 ; move to start-line position
 G1 X2 Y200.0 Z0.3 F1500.0 E15 ; draw 1st line
 G1 X2 Y200.0 Z0.4 F5000.0 ; move to side a little
 G1 X2 Y20 Z0.4 F1500.0 E30 ; draw 2nd line
 G92 E0 ; reset extruder
 G1 Z1.0 F3000 ; move z up little to prevent scratching of surface
G92 E0
G92 E0
G1 F1500 E-3
;LAYER_COUNT:38
;LAYER:0
M107
G1 F300 Z0.4
;MESH:1. Stepper motor holder (L) [V2].stl
G0 F6000 X145.226 Y123.42 Z0.4
;TYPE:WALL-INNER
G1 F300 Z0.2
G1 F1500 E0
G1 F1095.4 X145.433 Y123.715 E0.01444
G1 X145.673 Y124.198 E0.03606
G1 X145.796 Y123.927 E0.04799
G1 X146.099 Y123.419 E0.07169
G1 X145.226 Y123.42 E0.10668
G0 F6000 X144.213 Y122.959
G1 F1200 X144.653 Y123.419 E0.12997
G1 X145.031 Y123.944 E0.15364
G1 X145.304 Y124.491 E0.17601
G1 F1123.4 X145.545 Y125.283 E0.20836
G1 F1005.7 X145.665 Y125.564 E0.2217
G1 F1066.7 X145.857 Y125.12 E0.24161
G1 F1200 X145.958 Y124.723 E0.2566
G1 X146.166 Y124.208 E0.27692
G1 X146.472 Y123.694 E0.2988
G1 X146.851 Y123.233 E0.32064
G1 X147.161 Y122.959 E0.33577
G1 X144.213 Y122.959 E0.44363
G1 F1500 E-2.55637
G1 F300 Z0.4
G0 F6000 X145.674 Y125.585 Z0.4
G1 F300 Z0.2
G1 F1500 E0.44363
G1 F817.3 X145.666 Y125.944 E0.46292
G1 F822.4 X145.676 Y126.268 E0.48022
G0 F6000 X145.673 Y127.697
G1 F1093.2 X145.426 Y128.194 E0.50251
G1 X145.226 Y128.476 E0.5164
G1 X146.099 Y128.477 E0.55146
G1 X145.796 Y127.969 E0.57521
G1 X145.673 Y127.697 E0.5872
G0 F6000 X145.668 Y126.286
G1 F1033.3 X145.533 Y126.612 E0.60219
G1 F1152.8 X145.464 Y126.884 E0.61288
G1 F1200 X145.302 Y127.409 E0.63298
G1 X145.051 Y127.913 E0.65358
G1 X144.718 Y128.398 E0.67511
G1 X144.213 Y128.938 E0.70216
G1 X147.16 Y128.937 E0.80997
G1 X146.818 Y128.622 E0.82699
G1 X146.472 Y128.202 E0.84689
G1 X146.193 Y127.733 E0.86686
G1 X145.94 Y127.128 E0.89085
G1 X145.857 Y126.776 E0.90408
G1 F1071 X145.668 Y126.286 E0.92561
G1 F1500 E-2.07439
G1 F300 Z0.4
G0 F6000 X153.676 Y126.268 Z0.4
G1 F300 Z0.2
G1 F1500 E0.92561
G1 F822.4 X153.666 Y125.944 E0.94292
G1 F817.3 X153.674 Y125.585 E0.96221
G1 F1500 E-2.03779
G1 F300 Z0.4
G0 F6000 X153.673 Y127.697 Z0.4
G1 F300 Z0.2
G1 F1500 E0.96221
G1 F1093.2 X153.426 Y128.194 E0.98449
G1 X153.226 Y128.476 E0.99838
G1 X154.099 Y128.477 E1.03344
G1 X153.796 Y127.969 E1.0572
G1 X153.673 Y127.697 E1.06919
G0 F6000 X153.668 Y126.286
G1 F1033.3 X153.533 Y126.612 E1.08418
G1 F1152.8 X153.464 Y126.884 E1.09486
G1 F1200 X153.302 Y127.409 E1.11497
G1 X153.051 Y127.913 E1.13557
G1 X152.718 Y128.398 E1.15709
G1 X152.213 Y128.938 E1.18414
G1 X155.16 Y128.937 E1.29196
G1 X154.818 Y128.622 E1.30897
G1 X154.472 Y128.202 E1.32888
G1 X154.193 Y127.733 E1.34884
G1 X153.94 Y127.128 E1.37284
G1 X153.857 Y126.776 E1.38607
G1 F1071 X153.668 Y126.286 E1.4076
G1 F1500 E-1.5924
G1 F300 Z0.4
G0 F6000 X153.226 Y123.42 Z0.4
G1 F300 Z0.2
G1 F1500 E1.4076
G1 F1095.4 X153.433 Y123.715 E1.42204
G1 X153.673 Y124.198 E1.44366
G1 X153.796 Y123.927 E1.45558
G1 X154.099 Y123.419 E1.47929
G1 X153.226 Y123.42 E1.51428
G0 F6000 X152.213 Y122.959
G1 F1200 X152.653 Y123.419 E1.53757
G1 X153.031 Y123.944 E1.56124
G1 X153.304 Y124.491 E1.5836
G1 F1123.4 X153.545 Y125.283 E1.61596
G1 F1005.7 X153.665 Y125.564 E1.62929
G1 F1066.7 X153.857 Y125.12 E1.6492
G1 F1200 X153.958 Y124.723 E1.66419
G1 X154.166 Y124.208 E1.68451
G1 X154.472 Y123.694 E1.7064
G1 X154.851 Y123.233 E1.72823
G1 X155.161 Y122.959 E1.74337
G1 X152.213 Y122.959 E1.85123
G1 F1500 E-1.14877
G1 F300 Z0.4
G0 F6000 X156.422 Y130.108 Z0.4
G1 F300 Z0.2
G1 F1500 E1.85123
G1 F1200 X156.421 Y170.896 E3.3435
G1 X156.56 Y170.617 E3.35491
G1 X157.221 Y170.398 E3.38038
G1 X159.421 Y170.398 E3.46087
G1 X160.082 Y170.617 E3.48635
G1 X160.221 Y170.896 E3.49775
G1 X160.221 Y129.462 E5.01366
G1 X159.964 Y129.643 E5.02516
G1 X159.453 Y129.921 E5.04645
G1 X158.828 Y130.146 E5.07075
G1 X158.144 Y130.273 E5.0962
G1 X157.506 Y130.299 E5.11956
G1 X156.836 Y130.221 E5.14424
G1 X156.422 Y130.108 E5.15994
G0 F6000 X155.952 Y129.454
G1 F1200 X155.982 Y129.598 E5.16532
G1 X155.981 Y170.548 E6.66353
G1 F1111.6 X156.016 Y171.498 E6.70107
G1 F1035.3 X156.015 Y171.984 E6.72168
G1 F1033.3 X155.934 Y172.253 E6.73362
G1 X156.526 Y172.253 E6.75877
G1 F1035.3 X156.526 Y171.498 E6.79079
G1 F1111.6 X156.824 Y170.969 E6.81477
G1 F1200 X157.221 Y170.838 E6.83007
G1 X159.421 Y170.838 E6.91056
G1 X159.818 Y170.969 E6.92585
G1 F1111.6 X160.116 Y171.498 E6.94983
G1 F1035.3 X160.117 Y172.252 E6.98181
G1 X160.708 Y172.252 E7.00687
G1 X160.626 Y171.984 E7.01875
G1 X160.626 Y171.498 E7.03936
G1 F1111.6 X160.661 Y170.548 E7.07691
G1 F1200 X160.657 Y128.476 E8.61616
G1 X160.241 Y128.895 E8.63776
G1 X159.754 Y129.256 E8.65994
G1 X159.224 Y129.536 E8.68187
G1 X158.713 Y129.72 E8.70174
G1 X158.103 Y129.835 E8.72445
G1 X157.52 Y129.858 E8.7458
G1 X156.972 Y129.794 E8.76599
G1 X156.354 Y129.634 E8.78934
G1 X155.952 Y129.454 E8.80546
G1 F1500 E5.80546
G1 F300 Z0.4
G0 F6000 X155.867 Y175.803 Z0.4
G1 F300 Z0.2
G1 F1500 E8.80546
G1 F1225.1 X156.212 Y176.19 E8.82404
G1 X156.566 Y176.486 E8.84057
G1 X156.566 Y175.803 E8.86505
G1 X155.867 Y175.803 E8.8901
G1 F1500 E5.8901
G1 F300 Z0.4
G0 F6000 X160.076 Y175.803 Z0.4
G1 F300 Z0.2
G1 F1500 E8.8901
G1 F1225.1 X160.076 Y176.485 E8.91454
G1 X160.416 Y176.202 E8.9304
G1 X160.772 Y175.804 E8.94953
G1 X160.076 Y175.803 E8.97448
G1 F1500 E5.97448
G1 F300 Z0.4
G0 F6000 X157.088 Y171.321 Z0.4
;TYPE:WALL-OUTER
G1 F300 Z0.2
G1 F1500 E8.97448
G1 F1200 X157.221 Y171.278 E8.97959
G1 X159.421 Y171.278 E9.06008
G1 X159.554 Y171.321 E9.06519
G1 X159.641 Y171.498 E9.07241
G1 X159.642 Y172.686 E9.11587
G1 X159.688 Y172.728 E9.11815
G1 X160.871 Y172.728 E9.16144
G1 F1205.5 X161.021 Y172.789 E9.16733
G1 F1183.9 X161.099 Y172.948 E9.1739
G1 F1073.2 X161.135 Y173.476 E9.19555
G1 F976 X161.148 Y173.918 E9.21544
G1 F960 X161.144 Y174.351 E9.23525
G1 F1000 X161.126 Y174.796 E9.2548
G1 F1075.4 X161.085 Y175.251 E9.27345
G1 F1157.9 X160.932 Y175.369 E9.28078
G1 F1202.7 X159.684 Y175.368 E9.32633
G1 F1200 X159.641 Y175.414 E9.32864
G1 X159.641 Y176.599 E9.37199
G1 F1202.7 X159.605 Y176.719 E9.37656
G1 F1152.8 X159.483 Y176.824 E9.38269
G1 F1056 X158.961 Y176.86 E9.40445
G1 F983.2 X158.541 Y176.875 E9.42321
G1 F958.3 X158.087 Y176.874 E9.44401
G1 F986.9 X157.662 Y176.86 E9.46293
G1 F1058.1 X157.158 Y176.823 E9.4839
G1 F1150.3 X157.035 Y176.717 E9.4901
G1 F1202.7 X157.001 Y176.599 E9.49458
G1 F1200 X156.996 Y175.402 E9.53837
G1 X156.917 Y175.368 E9.54152
G1 X155.709 Y175.368 E9.58571
G1 F1152.8 X155.556 Y175.252 E9.59303
G1 F1068.8 X155.516 Y174.792 E9.61199
G1 F998.1 X155.497 Y174.346 E9.63163
G1 F958.3 X155.494 Y173.913 E9.65147
G1 F976 X155.507 Y173.47 E9.6714
G1 F1073.2 X155.543 Y172.948 E9.69281
G1 F1178.6 X155.618 Y172.788 E9.69939
G1 F1200 X155.771 Y172.728 E9.70541
G1 X156.967 Y172.722 E9.74916
G1 X157.001 Y172.645 E9.75224
G1 X157.001 Y171.498 E9.79421
G1 X157.088 Y171.321 E9.80142
G1 F1500 E6.80142
G1 F300 Z0.4
G0 F6000 X150.081 Y129.386 Z0.4
G1 F300 Z0.2
G1 F1500 E9.80142
G1 F1278.5 X149.553 Y129.397 E9.81956
G1 F1225.1 X149.022 Y129.367 E9.83862
G1 F1500 E6.83862
G1 F300 Z0.4
G0 F6000 X148.987 Y122.533 Z0.4
G1 F300 Z0.2
G1 F1500 E9.83862
G1 F1211 X149.52 Y122.5 E9.85798
G1 F1275.4 X150.093 Y122.511 E9.87771
G1 F1222.2 X150.571 Y122.596 E9.89515
G1 F1200 X151.108 Y122.789 E9.91602
G1 X151.543 Y123.026 E9.93415
G1 X152 Y123.373 E9.95514
G1 X152.335 Y123.723 E9.97287
G1 X152.662 Y124.189 E9.99369
G1 X152.898 Y124.67 E10.0133
G1 X153.045 Y125.141 E10.03135
G1 X153.132 Y125.703 E10.05215
G1 X153.131 Y126.215 E10.07089
G1 X153.052 Y126.722 E10.08966
G1 X152.885 Y127.259 E10.11024
G1 X152.66 Y127.711 E10.12871
G1 X152.358 Y128.144 E10.14802
G1 X151.974 Y128.545 E10.16833
G1 X151.543 Y128.87 E10.18808
G1 X151.075 Y129.122 E10.20753
G1 X150.575 Y129.299 E10.22694
G1 F1222.2 X150.081 Y129.386 E10.24495
G1 X150.623 Y129.377 E10.26443
G1 F1200 X154.795 Y129.378 E10.41706
G1 F1068.8 X155.471 Y129.366 E10.44484
G1 F1017.3 X155.546 Y129.499 E10.45142
G1 F1082 X155.546 Y133.364 E10.60826
G1 F1090.9 X155.546 Y137.229 E10.7638
G1 F1102.3 X155.545 Y141.094 E10.91774
G1 F1113.9 X155.545 Y144.959 E11.07007
G1 F1123.4 X155.544 Y148.824 E11.22112
G1 F1135.5 X155.544 Y152.689 E11.37056
G1 F1147.8 X155.543 Y156.554 E11.51839
G1 F1157.9 X155.543 Y160.419 E11.66494
G1 F1170.7 X155.542 Y164.284 E11.80988
G1 F1183.9 X155.542 Y168.149 E11.95322
G1 F1194.6 X155.541 Y172.014 E12.09526
G1 F1200 X155.243 Y172.51 E12.11643
G1 F1178.6 X155.089 Y172.874 E12.13116
G1 F1073.2 X154.983 Y173.422 E12.15399
G1 F976 X154.938 Y173.901 E12.17563
G1 F958.3 X154.95 Y174.372 E12.19722
G1 F998.1 X155.011 Y174.851 E12.21846
G1 F1102.3 X155.12 Y175.306 E12.23709
G1 F1189.2 X155.333 Y175.757 E12.25551
G1 F1200 X155.593 Y176.149 E12.27272
G1 X155.917 Y176.513 E12.29055
G1 X156.281 Y176.82 E12.30797
G1 F1202.7 X156.696 Y177.083 E12.3259
G1 F1178.6 X157.142 Y177.272 E12.34395
G1 F1079.8 X157.607 Y177.375 E12.36331
G1 F986.9 X158.067 Y177.426 E12.3839
G1 F958.3 X158.56 Y177.426 E12.40649
G1 F983.2 X159.015 Y177.377 E12.42692
G1 F1090.9 X159.55 Y177.261 E12.44895
G1 F1194.6 X159.941 Y177.085 E12.46471
G1 F1202.7 X160.359 Y176.82 E12.48278
G1 F1200 X160.721 Y176.515 E12.5001
G1 X161.037 Y176.161 E12.51746
G1 F1202.7 X161.311 Y175.75 E12.53549
G1 F1194.6 X161.518 Y175.312 E12.55329
G1 F1106.9 X161.629 Y174.856 E12.57191
G1 F1000 X161.691 Y174.378 E12.59307
G1 F960 X161.703 Y173.907 E12.61462
G1 F976 X161.662 Y173.446 E12.63544
G1 F1073.2 X161.555 Y172.883 E12.65888
G1 F1183.9 X161.399 Y172.509 E12.67391
G1 F1208.2 X161.101 Y172.006 E12.69515
G1 F1202.7 X161.101 Y127.257 E14.32863
G1 F1137.9 X161.077 Y126.73 E14.34898
G1 X160.885 Y127.26 E14.37073
G1 F1200 X160.662 Y127.708 E14.38904
G1 X160.337 Y128.17 E14.4097
G1 X159.974 Y128.545 E14.4288
G1 X159.543 Y128.87 E14.44855
G1 X159.075 Y129.122 E14.46799
G1 X158.608 Y129.29 E14.48615
G1 X158.062 Y129.397 E14.50651
G1 X157.519 Y129.415 E14.52638
G1 X156.991 Y129.351 E14.54584
G1 X156.482 Y129.209 E14.56518
G1 X156.282 Y129.119 E14.5732
G1 F1150.3 X155.86 Y128.982 E14.59013
G1 F1102.3 X155.565 Y128.732 E14.60554
G1 F1125.8 X155.543 Y128.701 E14.60702
G1 F1175.9 X155.158 Y128.342 E14.62667
G1 F1200 X154.823 Y127.932 E14.64604
G1 X154.571 Y127.508 E14.66409
G1 X154.356 Y126.977 E14.68505
G1 X154.238 Y126.463 E14.70434
G1 X154.201 Y125.927 E14.724
G1 X154.243 Y125.4 E14.74334
G1 X154.366 Y124.888 E14.76261
G1 X154.571 Y124.388 E14.78238
G1 X154.843 Y123.936 E14.80168
G1 X155.181 Y123.53 E14.821
G1 X155.55 Y123.201 E14.83909
G1 X156.027 Y122.893 E14.85987
G1 X156.508 Y122.679 E14.87913
G1 F1163 X156.987 Y122.533 E14.89803
G1 X156.487 Y122.518 E14.91691
G1 F1200 X150.578 Y122.519 E15.1331
G1 F1222.2 X150.093 Y122.511 E15.15053
G1 F1500 E12.15053
G1 F300 Z0.4
G0 F6000 X156.987 Y122.533 Z0.4
G1 F300 Z0.2
G1 F1500 E15.15053
G1 F1211 X157.52 Y122.5 E15.16989
G1 F1310.2 X158.12 Y122.526 E15.19001
G1 F1313.4 X158.65 Y122.643 E15.20815
G1 F1320 X159.103 Y122.811 E15.22422
G1 F1326.6 X159.538 Y123.049 E15.24063
G1 F1333.3 X159.96 Y123.368 E15.25805
G1 F1340.1 X160.318 Y123.739 E15.27494
G1 F1343.5 X160.625 Y124.174 E15.29234
G1 F1346.9 X160.839 Y124.582 E15.30736
G1 F1320 X161.006 Y125.062 E15.32426
G1 F1310.2 X161.104 Y125.594 E15.34239
G1 F1303.7 X161.115 Y126.225 E15.36364
G1 F1173.3 X161.077 Y126.73 E15.38259
G1 F1500 E12.38259
G1 F300 Z0.4
G0 F6000 X142.081 Y129.386 Z0.4
G1 F300 Z0.2
G1 F1500 E15.38259
G1 F1294.1 X141.553 Y129.392 E15.4005
G1 F1323.3 X141.092 Y129.35 E15.41586
G1 F1313.4 X140.591 Y129.227 E15.4331
G1 F1333.3 X140.114 Y129.029 E15.45011
G1 F1320 X139.806 Y128.844 E15.46206
G1 F1326.6 X139.499 Y128.631 E15.47443
G1 F1350.4 X139.129 Y128.283 E15.49094
G1 F1336.7 X138.807 Y127.874 E15.50804
G1 F1313.4 X138.538 Y127.384 E15.52672
G1 F1300.5 X138.358 Y126.906 E15.54397
G1 F1306.9 X138.256 Y126.444 E15.55986
G1 F1320 X138.222 Y125.945 E15.57649
G1 F1326.6 X138.259 Y125.436 E15.59338
G1 F1320 X138.366 Y124.962 E15.60955
G1 X138.554 Y124.47 E15.62706
G1 F1313.4 X138.812 Y124.015 E15.64455
G1 F1310.2 X139.136 Y123.603 E15.66211
G1 F1306.9 X139.499 Y123.266 E15.67875
G1 F1294.1 X139.805 Y123.053 E15.6914
G1 F1323.3 X140.119 Y122.866 E15.70352
G1 F1353.8 X140.593 Y122.669 E15.72017
G1 F1346.9 X141.079 Y122.548 E15.73649
G1 X141.551 Y122.505 E15.75194
G1 F1294.1 X142.093 Y122.511 E15.77033
G1 F1222.2 X142.571 Y122.596 E15.78777
G1 F1200 X143.108 Y122.789 E15.80865
G1 X143.543 Y123.026 E15.82677
G1 X144 Y123.373 E15.84777
G1 X144.335 Y123.723 E15.86549
G1 X144.662 Y124.189 E15.88632
G1 X144.898 Y124.67 E15.90592
G1 X145.045 Y125.141 E15.92397
G1 X145.132 Y125.703 E15.94478
G1 X145.131 Y126.215 E15.96351
G1 X145.052 Y126.722 E15.98228
G1 X144.885 Y127.259 E16.00286
G1 X144.66 Y127.711 E16.02133
G1 X144.358 Y128.144 E16.04065
G1 X143.974 Y128.545 E16.06096
G1 X143.543 Y128.87 E16.08071
G1 X143.075 Y129.122 E16.10015
G1 X142.575 Y129.299 E16.11956
G1 F1222.2 X142.081 Y129.386 E16.13758
G1 X142.623 Y129.377 E16.15705
G1 F1200 X148.494 Y129.378 E16.37185
G1 F1173.3 X149.022 Y129.367 E16.39161
G1 X148.482 Y129.21 E16.41265
G1 F1200 X148.001 Y128.99 E16.432
G1 X147.549 Y128.695 E16.45175
G1 X147.158 Y128.342 E16.47102
G1 X146.823 Y127.932 E16.49039
G1 X146.571 Y127.508 E16.50844
G1 X146.356 Y126.977 E16.5294
G1 X146.238 Y126.463 E16.54869
G1 X146.201 Y125.927 E16.56835
G1 X146.243 Y125.4 E16.58769
G1 X146.366 Y124.888 E16.60696
G1 X146.571 Y124.388 E16.62673
G1 X146.843 Y123.936 E16.64603
G1 X147.181 Y123.53 E16.66535
G1 X147.55 Y123.201 E16.68344
G1 X148.027 Y122.893 E16.70421
G1 X148.508 Y122.679 E16.72348
G1 F1163 X148.987 Y122.533 E16.74238
G1 X148.487 Y122.518 E16.76126
G1 F1200 X142.578 Y122.519 E16.97745
G1 F1222.2 X142.093 Y122.511 E16.99487
G1 F1500 E13.99487
G1 F300 Z0.4
G0 F6000 X156.818 Y130.615 Z0.4
;TYPE:SKIN
G1 F300 Z0.2
G1 F1500 E16.99487
G1 F1200 X157.473 Y130.694 E17.01901
G1 X158.201 Y130.664 E17.04567
G1 X158.917 Y130.534 E17.07229
G1 X159.626 Y130.278 E17.09987
G1 X159.825 Y130.169 E17.10817
G1 X159.825 Y170.124 E18.56997
G1 X159.451 Y170.002 E18.58437
G1 X157.191 Y170.002 E18.66705
G1 X156.817 Y170.124 E18.68144
G1 X156.818 Y130.615 E20.12693
G1 F1500 E17.12693
G1 F300 Z0.4
G0 F6000 X159.268 Y130.644 Z0.4
G1 F300 Z0.2
G1 F1500 E20.12693
G1 F1200 X159.604 Y130.98 E20.14431
G0 F6000 X159.604 Y131.603
G1 F1200 X158.78 Y130.778 E20.18697
G0 F6000 X158.257 Y130.878
G1 F1200 X159.604 Y132.225 E20.25667
G0 F6000 X159.604 Y132.847
G1 F1200 X157.661 Y130.904 E20.3572
G0 F6000 X157.037 Y130.903
G1 F1200 X159.604 Y133.469 E20.48999
G0 F6000 X159.604 Y134.092
G1 F1200 X157.037 Y131.525 E20.62281
G0 F6000 X157.037 Y132.147
G1 F1200 X159.604 Y134.714 E20.75563
G0 F6000 X159.604 Y135.336
G1 F1200 X157.037 Y132.769 E20.88844
G0 F6000 X157.037 Y133.392
G1 F1200 X159.604 Y135.958 E21.02124
G0 F6000 X159.604 Y136.581
G1 F1200 X157.037 Y134.014 E21.15405
G0 F6000 X157.037 Y134.636
G1 F1200 X159.604 Y137.203 E21.28687
G0 F6000 X159.604 Y137.825
G1 F1200 X157.037 Y135.258 E21.41969
G0 F6000 X157.037 Y135.881
G1 F1200 X159.604 Y138.447 E21.55248
G0 F6000 X159.604 Y139.07
G1 F1200 X157.037 Y136.503 E21.6853
G0 F6000 X157.037 Y137.125
G1 F1200 X159.604 Y139.692 E21.81812
G0 F6000 X159.604 Y140.314
G1 F1200 X157.037 Y137.747 E21.95094
G0 F6000 X157.037 Y138.37
G1 F1200 X159.604 Y140.936 E22.08373
G0 F6000 X159.604 Y141.559
G1 F1200 X157.037 Y138.992 E22.21655
G0 F6000 X157.037 Y139.614
G1 F1200 X159.604 Y142.181 E22.34937
G0 F6000 X159.604 Y142.803
G1 F1200 X157.037 Y140.236 E22.48219
G0 F6000 X157.037 Y140.859
G1 F1200 X159.604 Y143.426 E22.615
G0 F6000 X159.604 Y144.048
G1 F1200 X157.037 Y141.481 E22.74782
G0 F6000 X157.037 Y142.103
G1 F1200 X159.604 Y144.67 E22.88064
G0 F6000 X159.604 Y145.292
