;FLAVOR:Marlin
;TIME:1532
;Filament used: 0.996034m
;Layer height: 0.2
;MINX:126.823
;MINY:110.11
;MINZ:0.2
;MAXX:173.19
;MAXY:189.879
;MAXZ:7.8
;Generated with Cura_SteamEngine 5.4.0
M140 S65
M105
M190 S65
M104 S210
M105
M109 S210
M82 ;absolute extrusion mode
G28 ; home all axes
M420 S1 Z10
 M117 Purge extruder
 G92 E0 ; reset extruder
 G1 Z1.0 F3000 ; move z up little to prevent scratching of surface
 G1 X2 Y20 Z0.3 F5000.0 ; move to start-line position
 G1 X2 Y200.0 Z0.3 F1500.0 E15 ; draw 1st line
 G1 X2 Y200.0 Z0.4 F5000.0 ; move to side a little
 G1 X2 Y20 Z0.4 F1500.0 E30 ; draw 2nd line
 G92 E0 ; reset extruder
 G1 Z1.0 F3000 ; move z up little to prevent scratching of surface
G92 E0
G92 E0
G1 F1500 E-3
;LAYER_COUNT:39
;LAYER:0
M107
G0 F6000 X130.674 Y115.195 Z0.2
;TYPE:SKIRT
G1 F1500 E0
G1 F1200 X131.073 Y114.773 E0.02125
G1 X131.498 Y114.348 E0.04324
G1 X132.165 Y113.738 E0.07631
G1 X132.689 Y113.32 E0.10083
G1 X133.15 Y112.975 E0.1219
G1 X133.923 Y112.448 E0.15613
G1 X134.496 Y112.114 E0.18039
G1 X134.989 Y111.846 E0.20092
G1 X135.887 Y111.409 E0.23746
G1 X136.438 Y111.187 E0.25919
G1 X137.018 Y110.971 E0.28184
G1 X137.878 Y110.693 E0.3149
G1 X138.558 Y110.524 E0.34054
G1 X139.108 Y110.406 E0.36112
G1 X140.029 Y110.251 E0.39529
G1 X140.658 Y110.188 E0.41842
G1 X141.678 Y110.124 E0.45581
G1 X142.31 Y110.111 E0.47893
G1 X157.319 Y110.11 E1.02806
G1 X158.412 Y110.131 E1.06805
G1 X159.172 Y110.172 E1.0959
G1 X159.64 Y110.215 E1.11309
G1 X160.979 Y110.423 E1.16267
G1 X161.583 Y110.557 E1.1853
G1 X162.49 Y110.803 E1.21969
G1 X163.555 Y111.182 E1.26104
G1 X164.389 Y111.532 E1.29414
G1 X165.005 Y111.841 E1.31935
G1 X165.518 Y112.121 E1.34073
G1 X166.32 Y112.604 E1.37498
G1 X166.914 Y113.024 E1.4016
G1 X167.388 Y113.382 E1.42333
G1 X168.108 Y113.978 E1.45753
G1 X168.566 Y114.409 E1.48054
G1 X168.941 Y114.786 E1.49999
G1 X169.616 Y115.529 E1.53672
G1 X169.979 Y115.988 E1.55813
G1 X170.31 Y116.43 E1.57833
G1 X170.852 Y117.226 E1.61356
G1 X171.156 Y117.741 E1.63544
G1 X171.424 Y118.23 E1.65584
G1 X171.859 Y119.113 E1.69186
G1 X172.09 Y119.677 E1.71416
G1 X172.301 Y120.234 E1.73595
G1 X172.611 Y121.186 E1.77258
G1 X172.763 Y121.796 E1.79558
G1 X172.881 Y122.335 E1.81576
G1 X173.044 Y123.276 E1.85071
G1 X173.11 Y123.936 E1.87497
G1 X173.175 Y124.966 E1.91273
G1 X173.19 Y125.636 E1.93725
G1 X173.188 Y174.879 E3.73886
G1 X173.168 Y175.777 E3.77172
G1 X173.102 Y176.821 E3.81
G1 X172.886 Y178.182 E3.86041
G1 X172.743 Y178.827 E3.88458
G1 X172.487 Y179.776 E3.92055
G1 X172.133 Y180.747 E3.95836
G1 X171.938 Y181.211 E3.97677
G1 X171.523 Y182.089 E4.0123
G1 X171.145 Y182.754 E4.04029
G1 X170.908 Y183.138 E4.0568
G1 X170.381 Y183.916 E4.09118
G1 X169.655 Y184.822 E4.13365
G1 X168.97 Y185.578 E4.17098
G1 X168.249 Y186.248 E4.20699
G1 X167.841 Y186.595 E4.22658
G1 X167.099 Y187.17 E4.26093
G1 X166.431 Y187.611 E4.29021
G1 X165.97 Y187.892 E4.30996
G1 X165.085 Y188.378 E4.3469
G1 X164.392 Y188.691 E4.37473
G1 X163.921 Y188.883 E4.39333
G1 X162.978 Y189.22 E4.42997
G1 X162.302 Y189.408 E4.45564
G1 X161.866 Y189.512 E4.47204
G1 X160.889 Y189.701 E4.50845
G1 X160.354 Y189.767 E4.52817
G1 X159.738 Y189.826 E4.55081
G1 X158.72 Y189.879 E4.58811
G1 X157.716 Y189.844 E4.62486
G1 X157.312 Y189.811 E4.63969
G1 X156.272 Y189.676 E4.67806
G1 X155.257 Y189.465 E4.71599
G1 X154.24 Y189.193 E4.7545
G1 X153.27 Y188.84 E4.79227
G1 X152.782 Y188.635 E4.81164
G1 X151.905 Y188.22 E4.84713
G1 X151.258 Y187.852 E4.87436
G1 X150.896 Y187.63 E4.8899
G1 X150.146 Y187.125 E4.92298
G1 X149.653 Y186.744 E4.94578
G1 X149.172 Y186.35 E4.96853
G1 X148.499 Y185.747 E5.00159
G1 X147.749 Y184.948 E5.04168
G1 X147.475 Y184.626 E5.05715
G1 X146.919 Y183.913 E5.09023
G1 X146.577 Y183.411 E5.11245
G1 X146.231 Y182.87 E5.13595
G1 X145.725 Y181.986 E5.17321
G1 X145.311 Y181.097 E5.20909
G1 X145.119 Y180.628 E5.22763
G1 X144.781 Y179.684 E5.26432
G1 X144.592 Y179.003 E5.29017
G1 X144.491 Y178.58 E5.30608
G1 X144.302 Y177.604 E5.34245
G1 X144.235 Y177.064 E5.36236
G1 X144.06 Y175.304 E5.42707
G1 X144.014 Y174.711 E5.44883
G1 X143.749 Y172.281 E5.53826
G1 X143.4 Y169.741 E5.63207
G1 X142.999 Y167.332 E5.72141
G1 X142.514 Y164.854 E5.8138
G1 X141.961 Y162.398 E5.9059
G1 X141.35 Y159.998 E5.99651
G1 X140.653 Y157.564 E6.08914
G1 X139.909 Y155.217 E6.17922
G1 X139.064 Y152.784 E6.27345
G1 X138.219 Y150.557 E6.36059
G1 X137.241 Y148.187 E6.45439
G1 X136.216 Y145.891 E6.54639
G1 X135.13 Y143.63 E6.63815
G1 X133.974 Y141.389 E6.73041
G1 X132.787 Y139.238 E6.82029
G1 X131.5 Y137.058 E6.91291
G1 X130.175 Y134.949 E7.00404
G1 X129.672 Y134.192 E7.03729
G1 X129.215 Y133.481 E7.06821
G1 X128.816 Y132.808 E7.09684
G1 X128.548 Y132.316 E7.11734
G1 X128.138 Y131.478 E7.15147
G1 X127.918 Y130.943 E7.17263
G1 X127.703 Y130.378 E7.19475
G1 X127.41 Y129.489 E7.229
G1 X127.227 Y128.758 E7.25657
G1 X127.105 Y128.191 E7.27778
G1 X126.953 Y127.3 E7.31085
G1 X126.886 Y126.642 E7.33505
G1 X126.848 Y126.097 E7.35504
G1 X126.823 Y125.1 E7.39153
G1 X126.848 Y124.559 E7.41134
G1 X126.891 Y123.946 E7.43382
G1 X126.999 Y122.986 E7.46917
G1 X127.129 Y122.289 E7.49511
G1 X127.252 Y121.739 E7.51573
G1 X127.494 Y120.836 E7.54993
G1 X127.691 Y120.261 E7.57217
G1 X127.891 Y119.723 E7.59317
G1 X128.282 Y118.805 E7.62967
G1 X128.54 Y118.298 E7.65049
G1 X128.807 Y117.808 E7.6709
G1 X129.317 Y116.962 E7.70704
G1 X129.7 Y116.418 E7.73138
G1 X130.059 Y115.942 E7.7532
G1 X130.674 Y115.195 E7.7886
G0 F6000 X131.014 Y115.475
G1 F1200 X131.392 Y115.076 E7.80871
G1 X131.795 Y114.673 E7.82956
G1 X132.462 Y114.063 E7.86263
G1 X132.953 Y113.672 E7.88559
G1 X133.398 Y113.339 E7.90592
G1 X134.171 Y112.812 E7.94015
G1 X134.706 Y112.5 E7.96281
G1 X135.182 Y112.241 E7.98264
G1 X136.051 Y111.817 E8.01801
G1 X136.592 Y111.599 E8.03935
G1 X137.153 Y111.39 E8.06126
G1 X138.013 Y111.112 E8.09432
G1 X138.65 Y110.954 E8.11834
G1 X139.181 Y110.84 E8.13821
G1 X140.102 Y110.685 E8.17238
G1 X140.686 Y110.627 E8.19385
G1 X141.687 Y110.564 E8.23054
G1 X142.31 Y110.551 E8.25334
G1 X157.311 Y110.55 E8.80217
G1 X158.388 Y110.57 E8.84158
G1 X159.132 Y110.61 E8.86884
G1 X159.572 Y110.65 E8.885
G1 X160.911 Y110.858 E8.93458
G1 X161.468 Y110.982 E8.95546
G1 X162.375 Y111.228 E8.98984
G1 X163.385 Y111.588 E9.02907
G1 X164.219 Y111.938 E9.06216
G1 X164.794 Y112.227 E9.0857
G1 X165.291 Y112.498 E9.10641
G1 X166.066 Y112.964 E9.1395
G1 X166.649 Y113.375 E9.1656
G1 X167.107 Y113.721 E9.1866
G1 X167.827 Y114.317 E9.22079
G1 X168.254 Y114.72 E9.24227
G1 X168.615 Y115.082 E9.26098
G1 X169.29 Y115.825 E9.29771
G1 X169.627 Y116.251 E9.31758
G1 X169.946 Y116.678 E9.33708
G1 X170.488 Y117.474 E9.37231
G1 X170.77 Y117.953 E9.39265
G1 X171.029 Y118.424 E9.41231
G1 X171.464 Y119.307 E9.44833
G1 X171.679 Y119.833 E9.46912
G1 X171.883 Y120.371 E9.49017
G1 X172.184 Y121.292 E9.52562
G1 X172.333 Y121.89 E9.54816
G1 X172.447 Y122.41 E9.56764
G1 X172.61 Y123.351 E9.60258
G1 X172.671 Y123.964 E9.62512
G1 X172.735 Y124.976 E9.66222
G1 X172.75 Y125.636 E9.68637
G1 X172.748 Y174.87 E11.48765
G1 X172.729 Y175.75 E11.51986
G1 X172.667 Y176.752 E11.55659
G1 X172.456 Y178.087 E11.60604
G1 X172.318 Y178.712 E11.62945
G1 X172.062 Y179.661 E11.66541
G1 X171.727 Y180.577 E11.7011
G1 X171.54 Y181.023 E11.71879
G1 X171.14 Y181.872 E11.75313
G1 X170.77 Y182.523 E11.78052
G1 X170.543 Y182.892 E11.79637
G1 X170.037 Y183.641 E11.82944
G1 X169.328 Y184.527 E11.87096
G1 X168.67 Y185.256 E11.90689
G1 X167.964 Y185.913 E11.94217
G1 X167.571 Y186.247 E11.96104
G1 X166.829 Y186.822 E11.99539
G1 X166.201 Y187.236 E12.02291
G1 X165.758 Y187.507 E12.04191
G1 X164.904 Y187.977 E12.07757
G1 X164.225 Y188.284 E12.10483
G1 X163.773 Y188.469 E12.1227
G1 X162.86 Y188.796 E12.15818
G1 X162.199 Y188.98 E12.18329
G1 X161.782 Y189.08 E12.19897
G1 X160.835 Y189.264 E12.23427
G1 X160.311 Y189.329 E12.25359
G1 X159.715 Y189.387 E12.2755
G1 X158.735 Y189.439 E12.3114
G1 X157.752 Y189.405 E12.34739
G1 X157.348 Y189.372 E12.36222
G1 X156.362 Y189.245 E12.39859
G1 X155.347 Y189.034 E12.43652
G1 X154.39 Y188.779 E12.47275
G1 X153.44 Y188.434 E12.50973
G1 X152.97 Y188.237 E12.52837
G1 X152.122 Y187.837 E12.56268
G1 X151.488 Y187.477 E12.58935
G1 X151.142 Y187.265 E12.6042
G1 X150.392 Y186.76 E12.63728
G1 X149.932 Y186.404 E12.65856
G1 X149.466 Y186.022 E12.6806
G1 X148.793 Y185.419 E12.71366
G1 X148.084 Y184.663 E12.75158
G1 X147.822 Y184.355 E12.76638
G1 X147.266 Y183.642 E12.79946
G1 X146.948 Y183.174 E12.82016
G1 X146.613 Y182.651 E12.84288
G1 X146.124 Y181.8 E12.87879
G1 X145.718 Y180.93 E12.91392
G1 X145.533 Y180.479 E12.93175
G1 X145.205 Y179.566 E12.96724
G1 X145.02 Y178.9 E12.99253
G1 X144.923 Y178.496 E13.00773
G1 X144.739 Y177.55 E13.04299
G1 X144.673 Y177.02 E13.06253
G1 X144.499 Y175.27 E13.12688
G1 X144.453 Y174.677 E13.14864
G1 X144.185 Y172.221 E13.23903
G1 X143.836 Y169.681 E13.33283
G1 X143.431 Y167.247 E13.4231
G1 X142.946 Y164.769 E13.51548
G1 X142.39 Y162.301 E13.60804
G1 X141.776 Y159.889 E13.6991
G1 X141.076 Y157.443 E13.79218
G1 X140.325 Y155.073 E13.88314
G1 X139.48 Y152.64 E13.97737
G1 X138.626 Y150.389 E14.06545
G1 X137.648 Y148.019 E14.15926
G1 X136.613 Y145.7 E14.25217
G1 X135.527 Y143.439 E14.34393
G1 X134.365 Y141.187 E14.43665
G1 X133.172 Y139.025 E14.52699
G1 X131.879 Y136.834 E14.62007
G1 X130.548 Y134.715 E14.71162
G1 X130.042 Y133.954 E14.74505
G1 X129.593 Y133.256 E14.77542
G1 X129.202 Y132.597 E14.80345
G1 X128.943 Y132.122 E14.82325
G1 X128.545 Y131.31 E14.85633
G1 X128.329 Y130.787 E14.87703
G1 X128.121 Y130.24 E14.89845
G1 X127.828 Y129.351 E14.93269
G1 X127.657 Y128.665 E14.95856
G1 X127.539 Y128.117 E14.97907
G1 X127.387 Y127.226 E15.01214
G1 X127.325 Y126.611 E15.03475
G1 X127.288 Y126.086 E15.05401
G1 X127.263 Y125.12 E15.08936
G1 X127.287 Y124.589 E15.10881
G1 X127.328 Y123.995 E15.13059
G1 X127.432 Y123.066 E15.16479
G1 X127.558 Y122.385 E15.19013
G1 X127.677 Y121.853 E15.21007
G1 X127.919 Y120.95 E15.24428
G1 X128.103 Y120.414 E15.26501
G1 X128.296 Y119.895 E15.28527
G1 X128.674 Y119.005 E15.32065
G1 X128.927 Y118.508 E15.34105
G1 X129.184 Y118.035 E15.36074
G1 X129.694 Y117.189 E15.39689
G1 X130.052 Y116.683 E15.41956
G1 X130.399 Y116.222 E15.44067
G1 X131.014 Y115.475 E15.47607
G0 F6000 X131.333 Y115.778
G1 F1200 X131.711 Y115.379 E15.49618
G1 X132.092 Y114.998 E15.5159
G1 X132.759 Y114.388 E15.54896
G1 X133.217 Y114.024 E15.57037
G1 X133.646 Y113.703 E15.58997
G1 X134.419 Y113.176 E15.6242
G1 X134.917 Y112.886 E15.64528
G1 X135.375 Y112.636 E15.66437
G1 X136.216 Y112.225 E15.69862
G1 X136.746 Y112.011 E15.71953
G1 X137.288 Y111.809 E15.74069
G1 X138.148 Y111.531 E15.77376
G1 X138.743 Y111.384 E15.79619
G1 X139.254 Y111.274 E15.81531
G1 X140.175 Y111.119 E15.84948
G1 X140.714 Y111.066 E15.86929
G1 X141.696 Y111.004 E15.90529
G1 X142.31 Y110.991 E15.92776
G1 X157.303 Y110.99 E16.4763
G1 X158.364 Y111.009 E16.51512
G1 X159.093 Y111.048 E16.54183
G1 X159.504 Y111.085 E16.55693
G1 X160.843 Y111.293 E16.60651
G1 X161.353 Y111.407 E16.62563
G1 X162.26 Y111.653 E16.66001
G1 X163.215 Y111.994 E16.69711
G1 X164.049 Y112.344 E16.7302
G1 X164.584 Y112.614 E16.75212
G1 X165.064 Y112.875 E16.77211
G1 X165.839 Y113.341 E16.8052
G1 X166.384 Y113.726 E16.82961
G1 X166.826 Y114.06 E16.84988
G1 X167.546 Y114.656 E16.88408
G1 X167.942 Y115.031 E16.90403
G1 X168.303 Y115.393 E16.92273
G1 X168.945 Y116.098 E16.95762
G1 X169.275 Y116.515 E16.97708
G1 X169.583 Y116.926 E16.99587
G1 X170.109 Y117.697 E17.03001
G1 X170.384 Y118.165 E17.04987
G1 X170.643 Y118.636 E17.06954
G1 X171.057 Y119.474 E17.10373
G1 X171.268 Y119.989 E17.1241
G1 X171.465 Y120.508 E17.14441
G1 X171.757 Y121.398 E17.17868
G1 X171.903 Y121.984 E17.20077
G1 X172.013 Y122.485 E17.21954
G1 X172.176 Y123.426 E17.25448
G1 X172.232 Y123.992 E17.27529
G1 X172.295 Y124.986 E17.31173
G1 X172.31 Y125.636 E17.33551
G1 X172.308 Y174.861 E19.13647
G1 X172.29 Y175.723 E19.16801
G1 X172.232 Y176.684 E19.20323
G1 X172.026 Y177.993 E19.25171
G1 X171.893 Y178.598 E19.27438
G1 X171.649 Y179.51 E19.30892
G1 X171.321 Y180.407 E19.34386
G1 X171.142 Y180.835 E19.36083
G1 X170.742 Y181.684 E19.39517
G1 X170.395 Y182.293 E19.42081
G1 X170.178 Y182.646 E19.43597
G1 X169.672 Y183.395 E19.46904
G1 X169.001 Y184.233 E19.50832
G1 X168.37 Y184.934 E19.54283
G1 X167.679 Y185.578 E19.57739
G1 X167.301 Y185.899 E19.59553
G1 X166.559 Y186.474 E19.62987
G1 X165.972 Y186.861 E19.6556
G1 X165.545 Y187.122 E19.67391
G1 X164.723 Y187.576 E19.70826
G1 X164.058 Y187.877 E19.73497
G1 X163.624 Y188.055 E19.75213
G1 X162.742 Y188.372 E19.78642
G1 X162.096 Y188.552 E19.81096
G1 X161.698 Y188.648 E19.82593
G1 X160.781 Y188.827 E19.86012
G1 X160.268 Y188.891 E19.87903
G1 X159.691 Y188.948 E19.90024
G1 X158.75 Y188.999 E19.93472
G1 X157.788 Y188.966 E19.96994
G1 X157.384 Y188.933 E19.98477
G1 X156.452 Y188.814 E20.01914
G1 X155.437 Y188.603 E20.05707
G1 X154.54 Y188.365 E20.09103
G1 X153.61 Y188.028 E20.12722
G1 X153.158 Y187.839 E20.14514
G1 X152.31 Y187.439 E20.17944
G1 X151.718 Y187.102 E20.20437
G1 X151.388 Y186.9 E20.21852
G1 X150.638 Y186.395 E20.2516
G1 X150.211 Y186.063 E20.27139
G1 X149.76 Y185.694 E20.29271
G1 X149.087 Y185.091 E20.32577
G1 X148.419 Y184.378 E20.36152
G1 X148.169 Y184.084 E20.37564
G1 X147.613 Y183.371 E20.40872
G1 X147.318 Y182.936 E20.42795
G1 X146.994 Y182.431 E20.4499
G1 X146.523 Y181.614 E20.4844
G1 X146.125 Y180.762 E20.5188
G1 X145.947 Y180.33 E20.5359
G1 X145.629 Y179.448 E20.5702
G1 X145.448 Y178.797 E20.59492
G1 X145.355 Y178.412 E20.60941
G1 X145.176 Y177.495 E20.6436
G1 X145.111 Y176.976 E20.66273
G1 X144.938 Y175.236 E20.72671
G1 X144.892 Y174.643 E20.74847
G1 X144.621 Y172.161 E20.83981
G1 X144.272 Y169.621 E20.93362
G1 X143.863 Y167.162 E21.02482
G1 X143.378 Y164.684 E21.1172
G1 X142.819 Y162.204 E21.21021
G1 X142.202 Y159.78 E21.30172
G1 X141.499 Y157.322 E21.39525
G1 X140.741 Y154.929 E21.48709
G1 X139.896 Y152.496 E21.58132
G1 X139.033 Y150.221 E21.67034
G1 X138.055 Y147.851 E21.76414
G1 X137.015 Y145.521 E21.8575
G1 X135.924 Y143.249 E21.94971
G1 X134.756 Y140.985 E22.04291
G1 X133.557 Y138.812 E22.13371
G1 X132.258 Y136.61 E22.22725
G1 X130.921 Y134.481 E22.31923
G1 X130.412 Y133.716 E22.35284
G1 X129.971 Y133.031 E22.38265
G1 X129.588 Y132.386 E22.4101
G1 X129.338 Y131.928 E22.42919
G1 X128.94 Y131.116 E22.46227
G1 X128.74 Y130.63 E22.4815
G1 X128.539 Y130.102 E22.50217
G1 X128.255 Y129.244 E22.53523
G1 X128.087 Y128.572 E22.56058
G1 X127.973 Y128.043 E22.58037
G1 X127.821 Y127.152 E22.61344
G1 X127.764 Y126.58 E22.63447
G1 X127.728 Y126.074 E22.65303
G1 X127.703 Y125.139 E22.68725
G1 X127.726 Y124.619 E22.7063
G1 X127.765 Y124.044 E22.72738
G1 X127.865 Y123.146 E22.76044
G1 X127.988 Y122.48 E22.78522
G1 X128.102 Y121.967 E22.80445
G1 X128.344 Y121.064 E22.83865
G1 X128.515 Y120.567 E22.85788
G1 X128.701 Y120.067 E22.8774
G1 X129.066 Y119.205 E22.91164
G1 X129.314 Y118.718 E22.93164
G1 X129.561 Y118.262 E22.95061
G1 X130.054 Y117.443 E22.98559
G1 X130.404 Y116.947 E23.0078
G1 X130.739 Y116.501 E23.0282
G1 X131.333 Y115.778 E23.06244
G0 F6000 X131.652 Y116.081
G1 F1200 X132.03 Y115.682 E23.08255
G1 X132.389 Y115.323 E23.10112
G1 X133.056 Y114.713 E23.13419
G1 X133.481 Y114.376 E23.15403
G1 X133.894 Y114.066 E23.17293
G1 X134.64 Y113.556 E23.20599
G1 X135.128 Y113.272 E23.22665
G1 X135.569 Y113.031 E23.24503
G1 X136.381 Y112.633 E23.27812
G1 X136.9 Y112.423 E23.2986
G1 X137.423 Y112.228 E23.31902
G1 X138.283 Y111.95 E23.35209
G1 X138.836 Y111.814 E23.37293
G1 X139.327 Y111.708 E23.3913
G1 X140.219 Y111.557 E23.4244
G1 X140.742 Y111.505 E23.44363
G1 X141.705 Y111.444 E23.47893
G1 X142.31 Y111.431 E23.50107
G1 X157.295 Y111.43 E24.04932
G1 X158.341 Y111.448 E24.08759
G1 X159.054 Y111.486 E24.11371
G1 X159.437 Y111.52 E24.12778
G1 X160.748 Y111.723 E24.17632
G1 X161.239 Y111.832 E24.19472
G1 X162.112 Y112.067 E24.2278
G1 X163.045 Y112.4 E24.26404
G1 X163.879 Y112.75 E24.29713
G1 X164.374 Y113.001 E24.31744
G1 X164.837 Y113.252 E24.3367
G1 X165.612 Y113.718 E24.36979
G1 X166.119 Y114.077 E24.39252
G1 X166.546 Y114.399 E24.41209
G1 X167.243 Y114.975 E24.44517
G1 X167.63 Y115.342 E24.46468
