;FLAVOR:Marlin
;TIME:1275
;Filament used: 0.962404m
;Layer height: 0.16
;MINX:138.219
;MINY:121.864
;MINZ:0.2
;MAXX:161.728
;MAXY:178.052
;MAXZ:7.8
;Generated with Cura_SteamEngine 5.4.0
M140 S65
M105
M190 S65
M104 S210
M105
M109 S210
M82 ;absolute extrusion mode
G28 ; home all axes
M420 S1 Z10
 M117 Purge extruder
 G92 E0 ; reset extruder
 G1 Z1.0 F3000 ; move z up little to prevent scratching of surface
 G1 X2 Y20 Z0.3 F5000.0 ; move to start-line position
 G1 X2 Y200.0 Z0.3 F1500.0 E15 ; draw 1st line
 G1 X2 Y200.0 Z0.4 F5000.0 ; move to side a little
 G1 X2 Y20 Z0.4 F1500.0 E30 ; draw 2nd line
 G92 E0 ; reset extruder
 G1 Z1.0 F3000 ; move z up little to prevent scratching of surface
G92 E0
G92 E0
G1 F1500 E-3
;LAYER_COUNT:38
;LAYER:0
M107
G1 F300 Z0.4
;MESH:1. Stepper motor holder (L) [V4].stl
G0 F6000 X145.225 Y122.816 Z0.4
;TYPE:WALL-INNER
G1 F300 Z0.2
G1 F1500 E0
G1 F1095.4 X145.429 Y123.105 E0.01418
G1 X145.671 Y123.596 E0.03612
G1 X145.795 Y123.323 E0.04813
G1 X146.098 Y122.816 E0.07181
G1 X145.225 Y122.816 E0.10679
G0 F6000 X144.211 Y122.355
G1 F1200 X144.719 Y122.898 E0.134
G1 X145.031 Y123.341 E0.15382
G1 X145.298 Y123.881 E0.17586
G1 F1123.4 X145.544 Y124.678 E0.20846
G1 F1005.7 X145.663 Y124.96 E0.22182
G1 F1066.7 X145.855 Y124.516 E0.24173
G1 F1200 X145.958 Y124.118 E0.25677
G1 X146.192 Y123.559 E0.27894
G1 X146.471 Y123.09 E0.29891
G1 X146.817 Y122.67 E0.31882
G1 X147.16 Y122.355 E0.33586
G1 X144.211 Y122.355 E0.44375
G1 F1500 E-2.55625
G1 F300 Z0.4
G0 F6000 X145.672 Y124.981 Z0.4
G1 F300 Z0.2
G1 F1500 E0.44375
G1 F818.6 X145.664 Y125.344 E0.46322
G1 F825 X145.675 Y125.66 E0.48005
G0 F6000 X145.672 Y127.093
G1 F1093.2 X145.421 Y127.599 E0.50273
G1 X145.226 Y127.871 E0.51617
G1 X146.106 Y127.871 E0.55152
G1 X145.795 Y127.365 E0.57537
G1 X145.672 Y127.093 E0.58736
G0 F6000 X145.667 Y125.679
G1 F1035.3 X145.531 Y126.007 E0.60242
G1 F1155.4 X145.464 Y126.283 E0.61321
G1 F1200 X145.278 Y126.85 E0.63504
G1 X145.026 Y127.358 E0.65579
G1 X144.654 Y127.87 E0.67894
G1 X144.21 Y128.332 E0.70239
G1 X147.161 Y128.333 E0.81035
G1 X146.851 Y128.059 E0.82549
G1 X146.469 Y127.595 E0.84748
G1 X146.163 Y127.08 E0.86939
G1 X145.927 Y126.473 E0.89322
G1 X145.857 Y126.172 E0.90453
G1 F1071 X145.667 Y125.679 E0.92619
G1 F1500 E-2.07381
G1 F300 Z0.4
G0 F6000 X153.675 Y125.66 Z0.4
G1 F300 Z0.2
G1 F1500 E0.92619
G1 F825 X153.664 Y125.344 E0.94301
G1 F818.6 X153.672 Y124.981 E0.96249
G1 F1500 E-2.03751
G1 F300 Z0.4
G0 F6000 X153.672 Y127.093 Z0.4
G1 F300 Z0.2
G1 F1500 E0.96249
G1 F1093.2 X153.421 Y127.598 E0.98513
G1 X153.226 Y127.872 E0.99864
G1 X154.098 Y127.873 E1.03366
G1 X153.795 Y127.365 E1.05742
G1 X153.672 Y127.093 E1.06941
G0 F6000 X153.667 Y125.679
G1 F1035.3 X153.531 Y126.007 E1.08446
G1 F1155.4 X153.464 Y126.283 E1.09526
G1 F1200 X153.278 Y126.85 E1.11709
G1 X153.026 Y127.358 E1.13784
G1 X152.654 Y127.87 E1.16099
G1 X152.209 Y128.333 E1.18448
G1 X155.161 Y128.333 E1.29249
G1 X154.851 Y128.059 E1.30762
G1 X154.471 Y127.598 E1.32948
G1 X154.163 Y127.08 E1.35153
G1 X153.927 Y126.473 E1.37536
G1 X153.857 Y126.172 E1.38666
G1 F1071 X153.667 Y125.679 E1.40832
G1 F1500 E-1.59168
G1 F300 Z0.4
G0 F6000 X153.226 Y122.817 Z0.4
G1 F300 Z0.2
G1 F1500 E1.40832
G1 F1095.4 X153.429 Y123.103 E1.42238
G1 X153.671 Y123.596 E1.44439
G1 X153.795 Y123.323 E1.45641
G1 X154.098 Y122.817 E1.48004
G1 X153.226 Y122.817 E1.51499
G0 F6000 X152.211 Y122.355
G1 F1200 X152.719 Y122.898 E1.5422
G1 X153.004 Y123.301 E1.56026
G1 X153.297 Y123.878 E1.58393
G1 F1123.4 X153.544 Y124.678 E1.61665
G1 F1005.7 X153.663 Y124.96 E1.63001
G1 F1066.7 X153.855 Y124.516 E1.64992
G1 F1200 X153.958 Y124.118 E1.66497
G1 X154.192 Y123.559 E1.68714
G1 X154.469 Y123.094 E1.70694
G1 X154.817 Y122.67 E1.72701
G1 X155.16 Y122.355 E1.74405
G1 X152.211 Y122.355 E1.85194
G1 F1500 E-1.14806
G1 F300 Z0.4
G0 F6000 X156.42 Y129.503 Z0.4
G1 F300 Z0.2
G1 F1500 E1.85194
G1 F1200 X156.419 Y171.543 E3.39002
G1 X156.583 Y171.213 E3.4035
G1 X157.244 Y170.993 E3.42899
G1 X159.394 Y170.993 E3.50765
G1 X160.056 Y171.211 E3.53315
G1 X160.219 Y171.539 E3.54655
G1 X160.219 Y128.86 E5.10801
G1 X159.967 Y129.035 E5.11924
G1 X159.453 Y129.316 E5.14067
G1 X158.821 Y129.543 E5.16524
G1 X158.149 Y129.669 E5.19025
G1 X157.501 Y129.694 E5.21398
G1 X156.833 Y129.616 E5.23858
G1 X156.42 Y129.503 E5.25425
G0 F6000 X155.949 Y128.848
G1 F1200 X155.981 Y128.994 E5.25972
G1 X155.978 Y171.13 E6.80131
G1 F1097.7 X156.021 Y172.092 E6.83982
G1 F1011.5 X156.019 Y172.589 E6.8614
G1 F1009.6 X155.933 Y172.868 E6.87409
G1 X156.542 Y172.868 E6.90058
G1 F1011.5 X156.543 Y172.092 E6.93426
G1 F1097.7 X156.847 Y171.565 E6.95859
G1 F1200 X157.244 Y171.433 E6.9739
G1 X159.394 Y171.433 E7.05256
G1 X159.791 Y171.564 E7.06785
G1 F1097.7 X160.096 Y172.093 E7.09227
G1 F1011.5 X160.096 Y172.867 E7.12587
G1 F1009.6 X160.705 Y172.867 E7.15235
G1 X160.619 Y172.588 E7.16505
G1 F1011.5 X160.618 Y172.093 E7.18654
G1 F1097.7 X160.659 Y171.13 E7.22509
G1 F1200 X160.655 Y127.872 E8.80773
G1 X160.307 Y128.23 E8.826
G1 X159.842 Y128.595 E8.84762
G1 X159.273 Y128.913 E8.87147
G1 X158.702 Y129.118 E8.89367
G1 X158.11 Y129.231 E8.91572
G1 X157.516 Y129.253 E8.93746
G1 X156.922 Y129.183 E8.95935
G1 X156.35 Y129.028 E8.98103
G1 X155.949 Y128.848 E8.99711
G1 F1500 E5.99711
G1 F300 Z0.4
G0 F6000 X155.887 Y176.381 Z0.4
G1 F300 Z0.2
G1 F1500 E8.99711
G1 F1191.9 X156.03 Y176.58 E9.00614
G1 X156.337 Y176.894 E9.02231
G1 X156.583 Y177.082 E9.03372
G1 X156.583 Y176.381 E9.05954
G1 X155.887 Y176.381 E9.08518
G1 F1500 E6.08518
G1 F300 Z0.4
G0 F6000 X160.057 Y176.381 Z0.4
G1 F300 Z0.2
G1 F1500 E9.08518
G1 F1194.6 X160.056 Y177.082 E9.11094
G1 X160.312 Y176.884 E9.12283
G1 X160.608 Y176.579 E9.13846
G1 X160.753 Y176.381 E9.14747
G1 X160.057 Y176.381 E9.17305
G1 F1500 E6.17305
G1 F300 Z0.4
G0 F6000 X157.111 Y171.917 Z0.4
;TYPE:WALL-OUTER
G1 F300 Z0.2
G1 F1500 E9.17305
G1 F1200 X157.244 Y171.873 E9.17818
G1 X159.394 Y171.873 E9.25684
G1 X159.527 Y171.916 E9.26195
G1 X159.615 Y172.093 E9.26919
G1 X159.614 Y173.348 E9.3151
G1 X160.869 Y173.349 E9.36102
G1 X161.016 Y173.405 E9.36677
G1 F1173.3 X161.099 Y173.569 E9.37365
G1 F1064.5 X161.135 Y174.116 E9.39626
G1 F972.4 X161.147 Y174.56 E9.41631
G1 F963.5 X161.141 Y175.017 E9.43714
G1 F1011.5 X161.12 Y175.464 E9.45656
G1 F1086.4 X161.094 Y175.764 E9.46873
G1 F1150.3 X161.049 Y175.856 E9.47264
G1 F1189.2 X160.904 Y175.937 E9.47877
G1 F1200 X159.615 Y175.939 E9.52593
G1 X159.614 Y177.199 E9.57203
G1 F1191.9 X159.531 Y177.371 E9.57906
G1 F1165.6 X159.394 Y177.423 E9.58458
G1 F1060.2 X158.778 Y177.463 E9.61015
G1 F967 X158.319 Y177.471 E9.63099
G1 X157.86 Y177.463 E9.65183
G1 F1060.2 X157.244 Y177.423 E9.67739
G1 F1157.9 X157.106 Y177.374 E9.68294
G1 F1183.9 X157.024 Y177.198 E9.69014
G1 F1200 X157.024 Y175.94 E9.73617
G1 X155.732 Y175.937 E9.78344
G1 F1183.9 X155.589 Y175.856 E9.78953
G1 F1163 X155.541 Y175.719 E9.79501
G1 F1056 X155.497 Y175.016 E9.8243
G1 F961.7 X155.492 Y174.56 E9.84512
G1 F970.6 X155.503 Y174.116 E9.86521
G1 F1035.3 X155.544 Y173.511 E9.89092
G1 F1137.9 X155.624 Y173.402 E9.89614
G1 F1200 X155.769 Y173.349 E9.90178
G1 X157.023 Y173.348 E9.94766
G1 X157.024 Y172.092 E9.99362
G1 X157.111 Y171.917 E10.00077
G1 F1500 E7.00077
G1 F300 Z0.4
G0 F6000 X150.086 Y128.783 Z0.4
G1 F300 Z0.2
G1 F1500 E10.00077
G1 F1272.3 X149.519 Y128.792 E10.02033
G1 F1222.2 X149.021 Y128.762 E10.03826
G1 F1500 E7.03826
G1 F300 Z0.4
G0 F6000 X149.021 Y121.925 Z0.4
G1 F300 Z0.2
G1 F1500 E10.03826
G1 F1225.1 X149.55 Y121.895 E10.05724
G1 F1281.6 X150.08 Y121.907 E10.07541
G1 F1225.1 X150.606 Y122.002 E10.09456
G1 F1200 X151.104 Y122.184 E10.11396
G1 X151.547 Y122.425 E10.13241
G1 X151.99 Y122.764 E10.15282
G1 X152.359 Y123.152 E10.17241
G1 X152.661 Y123.584 E10.19169
G1 X152.882 Y124.031 E10.20994
G1 X153.051 Y124.569 E10.23057
G1 X153.128 Y125.065 E10.24893
G1 X153.13 Y125.61 E10.26887
G1 X153.044 Y126.151 E10.28891
G1 X152.883 Y126.655 E10.30827
G1 X152.639 Y127.142 E10.3282
G1 X152.336 Y127.565 E10.34724
G1 X151.965 Y127.948 E10.36675
G1 X151.547 Y128.263 E10.38589
G1 X151.075 Y128.517 E10.40551
G1 X150.569 Y128.696 E10.42514
G1 X150.174 Y128.773 E10.43987
G1 X154.795 Y128.773 E10.60893
G1 F1068.8 X155.469 Y128.762 E10.63662
G1 F1015.4 X155.543 Y128.893 E10.64312
G1 F1079.8 X155.543 Y132.535 E10.79121
G1 F1088.7 X155.543 Y136.177 E10.93808
G1 F1097.7 X155.543 Y139.819 E11.08375
G1 F1109.2 X155.542 Y143.461 E11.2279
G1 F1118.6 X155.542 Y147.103 E11.37083
G1 F1128.2 X155.542 Y150.745 E11.51256
G1 F1140.4 X155.541 Y154.387 E11.65277
G1 F1150.3 X155.541 Y158.029 E11.79177
G1 F1160.4 X155.541 Y161.671 E11.92956
G1 F1173.3 X155.54 Y165.313 E12.06584
G1 F1183.9 X155.54 Y168.955 E12.2009
G1 F1194.6 X155.54 Y172.597 E12.33475
G1 F1200 X155.242 Y173.106 E12.35633
G1 F1175.9 X155.082 Y173.501 E12.37224
G1 F1066.7 X154.973 Y174.07 E12.39609
G1 F970.6 X154.935 Y174.553 E12.418
G1 F961.7 X154.955 Y175.049 E12.44066
G1 F1011.5 X155.022 Y175.51 E12.46088
G1 F1084.2 X155.152 Y175.985 E12.48083
G1 F1155.4 X155.389 Y176.448 E12.50059
G1 F1200 X155.691 Y176.864 E12.5194
G1 X156.035 Y177.218 E12.53746
G1 X156.432 Y177.522 E12.55575
G1 F1160.4 X156.963 Y177.809 E12.57859
G1 F1104.6 X157.354 Y177.921 E12.59475
G1 F1031.2 X157.821 Y177.999 E12.61491
G1 F967 X158.319 Y178.027 E12.63756
G1 X158.817 Y177.999 E12.6602
G1 F1031.2 X159.301 Y177.917 E12.6811
G1 F1106.9 X159.717 Y177.791 E12.69834
G1 F1165.6 X160.203 Y177.524 E12.71923
G1 F1200 X160.606 Y177.215 E12.73781
G1 X160.947 Y176.864 E12.75571
G1 X161.246 Y176.453 E12.77431
G1 F1157.9 X161.499 Y175.96 E12.79532
G1 F1084.2 X161.617 Y175.512 E12.81408
G1 F1011.5 X161.684 Y175.049 E12.83438
G1 F963.5 X161.703 Y174.553 E12.857
G1 F972.4 X161.665 Y174.07 E12.87887
G1 F1066.7 X161.559 Y173.504 E12.90258
G1 F1175.9 X161.4 Y173.113 E12.91833
G1 F1200 X161.099 Y172.602 E12.94003
G1 X161.099 Y126.654 E14.62109
G1 F1137.9 X161.075 Y126.127 E14.64145
G1 X160.883 Y126.655 E14.66312
G1 F1200 X160.639 Y127.142 E14.68305
G1 X160.336 Y127.565 E14.70209
G1 X159.965 Y127.947 E14.72157
G1 X159.547 Y128.263 E14.74074
G1 X159.075 Y128.517 E14.76035
G1 X158.601 Y128.687 E14.77877
G1 X158.07 Y128.793 E14.79859
G1 X157.517 Y128.81 E14.81883
G1 X156.989 Y128.746 E14.83829
G1 X156.481 Y128.604 E14.85758
G1 X156.281 Y128.515 E14.86559
G1 F1150.3 X155.853 Y128.373 E14.8828
G1 F1097.7 X155.57 Y128.133 E14.89764
G1 F1118.6 X155.548 Y128.102 E14.89914
G1 F1173.3 X155.157 Y127.738 E14.91913
G1 F1200 X154.822 Y127.328 E14.9385
G1 X154.555 Y126.874 E14.95777
G1 X154.355 Y126.372 E14.97754
G1 F1202.7 X154.238 Y125.859 E14.99674
G1 X154.198 Y125.326 E15.01625
G1 F1200 X154.242 Y124.795 E15.03575
G1 X154.355 Y124.315 E15.05379
G1 X154.57 Y123.784 E15.07475
G1 X154.822 Y123.36 E15.09279
G1 X155.18 Y122.926 E15.11338
G1 X155.553 Y122.593 E15.13167
G1 X156.03 Y122.285 E15.15244
G1 X156.47 Y122.086 E15.17011
G1 F1165.6 X156.986 Y121.929 E15.19043
G1 X156.482 Y121.915 E15.20942
G1 F1200 X150.58 Y121.916 E15.42535
G1 F1225.1 X150.08 Y121.907 E15.44327
G1 F1500 E12.44327
G1 F300 Z0.4
G0 F6000 X156.986 Y121.929 Z0.4
G1 F300 Z0.2
G1 F1500 E15.44327
G1 F1216.6 X157.519 Y121.896 E15.46254
G1 F1313.4 X158.111 Y121.922 E15.48235
G1 F1316.7 X158.637 Y122.035 E15.50029
G1 F1323.3 X159.101 Y122.206 E15.5167
G1 F1330 X159.562 Y122.461 E15.53409
G1 F1323.3 X159.925 Y122.736 E15.5492
G1 F1310.2 X160.277 Y123.089 E15.5659
G1 F1306.9 X160.602 Y123.525 E15.58417
G1 F1313.4 X160.84 Y123.982 E15.60139
G1 F1336.7 X161.007 Y124.466 E15.61821
G1 F1353.8 X161.103 Y124.988 E15.63542
G1 F1326.6 X161.115 Y125.589 E15.65531
G1 F1178.6 X161.075 Y126.127 E15.67541
G1 F1500 E12.67541
G1 F300 Z0.4
G0 F6000 X142.086 Y128.783 Z0.4
G1 F300 Z0.2
G1 F1500 E15.67541
G1 F1291 X141.55 Y128.787 E15.69364
G1 F1346.9 X141.08 Y128.744 E15.70902
G1 X140.591 Y128.624 E15.72544
G1 X140.107 Y128.421 E15.74254
G1 F1323.3 X139.804 Y128.239 E15.75427
G1 F1326.6 X139.505 Y128.032 E15.7663
G1 F1340.1 X139.125 Y127.676 E15.78336
G1 F1313.4 X138.81 Y127.274 E15.80043
G1 F1303.7 X138.556 Y126.831 E15.81763
G1 X138.358 Y126.307 E15.8365
G1 F1316.7 X138.259 Y125.857 E15.85186
G1 F1330 X138.219 Y125.344 E15.86884
G1 X138.259 Y124.83 E15.88586
G1 F1320 X138.358 Y124.381 E15.90116
G1 F1306.9 X138.554 Y123.862 E15.91979
G1 X138.81 Y123.412 E15.93718
G1 F1316.7 X139.129 Y123.009 E15.95432
G1 F1310.2 X139.492 Y122.664 E15.9711
G1 F1294.1 X139.804 Y122.448 E15.98398
G1 F1323.3 X140.114 Y122.263 E15.99595
G1 F1340.1 X140.581 Y122.068 E16.01253
G1 F1313.4 X141.094 Y121.942 E16.03019
G1 F1323.3 X141.549 Y121.9 E16.04535
G1 F1294.1 X142.08 Y121.906 E16.06337
G1 F1222.2 X142.606 Y122.002 E16.08257
G1 F1200 X143.104 Y122.184 E16.10197
G1 X143.575 Y122.443 E16.12164
G1 X143.99 Y122.764 E16.14083
G1 X144.359 Y123.152 E16.16042
G1 X144.661 Y123.584 E16.17971
G1 X144.882 Y124.031 E16.19795
G1 X145.051 Y124.569 E16.21858
G1 X145.128 Y125.065 E16.23695
G1 X145.13 Y125.61 E16.25689
G1 X145.044 Y126.151 E16.27693
G1 X144.883 Y126.655 E16.29628
G1 X144.639 Y127.142 E16.31621
G1 X144.336 Y127.565 E16.33525
G1 X143.965 Y127.948 E16.35476
G1 X143.547 Y128.263 E16.37391
G1 X143.075 Y128.517 E16.39352
G1 X142.569 Y128.696 E16.41315
G1 X142.174 Y128.773 E16.42788
G1 X148.493 Y128.773 E16.65907
G1 F1173.3 X149.021 Y128.762 E16.67883
G1 X148.481 Y128.604 E16.69988
G1 F1200 X147.996 Y128.383 E16.71938
G1 X147.554 Y128.095 E16.73868
G1 X147.157 Y127.738 E16.75821
G1 X146.822 Y127.328 E16.77758
G1 X146.555 Y126.874 E16.79685
G1 X146.355 Y126.372 E16.81662
G1 F1202.7 X146.238 Y125.859 E16.83583
G1 X146.198 Y125.326 E16.85534
G1 F1200 X146.242 Y124.795 E16.87484
G1 X146.355 Y124.315 E16.89288
G1 X146.57 Y123.784 E16.91384
G1 X146.842 Y123.332 E16.93314
G1 X147.18 Y122.926 E16.95246
G1 X147.553 Y122.593 E16.97076
G1 X148.03 Y122.285 E16.99153
G1 X148.503 Y122.074 E17.01048
G1 F1175.9 X149.008 Y121.925 E17.03014
G1 X148.434 Y121.915 E17.05157
G1 F1200 X142.58 Y121.915 E17.26575
G1 F1222.2 X142.08 Y121.906 E17.28371
G1 F1500 E14.28371
G1 F300 Z0.4
G0 F6000 X156.817 Y130.009 Z0.4
;TYPE:SKIN
G1 F300 Z0.2
G1 F1500 E17.28371
G1 F1200 X157.468 Y130.089 E17.30771
G1 X158.226 Y130.061 E17.33546
G1 X158.955 Y129.917 E17.36264
G1 X159.595 Y129.687 E17.38753
G1 X159.823 Y129.565 E17.39699
G1 X159.823 Y170.729 E18.90302
G1 X159.423 Y170.597 E18.91843
G1 X157.214 Y170.597 E18.99925
G1 X156.814 Y170.73 E19.01467
G1 X156.817 Y130.009 E20.5045
G1 F1500 E17.5045
G1 F300 Z0.4
G0 F6000 X159.28 Y130.034 Z0.4
G1 F300 Z0.2
G1 F1500 E20.5045
G1 F1200 X159.603 Y130.357 E20.52121
G0 F6000 X159.603 Y130.979
G1 F1200 X158.796 Y130.172 E20.56296
G0 F6000 X158.275 Y130.274
G1 F1200 X159.603 Y131.601 E20.63165
G0 F6000 X159.603 Y132.224
G1 F1200 X157.677 Y130.298 E20.7313
G0 F6000 X157.035 Y130.278
G1 F1200 X159.603 Y132.846 E20.86417
G0 F6000 X159.603 Y133.468
G1 F1200 X157.035 Y130.901 E20.99701
G0 F6000 X157.035 Y131.523
G1 F1200 X159.603 Y134.09 E21.12986
G0 F6000 X159.603 Y134.713
G1 F1200 X157.035 Y132.145 E21.26273
G0 F6000 X157.035 Y132.767
G1 F1200 X159.603 Y135.335 E21.3956
G0 F6000 X159.603 Y135.957
G1 F1200 X157.035 Y133.39 E21.52844
G0 F6000 X157.035 Y134.012
G1 F1200 X159.603 Y136.579 E21.66129
G0 F6000 X159.603 Y137.202
G1 F1200 X157.035 Y134.634 E21.79416
G0 F6000 X157.035 Y135.256
G1 F1200 X159.603 Y137.824 E21.92703
G0 F6000 X159.603 Y138.446
G1 F1200 X157.035 Y135.879 E22.05987
G0 F6000 X157.035 Y136.501
G1 F1200 X159.603 Y139.068 E22.19271
G0 F6000 X159.603 Y139.691
G1 F1200 X157.035 Y137.123 E22.32558
G0 F6000 X157.035 Y137.745
G1 F1200 X159.603 Y140.313 E22.45845
G0 F6000 X159.603 Y140.935
G1 F1200 X157.035 Y138.368 E22.5913
G0 F6000 X157.035 Y138.99
G1 F1200 X159.603 Y141.557 E22.72414
G0 F6000 X159.603 Y142.18
G1 F1200 X157.035 Y139.612 E22.85701
G0 F6000 X157.035 Y140.234
G1 F1200 X159.603 Y142.802 E22.98988
G0 F6000 X159.603 Y143.424
G1 F1200 X157.034 Y140.856 E23.12278
G0 F6000 X157.034 Y141.478
G1 F1200 X159.603 Y144.046 E23.25567
G0 F6000 X159.603 Y144.669
G1 F1200 X157.034 Y142.1 E23.3886
G0 F6000 X157.034 Y142.723
G1 F1200 X159.603 Y145.291 E23.52149
G0 F6000 X159.603 Y145.913
