;FLAVOR:Marlin
;TIME:1271
;Filament used: 0.962237m
;Layer height: 0.16
;MINX:138.272
;MINY:121.864
;MINZ:0.2
;MAXX:161.781
;MAXY:178.052
;MAXZ:7.8
;Generated with Cura_SteamEngine 5.4.0
M140 S65
M105
M190 S65
M104 S210
M105
M109 S210
M82 ;absolute extrusion mode
G28 ; home all axes
M420 S1 Z10
 M117 Purge extruder
 G92 E0 ; reset extruder
 G1 Z1.0 F3000 ; move z up little to prevent scratching of surface
 G1 X2 Y20 Z0.3 F5000.0 ; move to start-line position
 G1 X2 Y200.0 Z0.3 F1500.0 E15 ; draw 1st line
 G1 X2 Y200.0 Z0.4 F5000.0 ; move to side a little
 G1 X2 Y20 Z0.4 F1500.0 E30 ; draw 2nd line
 G92 E0 ; reset extruder
 G1 Z1.0 F3000 ; move z up little to prevent scratching of surface
G92 E0
G92 E0
G1 F1500 E-3
;LAYER_COUNT:38
;LAYER:0
M107
G1 F300 Z0.4
;MESH:2. Stepper motor holder (R) [V4].stl
G0 F6000 X139.783 Y128.862 Z0.4
;TYPE:WALL-INNER
G1 F300 Z0.2
G1 F1500 E0
G1 F1200 X139.781 Y171.543 E1.56153
G1 X139.945 Y171.213 E1.57502
G1 X140.606 Y170.993 E1.6005
G1 X142.756 Y170.993 E1.67916
G1 X143.418 Y171.211 E1.70466
G1 X143.581 Y171.539 E1.71806
G1 X143.581 Y129.502 E3.25604
G1 X143.168 Y129.616 E3.27171
G1 X142.499 Y129.694 E3.29635
G1 X141.851 Y129.669 E3.32008
G1 X141.187 Y129.545 E3.34479
G1 X140.547 Y129.316 E3.36966
G1 X140.032 Y129.037 E3.39109
G1 X139.783 Y128.862 E3.40222
G0 F6000 X139.345 Y127.871
G1 F1200 X139.341 Y171.13 E4.9849
G1 F1097.7 X139.383 Y172.092 E5.02342
G1 F1011.5 X139.381 Y172.589 E5.04499
G1 F1009.6 X139.294 Y172.868 E5.0577
G1 X139.904 Y172.868 E5.08423
G1 F1011.5 X139.905 Y172.092 E5.11791
G1 F1097.7 X140.209 Y171.565 E5.14224
G1 F1200 X140.606 Y171.433 E5.15755
G1 X142.756 Y171.433 E5.23621
G1 X143.153 Y171.564 E5.2515
G1 F1097.7 X143.458 Y172.093 E5.27592
G1 F1011.5 X143.458 Y172.867 E5.30952
G1 F1009.6 X144.066 Y172.867 E5.33596
G1 X143.981 Y172.588 E5.34864
G1 F1011.5 X143.98 Y172.093 E5.37013
G1 F1097.7 X144.021 Y171.13 E5.40868
G1 F1200 X144.021 Y128.994 E6.95027
G1 X144.052 Y128.847 E6.95577
G1 X143.65 Y129.027 E6.97188
G1 X143.079 Y129.183 E6.99354
G1 X142.484 Y129.253 E7.01546
G1 X141.89 Y129.231 E7.03721
G1 X141.298 Y129.118 E7.05926
G1 X140.725 Y128.912 E7.08153
G1 X140.198 Y128.626 E7.10347
G1 X139.73 Y128.268 E7.12503
G1 X139.345 Y127.871 E7.14526
G1 F1500 E4.14526
G1 F300 Z0.4
G0 F6000 X146.328 Y127.091 Z0.4
G1 F300 Z0.2
G1 F1500 E7.14526
G1 F1095.4 X146.204 Y127.364 E7.15728
G1 X145.902 Y127.873 E7.181
G1 X146.774 Y127.872 E7.21595
G1 X146.574 Y127.592 E7.22974
G1 X146.328 Y127.091 E7.25211
G0 F6000 X146.336 Y125.721
G1 F1066.7 X146.145 Y126.172 E7.27227
G1 F1200 X146.043 Y126.569 E7.28726
G1 X145.835 Y127.084 E7.30758
G1 X145.529 Y127.599 E7.3295
G1 X145.183 Y128.017 E7.34935
G1 X144.838 Y128.334 E7.36649
G1 X147.791 Y128.333 E7.47453
G1 X147.312 Y127.835 E7.49981
G1 X146.97 Y127.351 E7.5215
G1 X146.684 Y126.756 E7.54565
G1 F1125.8 X146.457 Y126.009 E7.5761
G1 F1007.6 X146.336 Y125.721 E7.58971
G0 F6000 X146.328 Y125.703
G1 F818.6 X146.336 Y125.344 E7.60896
G1 X146.328 Y124.981 E7.62844
G1 F1500 E4.62844
G1 F300 Z0.4
G0 F6000 X145.902 Y122.816 Z0.4
G1 F300 Z0.2
G1 F1500 E7.62844
G1 F1095.4 X146.205 Y123.323 E7.65211
G1 X146.329 Y123.595 E7.66409
G1 X146.571 Y123.104 E7.68603
G1 X146.775 Y122.816 E7.70017
G1 X145.902 Y122.816 E7.73516
G0 F6000 X144.84 Y122.354
G1 F1200 X145.183 Y122.67 E7.75223
G1 X145.529 Y123.09 E7.77213
G1 X145.835 Y123.604 E7.79402
G1 X146.043 Y124.117 E7.81427
G1 X146.144 Y124.516 E7.82933
G1 F1066.7 X146.338 Y124.957 E7.84916
G1 F1005.7 X146.455 Y124.678 E7.86237
G1 F1123.4 X146.685 Y123.93 E7.89295
G1 F1200 X146.95 Y123.379 E7.91532
G1 X147.281 Y122.898 E7.93668
G1 X147.789 Y122.355 E7.96389
G1 X144.84 Y122.354 E8.07178
G1 F1500 E5.07178
G1 F300 Z0.4
G0 F6000 X153.894 Y122.817 Z0.4
G1 F300 Z0.2
G1 F1500 E8.07178
G1 F1095.4 X154.205 Y123.323 E8.09558
G1 X154.329 Y123.595 E8.10756
G1 X154.571 Y123.103 E8.12954
G1 X154.774 Y122.817 E8.1436
G1 X153.894 Y122.817 E8.17886
G0 F6000 X152.84 Y122.355
G1 F1200 X153.183 Y122.67 E8.1959
G1 X153.531 Y123.094 E8.21597
G1 X153.835 Y123.604 E8.23769
G1 X154.043 Y124.117 E8.25795
G1 X154.144 Y124.516 E8.273
G1 F1066.7 X154.338 Y124.957 E8.29283
G1 F1005.7 X154.455 Y124.678 E8.30604
G1 F1123.4 X154.685 Y123.93 E8.33662
G1 F1200 X154.971 Y123.336 E8.36074
G1 X155.344 Y122.821 E8.38401
G1 X155.791 Y122.356 E8.40761
G1 X152.84 Y122.355 E8.51557
G1 F1500 E5.51557
G1 F300 Z0.4
G0 F6000 X154.328 Y124.981 Z0.4
G1 F300 Z0.2
G1 F1500 E8.51557
G1 F818.6 X154.336 Y125.344 E8.53505
G1 X154.328 Y125.703 E8.55431
G0 F6000 X154.328 Y127.091
G1 F1095.4 X154.204 Y127.364 E8.56632
G1 X153.902 Y127.873 E8.59004
G1 X154.774 Y127.872 E8.62499
G1 X154.574 Y127.592 E8.63878
G1 X154.328 Y127.091 E8.66115
G0 F6000 X154.336 Y125.721
G1 F1066.7 X154.145 Y126.172 E8.68131
G1 F1200 X154.043 Y126.569 E8.69631
G1 X153.835 Y127.084 E8.71663
G1 X153.529 Y127.598 E8.73851
G1 X153.149 Y128.059 E8.76037
G1 X152.839 Y128.333 E8.77551
G1 X155.791 Y128.333 E8.88351
G1 X155.312 Y127.835 E8.90879
G1 X154.97 Y127.351 E8.93047
G1 X154.684 Y126.756 E8.95463
G1 F1125.8 X154.457 Y126.009 E8.98507
G1 F1007.6 X154.336 Y125.721 E8.99868
G1 F1500 E5.99868
G1 F300 Z0.4
G0 F6000 X143.419 Y176.381 Z0.4
G1 F300 Z0.2
G1 F1500 E8.99868
G1 F1194.6 X143.418 Y177.082 E9.02445
G1 X143.671 Y176.887 E9.03619
G1 X143.969 Y176.58 E9.05191
G1 X144.114 Y176.381 E9.06096
G1 X143.419 Y176.381 E9.0865
G1 F1500 E6.0865
G1 F300 Z0.4
G0 F6000 X139.247 Y176.381 Z0.4
G1 F300 Z0.2
G1 F1500 E9.0865
G1 F1191.9 X139.392 Y176.58 E9.09557
G1 X139.697 Y176.891 E9.11162
G1 X139.945 Y177.082 E9.12315
G1 X139.945 Y176.381 E9.14897
G1 X139.247 Y176.381 E9.17468
G1 F1500 E6.17468
G1 F300 Z0.4
G0 F6000 X140.473 Y171.917 Z0.4
;TYPE:WALL-OUTER
G1 F300 Z0.2
G1 F1500 E9.17468
G1 F1200 X140.606 Y171.873 E9.17981
G1 X142.756 Y171.873 E9.25847
G1 X142.889 Y171.916 E9.26358
G1 X142.977 Y172.093 E9.27081
G1 X142.976 Y173.348 E9.31673
G1 X144.231 Y173.349 E9.36264
G1 X144.375 Y173.403 E9.36827
G1 F1173.3 X144.461 Y173.569 E9.37527
G1 F1064.5 X144.498 Y174.116 E9.39788
G1 F972.4 X144.509 Y174.56 E9.41793
G1 F963.5 X144.503 Y175.016 E9.43871
G1 F1058.1 X144.459 Y175.719 E9.46794
G1 F1165.6 X144.411 Y175.856 E9.4734
G1 F1186.5 X144.268 Y175.937 E9.47949
G1 F1200 X142.977 Y175.939 E9.52672
G1 X142.977 Y177.198 E9.57278
G1 F1191.9 X142.892 Y177.372 E9.57991
G1 F1165.6 X142.756 Y177.423 E9.58538
G1 F1060.2 X142.14 Y177.463 E9.61095
G1 F967 X141.681 Y177.471 E9.63179
G1 X141.222 Y177.463 E9.65263
G1 F1027.2 X140.596 Y177.428 E9.67943
G1 F1116.3 X140.467 Y177.374 E9.68493
G1 F1181.2 X140.386 Y177.199 E9.69209
G1 F1200 X140.386 Y175.94 E9.73816
G1 X139.096 Y175.937 E9.78535
G1 F1183.9 X138.951 Y175.856 E9.79151
G1 F1163 X138.902 Y175.719 E9.797
G1 F1100 X138.88 Y175.464 E9.80722
G1 F1009.6 X138.859 Y175.017 E9.82668
G1 F960 X138.853 Y174.56 E9.84758
G1 F970.6 X138.865 Y174.116 E9.86767
G1 F1035.3 X138.905 Y173.512 E9.89334
G1 F1135.5 X138.983 Y173.404 E9.89849
G1 F1197.3 X139.131 Y173.349 E9.90428
G1 F1200 X140.385 Y173.349 E9.95016
G1 X140.386 Y172.092 E9.99615
G1 X140.473 Y171.917 E10.0033
G1 F1500 E7.0033
G1 F300 Z0.4
G0 F6000 X149.909 Y128.781 Z0.4
G1 F300 Z0.2
G1 F1500 E10.0033
G1 F1275.4 X150.481 Y128.792 E10.023
G1 F1211 X151.014 Y128.759 E10.04236
G1 F1500 E7.04236
G1 F300 Z0.4
G0 F6000 X150.979 Y121.925 Z0.4
G1 F300 Z0.2
G1 F1500 E10.04236
G1 F1225.1 X150.45 Y121.895 E10.06134
G1 F1281.6 X149.92 Y121.907 E10.07951
G0 F6000 X150.979 Y121.925
G1 F1173.3 X151.53 Y122.086 E10.10098
G1 F1200 X151.998 Y122.3 E10.11981
G1 X152.447 Y122.593 E10.13943
G1 X152.843 Y122.95 E10.15893
G1 X153.178 Y123.36 E10.17831
G1 X153.445 Y123.814 E10.19757
G1 X153.645 Y124.315 E10.21731
G1 X153.763 Y124.828 E10.23657
G1 X153.802 Y125.362 E10.25616
G1 F1202.7 X153.757 Y125.892 E10.27558
G1 X153.635 Y126.404 E10.29479
G1 F1200 X153.43 Y126.904 E10.31456
G1 X153.158 Y127.356 E10.33386
G1 X152.82 Y127.762 E10.35319
G1 X152.419 Y128.115 E10.37273
G1 X151.975 Y128.399 E10.39202
G1 X151.519 Y128.604 E10.41031
G1 F1163 X151.014 Y128.759 E10.43025
G1 X151.555 Y128.774 E10.45068
G1 F1200 X157.424 Y128.773 E10.6654
G1 F1222.2 X157.909 Y128.781 E10.68283
G1 X157.431 Y128.696 E10.70027
G1 F1200 X156.894 Y128.503 E10.72114
G1 X156.425 Y128.245 E10.74073
G1 X156.035 Y127.948 E10.75866
G1 X155.643 Y127.54 E10.77936
G1 X155.343 Y127.112 E10.79849
G1 X155.104 Y126.624 E10.81837
G1 X154.949 Y126.12 E10.83766
G1 X154.87 Y125.607 E10.85665
G1 X154.872 Y125.065 E10.87648
G1 X154.957 Y124.536 E10.89608
G1 X155.105 Y124.062 E10.91425
G1 X155.356 Y123.555 E10.93495
G1 X155.662 Y123.126 E10.95422
G1 X156.035 Y122.741 E10.97384
G1 X156.453 Y122.425 E10.99301
G1 X156.927 Y122.17 E11.0127
G1 X157.427 Y121.993 E11.03211
G1 F1225.1 X157.92 Y121.907 E11.05004
G1 X157.379 Y121.915 E11.06943
G1 F1200 X151.518 Y121.915 E11.28386
G1 F1173.3 X150.979 Y121.925 E11.30403
G1 F1500 E8.30403
G1 F300 Z0.4
G0 F6000 X157.92 Y121.907 Z0.4
G1 F300 Z0.2
G1 F1500 E11.30403
G1 F1297.3 X158.451 Y121.9 E11.32201
G1 F1326.6 X158.915 Y121.943 E11.33743
G1 F1316.7 X159.421 Y122.069 E11.35481
G1 F1340.1 X159.886 Y122.263 E11.37132
G1 F1326.6 X160.196 Y122.448 E11.38327
G1 F1300.5 X160.508 Y122.664 E11.39608
G1 F1297.3 X160.871 Y123.009 E11.41303
G1 X161.19 Y123.412 E11.43042
G1 F1306.9 X161.446 Y123.862 E11.44781
G1 F1310.2 X161.642 Y124.381 E11.4664
G1 F1316.7 X161.741 Y124.83 E11.48173
G1 F1333.3 X161.781 Y125.344 E11.49871
G1 F1336.7 X161.741 Y125.857 E11.51561
G1 X161.624 Y126.367 E11.5328
G1 F1343.5 X161.441 Y126.834 E11.54919
G1 F1326.6 X161.19 Y127.274 E11.56595
G1 F1303.7 X160.878 Y127.673 E11.58301
G1 F1316.7 X160.496 Y128.032 E11.60049
G1 X160.196 Y128.239 E11.61264
G1 F1326.6 X159.882 Y128.426 E11.62473
G1 F1353.8 X159.402 Y128.626 E11.6416
G1 F1346.9 X158.92 Y128.744 E11.65777
G1 X158.45 Y128.787 E11.67315
G1 F1294.1 X157.909 Y128.781 E11.69151
G1 F1500 E8.69151
G1 F300 Z0.4
G0 F6000 X142.979 Y121.925 Z0.4
G1 F300 Z0.2
G1 F1500 E11.69151
G1 F1225.1 X142.45 Y121.895 E11.7105
G1 F1310.2 X141.887 Y121.922 E11.72939
G1 F1313.4 X141.363 Y122.035 E11.7473
G1 F1323.3 X140.899 Y122.206 E11.76371
G1 F1326.6 X140.463 Y122.444 E11.78015
G1 X140.048 Y122.759 E11.79739
G1 F1316.7 X139.723 Y123.089 E11.81283
G1 F1310.2 X139.398 Y123.525 E11.83106
G1 F1306.9 X139.16 Y123.982 E11.84837
G1 F1297.3 X138.989 Y124.477 E11.86609
G1 F1306.9 X138.895 Y124.99 E11.88361
G1 F1303.7 X138.887 Y125.617 E11.90473
G1 F1178.6 X138.926 Y126.123 E11.92363
G1 F1140.4 X138.903 Y126.654 E11.94409
G1 F1200 X138.901 Y172.602 E13.62515
G1 F1197.3 X138.601 Y173.113 E13.64688
G1 F1173.3 X138.444 Y173.497 E13.6624
G1 F1066.7 X138.335 Y174.07 E13.68641
G1 F970.6 X138.297 Y174.553 E13.70833
G1 F960 X138.316 Y175.049 E13.73103
G1 F1009.6 X138.387 Y175.53 E13.75217
G1 F1082 X138.5 Y175.957 E13.77009
G1 F1155.4 X138.754 Y176.453 E13.79127
G1 F1200 X139.053 Y176.864 E13.80986
G1 X139.394 Y177.215 E13.82777
G1 X139.797 Y177.524 E13.84635
G1 F1160.4 X140.325 Y177.809 E13.86905
G1 F1104.6 X140.716 Y177.921 E13.88521
G1 F1031.2 X141.183 Y177.999 E13.90537
G1 F967 X141.681 Y178.027 E13.92802
G1 X142.179 Y177.999 E13.95066
G1 F1029.2 X142.663 Y177.917 E13.9716
G1 F1106.9 X143.079 Y177.791 E13.98884
G1 F1165.6 X143.567 Y177.522 E14.00983
G1 F1200 X143.965 Y177.217 E14.02818
G1 X144.308 Y176.864 E14.04618
G1 X144.61 Y176.447 E14.06502
G1 F1155.4 X144.858 Y175.966 E14.08558
G1 F1084.2 X144.978 Y175.511 E14.10464
G1 F1013.4 X145.045 Y175.049 E14.12486
G1 F963.5 X145.064 Y174.553 E14.14748
G1 F972.4 X145.027 Y174.07 E14.16935
G1 F1066.7 X144.923 Y173.513 E14.19267
G1 F1175.9 X144.759 Y173.106 E14.20906
G1 F1200 X144.461 Y172.602 E14.23048
G1 F1194.6 X144.461 Y167.743 E14.40906
G1 F1183.9 X144.46 Y162.884 E14.58925
G1 F1173.3 X144.46 Y158.025 E14.77107
G1 F1163 X144.459 Y153.166 E14.9545
G1 F1150.3 X144.459 Y148.307 E15.13994
G1 F1140.4 X144.458 Y143.448 E15.32701
G1 F1130.6 X144.458 Y138.589 E15.51569
G1 F1121 X144.457 Y133.73 E15.70599
G1 F1111.6 X144.457 Y128.871 E15.8979
G1 F1027.2 X144.531 Y128.762 E15.90353
G1 F1066.7 X145.205 Y128.774 E15.93128
G1 F1200 X149.424 Y128.773 E16.08563
G1 F1222.2 X149.909 Y128.781 E16.10306
G1 X149.431 Y128.696 E16.1205
G1 F1200 X148.894 Y128.503 E16.14137
G1 X148.425 Y128.245 E16.16096
G1 X148.035 Y127.948 E16.17889
G1 X147.643 Y127.54 E16.19959
G1 X147.343 Y127.112 E16.21872
G1 X147.104 Y126.624 E16.2386
G1 X146.949 Y126.12 E16.25789
G1 X146.87 Y125.607 E16.27688
G1 X146.872 Y125.065 E16.29671
G1 X146.957 Y124.536 E16.31631
G1 X147.105 Y124.062 E16.33448
G1 X147.341 Y123.581 E16.35408
G1 X147.662 Y123.126 E16.37445
G1 X148.035 Y122.742 E16.39404
G1 X148.453 Y122.425 E16.41323
G1 X148.927 Y122.17 E16.43292
G1 X149.427 Y121.993 E16.45233
G1 F1225.1 X149.92 Y121.907 E16.47026
G1 X149.379 Y121.915 E16.48965
G1 F1200 X143.518 Y121.915 E16.70409
G1 F1173.3 X142.979 Y121.925 E16.72426
G1 X143.529 Y122.086 E16.7457
G1 F1200 X143.998 Y122.3 E16.76456
G1 X144.447 Y122.593 E16.78418
G1 X144.843 Y122.95 E16.80368
G1 X145.178 Y123.36 E16.82305
G1 X145.445 Y123.814 E16.84232
G1 X145.645 Y124.315 E16.86206
G1 X145.763 Y124.828 E16.88132
G1 X145.802 Y125.362 E16.90091
G1 F1202.7 X145.757 Y125.892 E16.92032
G1 X145.635 Y126.404 E16.93954
G1 F1200 X145.43 Y126.904 E16.95931
G1 X145.158 Y127.356 E16.97861
G1 X144.82 Y127.762 E16.99794
G1 F1173.3 X144.452 Y128.102 E17.01668
G1 F1116.3 X144.431 Y128.134 E17.01819
G1 F1095.4 X144.138 Y128.38 E17.03352
G1 F1147.8 X143.719 Y128.514 E17.05035
G1 F1200 X143.486 Y128.616 E17.05965
G1 X143.011 Y128.746 E17.07767
G1 X142.449 Y128.811 E17.09837
G1 X141.93 Y128.793 E17.11737
G1 X141.399 Y128.687 E17.13718
G1 X140.894 Y128.503 E17.15684
G1 X140.425 Y128.245 E17.17643
G1 X140.035 Y127.948 E17.19436
G1 X139.643 Y127.54 E17.21506
G1 X139.343 Y127.112 E17.23418
G1 X139.104 Y126.624 E17.25406
G1 F1140.4 X138.926 Y126.123 E17.27453
G1 F1500 E14.27453
G1 F300 Z0.4
G0 F6000 X140.18 Y129.569 Z0.4
;TYPE:SKIN
G1 F300 Z0.2
G1 F1500 E17.27453
G1 F1200 X140.399 Y129.686 E17.28362
G1 X141.06 Y129.923 E17.30931
G1 X141.77 Y130.061 E17.33577
G1 X142.506 Y130.089 E17.36272
G1 X143.185 Y130.008 E17.38774
G1 X143.185 Y170.729 E18.87756
G1 X142.785 Y170.597 E18.89297
G1 X140.576 Y170.597 E18.97379
G1 X140.176 Y170.73 E18.98921
G1 X140.18 Y129.569 E20.49514
G1 F1500 E17.49514
G1 F300 Z0.4
G0 F6000 X142.729 Y130.284 Z0.4
G1 F300 Z0.2
G1 F1500 E20.49514
G1 F1200 X142.964 Y130.519 E20.50729
G0 F6000 X142.964 Y131.142
G1 F1200 X142.117 Y130.295 E20.55112
G0 F6000 X141.414 Y130.214
G1 F1200 X142.964 Y131.764 E20.63132
G0 F6000 X142.964 Y132.386
G1 F1200 X140.553 Y129.975 E20.75606
G0 F6000 X140.398 Y130.442
G1 F1200 X142.964 Y133.008 E20.88883
G0 F6000 X142.964 Y133.631
G1 F1200 X140.398 Y131.065 E21.0216
G0 F6000 X140.398 Y131.687
G1 F1200 X142.964 Y134.253 E21.15436
G0 F6000 X142.964 Y134.875
G1 F1200 X140.398 Y132.309 E21.28713
G0 F6000 X140.398 Y132.931
G1 F1200 X142.964 Y135.497 E21.4199
G0 F6000 X142.964 Y136.12
G1 F1200 X140.398 Y133.554 E21.55266
G0 F6000 X140.398 Y134.176
G1 F1200 X142.964 Y136.742 E21.68543
G0 F6000 X142.964 Y137.364
G1 F1200 X140.398 Y134.798 E21.81819
G0 F6000 X140.398 Y135.42
G1 F1200 X142.964 Y137.986 E21.95096
G0 F6000 X142.964 Y138.609
G1 F1200 X140.398 Y136.043 E22.08373
G0 F6000 X140.398 Y136.665
G1 F1200 X142.964 Y139.231 E22.21649
G0 F6000 X142.964 Y139.853
G1 F1200 X140.398 Y137.286 E22.34929
G0 F6000 X140.398 Y137.909
G1 F1200 X142.964 Y140.475 E22.48205
G0 F6000 X142.964 Y141.098
G1 F1200 X140.398 Y138.531 E22.61485
G0 F6000 X140.398 Y139.153
G1 F1200 X142.964 Y141.72 E22.74764
G0 F6000 X142.964 Y142.342
G1 F1200 X140.398 Y139.775 E22.88043
G0 F6000 X140.398 Y140.398
G1 F1200 X142.964 Y142.964 E23.0132
G0 F6000 X142.964 Y143.587
G1 F1200 X140.398 Y141.02 E23.14599
G0 F6000 X140.398 Y141.642
G1 F1200 X142.964 Y144.209 E23.27878
G0 F6000 X142.964 Y144.831
G1 F1200 X140.398 Y142.264 E23.41157
G0 F6000 X140.398 Y142.887
G1 F1200 X142.964 Y145.453 E23.54434
G0 F6000 X142.964 Y146.076
G1 F1200 X140.397 Y143.508 E23.67718
G0 F6000 X140.397 Y144.13
G1 F1200 X142.964 Y146.698 E23.81003
G0 F6000 X142.964 Y147.32
G1 F1200 X140.397 Y144.753 E23.94285
